; generated by PrusaSlicer 2.2.0+win64 on 2020-05-29 at 08:59:53 UTC

; 

; external perimeters extrusion width = 0.45mm
; perimeters extrusion width = 0.45mm
; infill extrusion width = 0.45mm
; solid infill extrusion width = 0.45mm
; top infill extrusion width = 0.40mm
; support material extrusion width = 0.35mm
; first layer extrusion width = 0.42mm

M73 P0 R90
M73 Q0 S92
M201 X1000 Y1000 Z1000 E5000 ; sets maximum accelerations, mm/sec^2
M203 X200 Y200 Z12 E120 ; sets maximum feedrates, mm/sec
M204 P1250 R1250 T1250 ; sets acceleration (P, T) and retract acceleration (R), mm/sec^2
M205 X8.00 Y8.00 Z0.40 E4.50 ; sets the jerk limits, mm/sec
M205 S0 T0 ; sets the minimum extruding and travel feed rate, mm/sec
M107
M862.3 P "MK3S" ; printer model check
M862.1 P0.4 ; nozzle diameter check
M115 U3.8.1 ; tell printer latest fw version
G90 ; use absolute coordinates
M83 ; extruder relative mode
M104 S240 ; set extruder temp
M140 S70 ; set bed temp
M190 S70 ; wait for bed temp
M109 S240 ; wait for extruder temp
G28 W ; home all without mesh bed level
G80 ; mesh bed leveling
G1 Y-3.0 F1000.0 ; go outside print area
G92 E0.0
G1 X60.0 E9.0 F1000.0 ; intro line
M73 Q0 S92
M73 P0 R90
G1 X100.0 E12.5 F1000.0 ; intro line
G92 E0.0
M221 S95
G21 ; set units to millimeters
G90 ; use absolute coordinates
M83 ; use relative distances for extrusion
M900 K30 ; Filament gcode
;BEFORE_LAYER_CHANGE
G92 E0.0
;0.2


G1 E-0.80000 F2100.00000
G1 Z0.600 F10800.000
;AFTER_LAYER_CHANGE
;0.2
G1 X105.234 Y77.948
G1 Z0.200
G1 E0.80000 F2100.00000
M204 S1000
G1 F1200.000
G1 X106.863 Y77.643 E0.05196
G1 X142.604 Y77.623 E1.12064
G1 X144.149 Y77.789 E0.04873
G1 X145.294 Y78.132 E0.03748
G1 X146.362 Y78.656 E0.03730
G1 X147.608 Y79.584 E0.04871
G1 X148.414 Y80.462 E0.03738
G1 X149.237 Y81.780 E0.04870
G1 X149.668 Y82.889 E0.03731
G1 X149.948 Y84.360 E0.04697
G1 X149.976 Y125.080 E1.27674
G1 X149.880 Y126.187 E0.03484
G1 X149.498 Y127.612 E0.04625
G1 X149.003 Y128.664 E0.03647
G1 X148.413 Y129.541 E0.03314
G1 X147.216 Y130.754 E0.05340
G1 X145.827 Y131.633 E0.05156
G1 X144.256 Y132.189 E0.05224
G1 X142.666 Y132.376 E0.05021
G1 X106.939 Y132.361 E1.12020
G1 X105.784 Y132.198 E0.03659
G1 X104.731 Y131.877 E0.03450
G1 X103.726 Y131.397 E0.03493
G1 X102.859 Y130.813 E0.03278
G1 X101.646 Y129.616 E0.05340
G1 X100.765 Y128.224 E0.05167
G1 X100.211 Y126.656 E0.05212
G1 X100.024 Y125.058 E0.05045
G1 X100.024 Y84.916 E1.25863
G1 X100.120 Y83.813 E0.03472
G1 X100.502 Y82.388 E0.04625
G1 X100.997 Y81.336 E0.03647
G1 X101.587 Y80.459 E0.03314
G1 X102.728 Y79.293 E0.05115
G1 X103.780 Y78.573 E0.03997
G1 X105.179 Y77.972 E0.04773
G1 F8640.000
G1 X106.863 Y77.643 E-0.39620
G1 X108.438 Y77.642 E-0.36380
G1 E-0.04000 F2100.00000
G1 Z0.800 F10800.000
G1 X126.480 Y84.760
G1 Z0.200
G1 E0.80000 F2100.00000
G1 F1200.000
G1 X126.483 Y85.144 E0.01206
G1 X126.518 Y85.212 E0.00238
G1 X126.403 Y85.217 E0.00359
G1 X126.470 Y84.819 E0.01267
G1 F8640.000
G1 X126.483 Y85.144 E-0.07522
G1 X126.518 Y85.212 E-0.01753
G1 X126.403 Y85.217 E-0.02646
G1 X126.470 Y84.819 E-0.09331
G1 E-0.58748 F2100.00000
G1 Z0.800 F10800.000
G1 X125.583 Y97.083
G1 Z0.200
G1 E0.80000 F2100.00000
G1 F1200.000
G1 X125.987 Y97.113 E0.01271
G1 X126.547 Y97.186 E0.01769
G1 X127.101 Y97.291 E0.01769
G1 X127.638 Y97.425 E0.01736
G1 X128.186 Y97.596 E0.01801
G1 X128.714 Y97.795 E0.01770
G1 X129.230 Y98.024 E0.01769
G1 X129.731 Y98.282 E0.01769
G1 X130.208 Y98.564 E0.01736
G1 X130.685 Y98.883 E0.01801
G1 X131.135 Y99.224 E0.01770
G1 X131.564 Y99.590 E0.01769
G1 X131.972 Y99.980 E0.01769
G1 X132.356 Y100.394 E0.01769
G1 X132.715 Y100.828 E0.01769
G1 X133.043 Y101.274 E0.01736
G1 X133.357 Y101.755 E0.01801
G1 X133.637 Y102.245 E0.01770
G1 X133.888 Y102.751 E0.01769
G1 X134.109 Y103.270 E0.01769
G1 X134.300 Y103.800 E0.01769
G1 X134.460 Y104.341 E0.01769
G1 X134.587 Y104.880 E0.01736
G1 X134.686 Y105.446 E0.01801
G1 X134.751 Y106.006 E0.01770
G1 X134.783 Y106.570 E0.01769
G1 X134.783 Y107.134 E0.01769
G1 X134.751 Y107.697 E0.01769
G1 X134.686 Y108.257 E0.01769
G1 X134.590 Y108.802 E0.01736
G1 X134.460 Y109.362 E0.01801
G1 X134.299 Y109.903 E0.01770
G1 X134.108 Y110.433 E0.01769
G1 X133.886 Y110.952 E0.01769
G1 X133.640 Y111.448 E0.01736
G1 X133.355 Y111.947 E0.01801
G1 X133.048 Y112.420 E0.01770
G1 X132.714 Y112.875 E0.01769
G1 X132.354 Y113.309 E0.01769
G1 X131.977 Y113.714 E0.01736
G1 X131.562 Y114.112 E0.01801
G1 X131.133 Y114.478 E0.01770
G1 X130.683 Y114.819 E0.01769
G1 X130.214 Y115.133 E0.01769
G1 X129.738 Y115.414 E0.01736
G1 X129.227 Y115.677 E0.01801
G1 X128.711 Y115.906 E0.01770
G1 X128.183 Y116.105 E0.01769
G1 X127.645 Y116.273 E0.01769
G1 X127.108 Y116.407 E0.01736
G1 X126.544 Y116.515 E0.01801
G1 X125.984 Y116.588 E0.01770
G1 X125.421 Y116.628 E0.01769
G1 X124.857 Y116.636 E0.01769
G1 X124.294 Y116.612 E0.01769
G1 X123.733 Y116.555 E0.01769
G1 X123.186 Y116.468 E0.01736
G1 X122.625 Y116.345 E0.01801
G1 X122.082 Y116.192 E0.01770
G1 X121.548 Y116.008 E0.01769
G1 X121.026 Y115.794 E0.01769
G1 X120.527 Y115.555 E0.01736
G1 X120.024 Y115.278 E0.01801
G1 X119.546 Y114.977 E0.01770
G1 X119.087 Y114.650 E0.01769
G1 X118.648 Y114.296 E0.01769
G1 X118.237 Y113.925 E0.01736
G1 X117.834 Y113.516 E0.01801
G1 X117.461 Y113.092 E0.01770
G1 X117.114 Y112.647 E0.01769
G1 X116.793 Y112.183 E0.01769
G1 X116.505 Y111.711 E0.01736
G1 X116.234 Y111.204 E0.01801
G1 X115.998 Y110.692 E0.01770
G1 X115.792 Y110.166 E0.01769
G1 X115.616 Y109.631 E0.01769
G1 X115.474 Y109.096 E0.01736
G1 X115.358 Y108.533 E0.01801
G1 X115.277 Y107.974 E0.01770
G1 X115.229 Y107.412 E0.01769
G1 X115.213 Y106.848 E0.01769
G1 X115.229 Y106.285 E0.01769
G1 X115.278 Y105.723 E0.01769
G1 X115.357 Y105.175 E0.01736
G1 X115.472 Y104.612 E0.01801
G1 X115.617 Y104.066 E0.01770
G1 X115.793 Y103.530 E0.01769
G1 X115.999 Y103.006 E0.01769
G1 X116.236 Y102.493 E0.01769
G1 X116.501 Y101.996 E0.01769
G1 X116.789 Y101.523 E0.01736
G1 X117.116 Y101.050 E0.01801
G1 X117.463 Y100.606 E0.01770
G1 X117.836 Y100.182 E0.01769
G1 X118.232 Y99.780 E0.01769
G1 X118.650 Y99.402 E0.01769
G1 X119.090 Y99.049 E0.01769
G1 X119.540 Y98.727 E0.01736
G1 X120.026 Y98.421 E0.01801
G1 X120.520 Y98.148 E0.01770
G1 X121.029 Y97.904 E0.01769
G1 X121.551 Y97.690 E0.01769
G1 X122.075 Y97.510 E0.01736
G1 X122.627 Y97.355 E0.01801
G1 X123.179 Y97.234 E0.01770
G1 X123.736 Y97.145 E0.01769
G1 X124.297 Y97.088 E0.01769
G1 X124.850 Y97.064 E0.01736
G1 X125.523 Y97.079 E0.02111
G1 X125.496 Y97.455 F10800.000
G1 F1200.000
G1 X125.949 Y97.488 E0.01425
G1 X126.487 Y97.558 E0.01701
G1 X127.020 Y97.659 E0.01700
G1 X127.536 Y97.788 E0.01668
G1 X128.064 Y97.952 E0.01733
G1 X128.571 Y98.144 E0.01701
G1 X129.067 Y98.364 E0.01701
G1 X129.549 Y98.612 E0.01700
G1 X130.007 Y98.883 E0.01668
G1 X130.466 Y99.190 E0.01733
G1 X130.899 Y99.518 E0.01701
G1 X131.311 Y99.870 E0.01701
G1 X131.703 Y100.245 E0.01701
G1 X132.072 Y100.642 E0.01701
G1 X132.418 Y101.060 E0.01700
G1 X132.733 Y101.489 E0.01668
G1 X133.035 Y101.952 E0.01733
G1 X133.304 Y102.423 E0.01701
G1 X133.545 Y102.909 E0.01701
G1 X133.758 Y103.408 E0.01701
G1 X133.942 Y103.918 E0.01701
G1 X134.096 Y104.438 E0.01700
G1 X134.217 Y104.956 E0.01668
G1 X134.313 Y105.500 E0.01733
G1 X134.375 Y106.039 E0.01701
G1 X134.406 Y106.580 E0.01701
G1 X134.406 Y107.123 E0.01701
G1 X134.375 Y107.664 E0.01701
G1 X134.312 Y108.203 E0.01700
G1 X134.221 Y108.727 E0.01668
G1 X134.095 Y109.265 E0.01733
G1 X133.941 Y109.785 E0.01701
G1 X133.757 Y110.295 E0.01701
G1 X133.544 Y110.794 E0.01700
G1 X133.307 Y111.271 E0.01668
G1 X133.033 Y111.751 E0.01733
G1 X132.738 Y112.205 E0.01701
G1 X132.416 Y112.642 E0.01701
G1 X132.070 Y113.060 E0.01700
G1 X131.708 Y113.449 E0.01668
G1 X131.309 Y113.832 E0.01733
G1 X130.896 Y114.184 E0.01701
G1 X130.464 Y114.511 E0.01701
G1 X130.013 Y114.813 E0.01700
G1 X129.555 Y115.084 E0.01668
G1 X129.064 Y115.337 E0.01733
G1 X128.568 Y115.557 E0.01701
G1 X128.061 Y115.748 E0.01701
G1 X127.543 Y115.910 E0.01700
G1 X127.027 Y116.039 E0.01668
G1 X126.484 Y116.142 E0.01733
G1 X125.946 Y116.212 E0.01701
G1 X125.405 Y116.251 E0.01701
G1 X124.863 Y116.259 E0.01701
G1 X124.321 Y116.236 E0.01701
G1 X123.781 Y116.181 E0.01700
G1 X123.256 Y116.097 E0.01668
G1 X122.716 Y115.979 E0.01733
G1 X122.194 Y115.832 E0.01701
G1 X121.681 Y115.655 E0.01701
G1 X121.179 Y115.450 E0.01700
G1 X120.700 Y115.220 E0.01668
G1 X120.216 Y114.953 E0.01733
G1 X119.757 Y114.664 E0.01701
G1 X119.315 Y114.349 E0.01701
G1 X118.893 Y114.009 E0.01700
G1 X118.498 Y113.652 E0.01668
G1 X118.110 Y113.259 E0.01733
G1 X117.752 Y112.851 E0.01701
G1 X117.418 Y112.424 E0.01701
G1 X117.110 Y111.978 E0.01700
G1 X116.833 Y111.523 E0.01668
G1 X116.572 Y111.036 E0.01733
G1 X116.345 Y110.543 E0.01701
G1 X116.147 Y110.039 E0.01701
G1 X115.978 Y109.523 E0.01700
G1 X115.841 Y109.009 E0.01668
G1 X115.730 Y108.468 E0.01733
G1 X115.652 Y107.931 E0.01701
G1 X115.605 Y107.391 E0.01701
G1 X115.590 Y106.848 E0.01701
G1 X115.606 Y106.306 E0.01701
G1 X115.652 Y105.766 E0.01700
G1 X115.729 Y105.240 E0.01668
G1 X115.839 Y104.698 E0.01733
G1 X115.978 Y104.174 E0.01701
G1 X116.148 Y103.658 E0.01701
G1 X116.346 Y103.154 E0.01701
G1 X116.574 Y102.661 E0.01701
G1 X116.829 Y102.183 E0.01700
G1 X117.106 Y101.729 E0.01668
G1 X117.420 Y101.274 E0.01733
G1 X117.754 Y100.846 E0.01701
G1 X118.112 Y100.439 E0.01701
G1 X118.493 Y100.053 E0.01701
G1 X118.895 Y99.689 E0.01701
G1 X119.318 Y99.349 E0.01700
G1 X119.751 Y99.040 E0.01668
G1 X120.218 Y98.745 E0.01733
G1 X120.693 Y98.483 E0.01701
G1 X121.182 Y98.249 E0.01701
G1 X121.684 Y98.043 E0.01700
G1 X122.187 Y97.870 E0.01668
G1 X122.719 Y97.720 E0.01733
G1 X123.249 Y97.604 E0.01701
G1 X123.784 Y97.519 E0.01701
G1 X124.324 Y97.464 E0.01700
G1 X124.856 Y97.441 E0.01668
G1 X125.436 Y97.451 E0.01821
G1 X125.712 Y97.118 F10800.000
G1 X125.000 Y96.811
G1 F1200.000
G1 X121.137 Y90.120 E0.24226
G1 X123.214 Y90.120 E0.06513
G1 X123.220 Y86.791 E0.10437
G1 X123.262 Y86.286 E0.01589
G1 X123.370 Y85.676 E0.01941
G1 X123.017 Y85.628 E0.01115
G1 X122.754 Y85.520 E0.00892
G1 X122.506 Y85.369 E0.00910
G1 X122.289 Y85.161 E0.00942
G1 X122.123 Y84.920 E0.00920
G1 X122.008 Y84.667 E0.00868
G1 X121.933 Y84.364 E0.00981
G1 X121.921 Y83.921 E0.01390
G1 X121.986 Y83.557 E0.01159
G1 X122.123 Y83.219 E0.01143
G1 X122.321 Y82.932 E0.01092
G1 X122.471 Y82.778 E0.00676
G1 X122.762 Y82.565 E0.01131
G1 X123.243 Y82.374 E0.01622
G1 X123.390 Y82.353 E0.00466
G1 X123.402 Y81.832 E0.01632
G1 X123.571 Y81.476 E0.01237
G1 X123.813 Y81.288 E0.00962
G1 X124.182 Y81.177 E0.01207
G1 X124.758 Y81.223 E0.01813
G1 X125.149 Y81.530 E0.01559
G1 X125.195 Y81.659 E0.00428
G1 X125.423 Y81.448 E0.00973
G1 X125.736 Y81.269 E0.01131
G1 X125.963 Y81.186 E0.00758
G1 X126.372 Y81.120 E0.01299
G1 X126.722 Y81.119 E0.01098
G1 X127.085 Y81.176 E0.01152
G1 X127.420 Y81.295 E0.01114
G1 X127.612 Y81.398 E0.00684
G1 X127.887 Y81.609 E0.01087
G1 X128.154 Y81.935 E0.01319
G1 X128.312 Y82.253 E0.01114
G1 X128.380 Y82.467 E0.00704
G1 X128.440 Y82.838 E0.01177
G1 X128.446 Y84.976 E0.06704
G1 X128.411 Y85.187 E0.00669
G1 X128.249 Y85.499 E0.01105
G1 X127.906 Y85.720 E0.01278
G1 X127.561 Y85.785 E0.01100
G1 X127.156 Y85.760 E0.01275
G1 X126.908 Y85.669 E0.00826
G1 X126.655 Y85.476 E0.00998
G1 X126.621 Y85.411 E0.00229
G1 X126.746 Y86.300 E0.02813
G1 X126.781 Y86.795 E0.01556
G1 X126.786 Y90.120 E0.10424
G1 X128.863 Y90.120 E0.06513
G1 X125.030 Y96.759 E0.24038
G1 X125.000 Y96.057 F10800.000
G1 F1200.000
G1 X121.790 Y90.497 E0.20130
G1 X123.590 Y90.497 E0.05645
G1 X123.597 Y86.807 E0.11569
G1 X123.637 Y86.334 E0.01487
G1 X123.760 Y85.635 E0.02225
G1 X125.003 Y85.618 E0.03899
G1 X125.499 Y85.639 E0.01558
G1 X126.267 Y85.601 E0.02411
G1 X126.371 Y86.339 E0.02336
G1 X126.404 Y86.808 E0.01474
G1 X126.410 Y90.497 E0.11565
G1 X128.210 Y90.497 E0.05645
G1 X125.030 Y96.005 E0.19942
G1 X124.718 Y96.341 F10800.000
G1 F8640.000
G1 X123.361 Y93.168 E-0.76000
G1 E-0.04000 F2100.00000
G1 Z0.800 F10800.000
G1 X125.575 Y85.264
G1 Z0.200
G1 E0.80000 F2100.00000
G1 F1200.000
G1 X125.384 Y85.253 E0.00599
G1 X125.162 Y85.064 E0.00914
G1 X125.160 Y82.921 E0.06719
G1 X125.204 Y82.521 E0.01261
G1 X125.275 Y82.246 E0.00888
G1 X125.410 Y81.996 E0.00893
G1 X125.511 Y81.866 E0.00516
G1 X125.639 Y81.759 E0.00522
G1 X125.896 Y81.612 E0.00927
G1 X126.059 Y81.552 E0.00544
G1 X126.403 Y81.497 E0.01093
G1 X126.693 Y81.496 E0.00911
G1 X126.992 Y81.543 E0.00948
G1 X127.267 Y81.641 E0.00915
G1 X127.407 Y81.716 E0.00498
G1 X127.632 Y81.889 E0.00890
G1 X127.738 Y82.004 E0.00490
G1 X127.830 Y82.131 E0.00493
G1 X127.961 Y82.395 E0.00924
G1 X128.012 Y82.555 E0.00527
G1 X128.063 Y82.869 E0.00997
G1 X128.068 Y84.946 E0.06513
G1 X128.049 Y85.066 E0.00382
G1 X127.960 Y85.236 E0.00601
G1 X127.764 Y85.363 E0.00734
G1 X127.538 Y85.406 E0.00720
G1 X127.234 Y85.387 E0.00954
G1 X127.092 Y85.334 E0.00477
G1 X126.950 Y85.227 E0.00555
G1 X126.859 Y85.051 E0.00622
G1 X126.847 Y83.100 E0.06117
G1 X126.827 Y82.891 E0.00658
G1 X126.784 Y82.778 E0.00380
G1 X126.737 Y82.720 E0.00234
G1 X126.672 Y82.682 E0.00235
G1 X126.562 Y82.658 E0.00356
G1 X126.416 Y82.663 E0.00455
G1 X126.329 Y82.691 E0.00288
G1 X126.253 Y82.756 E0.00313
G1 X126.213 Y82.836 E0.00280
G1 X126.184 Y82.998 E0.00517
G1 X126.175 Y84.000 E0.03143
G1 X126.145 Y84.482 E0.01512
G1 X126.045 Y85.074 E0.01885
G1 X125.857 Y85.236 E0.00776
G1 X125.635 Y85.258 E0.00700
G1 X125.495 Y85.437 F10800.000
G1 X124.756 Y85.004
G1 F1200.000
G1 X124.656 Y85.152 E0.00559
G1 X124.502 Y85.230 E0.00542
G1 X123.443 Y85.306 E0.03330
G1 X123.116 Y85.260 E0.01035
G1 X122.924 Y85.183 E0.00648
G1 X122.737 Y85.069 E0.00686
G1 X122.578 Y84.916 E0.00692
G1 X122.453 Y84.734 E0.00694
G1 X122.366 Y84.543 E0.00657
G1 X122.309 Y84.312 E0.00745
G1 X122.299 Y83.949 E0.01138
G1 X122.351 Y83.662 E0.00914
G1 X122.457 Y83.399 E0.00891
G1 X122.613 Y83.173 E0.00862
G1 X122.719 Y83.063 E0.00478
G1 X122.946 Y82.897 E0.00880
G1 X123.341 Y82.741 E0.01332
G1 X123.759 Y82.694 E0.01321
G1 X123.777 Y81.921 E0.02423
G1 X123.873 Y81.719 E0.00703
G1 X123.989 Y81.629 E0.00461
G1 X124.222 Y81.558 E0.00765
G1 X124.614 Y81.590 E0.01233
G1 X124.830 Y81.759 E0.00862
G1 X124.902 Y81.960 E0.00668
G1 X124.816 Y82.498 E0.01708
G1 X124.783 Y82.948 E0.01415
G1 X124.781 Y84.822 E0.05876
G1 X124.764 Y84.945 E0.00389
G1 X124.863 Y85.146 F10800.000
G1 F8640.000
G1 X124.656 Y85.152 E-0.05397
G1 X124.502 Y85.230 E-0.03993
G1 X123.443 Y85.306 E-0.24525
G1 X123.116 Y85.260 E-0.07622
G1 X122.924 Y85.183 E-0.04775
G1 X122.737 Y85.069 E-0.05054
G1 X122.578 Y84.916 E-0.05096
G1 X122.453 Y84.734 E-0.05109
G1 X122.366 Y84.543 E-0.04835
G1 X122.309 Y84.312 E-0.05485
G1 X122.304 Y84.134 E-0.04109
G1 E-0.04000 F2100.00000
G1 Z0.800 F10800.000
G1 X139.612 Y85.000
G1 Z0.200
G1 E0.80000 F2100.00000
G1 F1200.000
G1 X139.632 Y84.653 E0.01090
G1 X139.688 Y84.333 E0.01019
G1 X139.791 Y83.980 E0.01152
G1 X139.929 Y83.659 E0.01097
G1 X140.103 Y83.358 E0.01090
G1 X140.311 Y83.079 E0.01090
G1 X140.549 Y82.826 E0.01090
G1 X140.815 Y82.603 E0.01090
G1 X141.106 Y82.412 E0.01090
G1 X141.416 Y82.256 E0.01090
G1 X141.743 Y82.137 E0.01090
G1 X142.081 Y82.057 E0.01090
G1 X142.426 Y82.017 E0.01090
G1 X142.774 Y82.017 E0.01090
G1 X143.119 Y82.057 E0.01090
G1 X143.457 Y82.137 E0.01090
G1 X143.784 Y82.256 E0.01090
G1 X144.094 Y82.412 E0.01090
G1 X144.385 Y82.603 E0.01090
G1 X144.651 Y82.826 E0.01090
G1 X144.889 Y83.079 E0.01090
G1 X145.097 Y83.358 E0.01090
G1 X145.271 Y83.659 E0.01090
G1 X145.408 Y83.978 E0.01090
G1 X145.508 Y84.311 E0.01090
G1 X145.568 Y84.653 E0.01090
G1 X145.588 Y85.000 E0.01090
G1 X145.568 Y85.347 E0.01090
G1 X145.508 Y85.689 E0.01090
G1 X145.408 Y86.022 E0.01090
G1 X145.271 Y86.341 E0.01090
G1 X145.108 Y86.623 E0.01019
G1 X144.891 Y86.919 E0.01153
G1 X144.651 Y87.174 E0.01097
G1 X144.385 Y87.397 E0.01090
G1 X144.094 Y87.588 E0.01090
G1 X143.804 Y87.734 E0.01019
G1 X143.459 Y87.862 E0.01152
G1 X143.119 Y87.943 E0.01097
G1 X142.774 Y87.983 E0.01090
G1 X142.426 Y87.983 E0.01090
G1 X142.081 Y87.943 E0.01090
G1 X141.743 Y87.863 E0.01090
G1 X141.416 Y87.744 E0.01090
G1 X141.106 Y87.588 E0.01090
