; generated by PrusaSlicer 2.2.0+win64 on 2020-05-29 at 15:30:27 UTC

; 

; external perimeters extrusion width = 0.45mm
; perimeters extrusion width = 0.45mm
; infill extrusion width = 0.45mm
; solid infill extrusion width = 0.45mm
; top infill extrusion width = 0.40mm
; first layer extrusion width = 0.42mm

M73 P0 R9
M73 Q0 S9
M201 X1000 Y1000 Z1000 E5000 ; sets maximum accelerations, mm/sec^2
M203 X200 Y200 Z12 E120 ; sets maximum feedrates, mm/sec
M204 P1250 R1250 T1250 ; sets acceleration (P, T) and retract acceleration (R), mm/sec^2
M205 X8.00 Y8.00 Z0.40 E4.50 ; sets the jerk limits, mm/sec
M205 S0 T0 ; sets the minimum extruding and travel feed rate, mm/sec
M107
M862.3 P "MK3S" ; printer model check
M862.1 P0.4 ; nozzle diameter check
M115 U3.8.1 ; tell printer latest fw version
G90 ; use absolute coordinates
M83 ; extruder relative mode
M104 S250 ; set extruder temp
M140 S90 ; set bed temp
M190 S90 ; wait for bed temp
M109 S250 ; wait for extruder temp
G28 W ; home all without mesh bed level
G80 ; mesh bed leveling
G1 Y-3.0 F1000.0 ; go outside print area
G92 E0.0
G1 X60.0 E9.0 F1000.0 ; intro line
M73 Q0 S9
M73 P0 R9
G1 X100.0 E12.5 F1000.0 ; intro line
G92 E0.0
M221 S95
G21 ; set units to millimeters
G90 ; use absolute coordinates
M83 ; use relative distances for extrusion
M900 K30 ; Filament gcode
;BEFORE_LAYER_CHANGE
G92 E0.0
;0.2


G1 E-0.80000 F2100.00000
G1 Z0.600 F10800.000
;AFTER_LAYER_CHANGE
;0.2
G1 X114.325 Y95.732
G1 Z0.200
G1 E0.80000 F2100.00000
M204 S1000
G1 F720.000
G1 X115.129 Y94.882 E0.03670
G1 X116.275 Y93.880 E0.04771
G1 X117.282 Y93.163 E0.03877
G1 X118.563 Y92.420 E0.04642
G1 X119.974 Y91.794 E0.04841
G1 X121.083 Y91.425 E0.03665
G1 X122.591 Y91.078 E0.04854
G1 X123.710 Y90.931 E0.03536
G1 X125.220 Y90.873 E0.04738
G1 X126.383 Y90.939 E0.03652
G1 X127.925 Y91.177 E0.04892
G1 X129.427 Y91.582 E0.04879
G1 X130.518 Y91.991 E0.03652
G1 X131.919 Y92.678 E0.04892
G1 X133.232 Y93.512 E0.04879
G1 X134.151 Y94.228 E0.03652
G1 X135.284 Y95.301 E0.04892
G1 X136.289 Y96.489 E0.04879
G1 X136.953 Y97.446 E0.03652
G1 X137.715 Y98.807 E0.04892
G1 X138.320 Y100.241 E0.04879
G1 X138.669 Y101.352 E0.03652
G1 X138.990 Y102.879 E0.04892
G1 X139.141 Y104.428 E0.04879
G1 X139.143 Y105.588 E0.03639
G1 X139.001 Y107.101 E0.04764
G1 X138.782 Y108.247 E0.03657
G1 X138.346 Y109.739 E0.04874
G1 X137.746 Y111.179 E0.04892
G1 X137.199 Y112.203 E0.03639
G1 X136.335 Y113.502 E0.04892
G1 X135.336 Y114.695 E0.04879
G1 X134.502 Y115.516 E0.03670
G1 X133.294 Y116.495 E0.04874
G1 X131.985 Y117.336 E0.04879
G1 X130.949 Y117.868 E0.03652
G1 X129.500 Y118.446 E0.04892
G1 X127.999 Y118.858 E0.04879
G1 X126.852 Y119.058 E0.03652
G1 X126.156 Y119.126 E0.02192
G1 X123.757 Y119.123 E0.07523
G1 X122.536 Y118.963 E0.03860
G1 X121.025 Y118.610 E0.04866
G1 X119.952 Y118.249 E0.03549
G1 X118.542 Y117.620 E0.04841
G1 X117.551 Y117.061 E0.03567
G1 X116.279 Y116.174 E0.04861
G1 X115.421 Y115.446 E0.03529
G1 X114.344 Y114.342 E0.04836
G1 X113.633 Y113.459 E0.03554
G1 X112.776 Y112.162 E0.04874
G1 X112.069 Y110.780 E0.04866
G1 X111.653 Y109.737 E0.03524
G1 X111.218 Y108.247 E0.04866
G1 X111.005 Y107.139 E0.03536
G1 X110.858 Y105.594 E0.04866
G1 X110.858 Y104.442 E0.03613
G1 X111.003 Y102.925 E0.04777
G1 X111.213 Y101.821 E0.03523
G1 X111.646 Y100.335 E0.04854
G1 X112.063 Y99.283 E0.03549
G1 X112.766 Y97.908 E0.04841
G1 X113.371 Y96.956 E0.03536
G1 X114.288 Y95.779 E0.04678
G1 X114.585 Y96.011 F10800.000
G1 F720.000
G1 X115.388 Y95.156 E0.03677
G1 X116.509 Y94.177 E0.04665
G1 X117.485 Y93.481 E0.03759
G1 X118.733 Y92.756 E0.04527
G1 X120.113 Y92.145 E0.04732
G1 X121.181 Y91.789 E0.03530
G1 X122.659 Y91.449 E0.04756
G1 X123.738 Y91.307 E0.03410
G1 X125.219 Y91.251 E0.04649
G1 X126.343 Y91.314 E0.03530
G1 X127.846 Y91.546 E0.04768
G1 X129.314 Y91.942 E0.04768
G1 X130.368 Y92.338 E0.03530
G1 X131.734 Y93.006 E0.04768
G1 X133.018 Y93.822 E0.04768
G1 X133.905 Y94.514 E0.03530
G1 X135.010 Y95.559 E0.04768
G1 X135.992 Y96.720 E0.04768
G1 X136.633 Y97.646 E0.03530
G1 X137.376 Y98.972 E0.04768
G1 X137.968 Y100.373 E0.04768
G1 X138.304 Y101.448 E0.03530
G1 X138.618 Y102.936 E0.04768
G1 X138.765 Y104.449 E0.04768
G1 X138.766 Y105.571 E0.03518
G1 X138.622 Y107.089 E0.04780
G1 X138.312 Y108.574 E0.04756
G1 X137.978 Y109.649 E0.03530
G1 X137.404 Y111.020 E0.04661
G1 X136.875 Y112.009 E0.03518
G1 X136.034 Y113.276 E0.04768
G1 X135.057 Y114.441 E0.04768
G1 X134.255 Y115.231 E0.03530
G1 X133.074 Y116.189 E0.04768
G1 X131.794 Y117.011 E0.04768
G1 X130.793 Y117.525 E0.03530
G1 X129.380 Y118.088 E0.04768
G1 X127.914 Y118.491 E0.04768
G1 X126.805 Y118.684 E0.03530
G1 X126.150 Y118.749 E0.02063
G1 X123.774 Y118.746 E0.07448
G1 X122.604 Y118.592 E0.03702
G1 X121.127 Y118.247 E0.04756
G1 X120.089 Y117.897 E0.03434
G1 X118.710 Y117.283 E0.04732
G1 X117.756 Y116.744 E0.03434
G1 X116.512 Y115.877 E0.04756
G1 X115.681 Y115.172 E0.03417
G1 X114.625 Y114.091 E0.04737
G1 X113.939 Y113.239 E0.03429
G1 X113.102 Y111.972 E0.04761
G1 X112.411 Y110.622 E0.04756
G1 X112.009 Y109.611 E0.03410
G1 X111.583 Y108.155 E0.04756
G1 X111.377 Y107.083 E0.03422
G1 X111.234 Y105.573 E0.04756
G1 X111.235 Y104.459 E0.03494
G1 X111.377 Y102.976 E0.04673
G1 X111.580 Y101.907 E0.03410
G1 X112.004 Y100.455 E0.04744
G1 X112.408 Y99.436 E0.03434
G1 X113.095 Y98.093 E0.04732
G1 X113.681 Y97.172 E0.03422
G1 X114.548 Y96.058 E0.04427
G1 F8640.000
G1 X115.388 Y95.156 E-0.28460
G1 X116.509 Y94.177 E-0.34357
G1 X116.973 Y93.845 E-0.13183
G1 E-0.04000 F2100.00000
G1 Z0.800 F10800.000
G1 X126.337 Y115.929
G1 Z0.200
G1 E0.80000 F2100.00000
G1 F720.000
G1 X126.245 Y115.777 E0.00557
G1 X125.988 Y115.512 E0.01158
G1 X125.697 Y115.325 E0.01084
G1 X125.521 Y115.251 E0.00599
G1 X125.179 Y115.171 E0.01103
G1 X124.821 Y115.171 E0.01122
G1 X124.473 Y115.252 E0.01122
G1 X124.152 Y115.410 E0.01122
G1 X123.880 Y115.633 E0.01103
G1 X123.755 Y115.777 E0.00598
G1 X123.663 Y115.929 E0.00557
G1 X122.710 Y115.774 E0.03027
G1 X121.900 Y115.569 E0.02619
G1 X121.116 Y115.306 E0.02594
G1 X120.348 Y114.982 E0.02612
G1 X119.609 Y114.602 E0.02606
G1 X118.901 Y114.167 E0.02606
G1 X118.225 Y113.679 E0.02612
G1 X117.906 Y113.419 E0.01291
G1 X117.289 Y112.856 E0.02619
G1 X117.001 Y112.562 E0.01291
G1 X116.452 Y111.933 E0.02619
G1 X116.199 Y111.608 E0.01291
G1 X115.726 Y110.922 E0.02612
G1 X115.307 Y110.204 E0.02606
G1 X114.942 Y109.455 E0.02612
G1 X114.784 Y109.075 E0.01291
G1 X114.506 Y108.290 E0.02612
G1 X114.289 Y107.487 E0.02606
G1 X114.134 Y106.669 E0.02612
G1 X114.080 Y106.261 E0.01291
G1 X114.018 Y105.430 E0.02612
G1 X114.018 Y104.597 E0.02612
G1 X114.042 Y104.186 E0.01291
G1 X114.137 Y103.358 E0.02612
G1 X114.295 Y102.540 E0.02612
G1 X114.396 Y102.139 E0.01297
G1 X114.512 Y101.741 E0.01297
G1 X114.783 Y100.978 E0.02539
G1 X115.129 Y100.195 E0.02686
G1 X115.317 Y99.828 E0.01291
G1 X115.726 Y99.130 E0.02539
G1 X116.212 Y98.426 E0.02680
G1 X116.722 Y97.798 E0.02538
G1 X117.014 Y97.475 E0.01365
G1 X117.611 Y96.891 E0.02618
G1 X117.921 Y96.620 E0.01291
G1 X118.559 Y96.122 E0.02539
G1 X119.270 Y95.648 E0.02680
G1 X119.997 Y95.241 E0.02612
G1 X120.367 Y95.060 E0.01291
G1 X121.135 Y94.738 E0.02612
G1 X121.924 Y94.475 E0.02606
G1 X122.732 Y94.272 E0.02612
G1 X123.547 Y94.132 E0.02594
G1 X124.377 Y94.053 E0.02612
G1 X125.231 Y94.039 E0.02680
G1 X126.040 Y94.085 E0.02539
G1 X126.860 Y94.194 E0.02594
G1 X127.677 Y94.367 E0.02618
G1 X128.097 Y94.481 E0.01365
G1 X128.865 Y94.738 E0.02539
G1 X129.631 Y95.059 E0.02606
G1 X130.373 Y95.439 E0.02612
G1 X130.728 Y95.647 E0.01291
G1 X131.422 Y96.108 E0.02613
G1 X132.061 Y96.605 E0.02539
G1 X132.692 Y97.176 E0.02667
G1 X133.266 Y97.783 E0.02619
G1 X133.531 Y98.097 E0.01291
G1 X134.031 Y98.764 E0.02612
G1 X134.479 Y99.464 E0.02606
G1 X134.872 Y100.197 E0.02606
G1 X135.210 Y100.958 E0.02612
G1 X135.355 Y101.344 E0.01291
G1 X135.604 Y102.140 E0.02619
G1 X135.705 Y102.540 E0.01291
G1 X135.863 Y103.360 E0.02619
G1 X135.918 Y103.768 E0.01291
G1 X135.982 Y104.599 E0.02612
G1 X135.982 Y105.432 E0.02612
G1 X135.959 Y105.843 E0.01291
G1 X135.866 Y106.671 E0.02613
G1 X135.715 Y107.466 E0.02539
G1 X135.610 Y107.889 E0.01365
G1 X135.370 Y108.664 E0.02544
G1 X135.217 Y109.074 E0.01371
G1 X135.058 Y109.455 E0.01296
G1 X134.693 Y110.204 E0.02612
G1 X134.274 Y110.922 E0.02606
G1 X133.801 Y111.608 E0.02612
G1 X133.548 Y111.933 E0.01291
G1 X133.000 Y112.561 E0.02612
G1 X132.406 Y113.145 E0.02612
G1 X132.097 Y113.417 E0.01291
G1 X131.441 Y113.930 E0.02612
G1 X130.748 Y114.393 E0.02612
G1 X130.393 Y114.601 E0.01291
G1 X129.650 Y114.983 E0.02619
G1 X129.272 Y115.151 E0.01297
G1 X128.888 Y115.305 E0.01297
G1 X128.098 Y115.570 E0.02612
G1 X127.290 Y115.774 E0.02612
G1 X126.397 Y115.921 E0.02839
G1 X126.354 Y115.752 F10800.000
G1 X126.523 Y115.522
G1 F720.000
G1 X126.219 Y115.212 E0.01361
G1 X125.874 Y114.990 E0.01287
G1 X125.638 Y114.891 E0.00802
G1 X125.222 Y114.794 E0.01340
G1 X124.778 Y114.794 E0.01393
G1 X124.345 Y114.895 E0.01393
G1 X123.946 Y115.091 E0.01393
G1 X123.616 Y115.361 E0.01340
G1 X123.477 Y115.522 E0.00667
G1 X122.792 Y115.406 E0.02177
G1 X122.003 Y115.206 E0.02552
G1 X121.253 Y114.955 E0.02482
G1 X120.508 Y114.640 E0.02534
G1 X119.794 Y114.273 E0.02517
G1 X119.110 Y113.854 E0.02517
G1 X118.455 Y113.380 E0.02534
G1 X118.152 Y113.134 E0.01224
G1 X117.551 Y112.585 E0.02552
G1 X117.278 Y112.306 E0.01224
G1 X116.743 Y111.693 E0.02552
G1 X116.504 Y111.385 E0.01224
G1 X116.044 Y110.720 E0.02534
G1 X115.640 Y110.027 E0.02517
G1 X115.286 Y109.300 E0.02534
G1 X115.136 Y108.940 E0.01224
G1 X114.866 Y108.178 E0.02534
G1 X114.657 Y107.403 E0.02517
G1 X114.506 Y106.609 E0.02534
G1 X114.455 Y106.222 E0.01224
G1 X114.395 Y105.416 E0.02534
G1 X114.396 Y104.608 E0.02534
G1 X114.418 Y104.218 E0.01224
G1 X114.510 Y103.415 E0.02534
G1 X114.663 Y102.621 E0.02534
G1 X114.760 Y102.238 E0.01241
G1 X114.871 Y101.858 E0.01242
G1 X115.134 Y101.118 E0.02461
G1 X115.469 Y100.357 E0.02608
G1 X115.647 Y100.010 E0.01223
G1 X116.044 Y99.333 E0.02461
G1 X116.514 Y98.653 E0.02591
G1 X117.008 Y98.043 E0.02460
G1 X117.286 Y97.737 E0.01297
G1 X117.867 Y97.168 E0.02550
G1 X118.161 Y96.910 E0.01224
G1 X118.780 Y96.428 E0.02461
G1 X119.467 Y95.969 E0.02590
G1 X120.172 Y95.575 E0.02533
G1 X120.523 Y95.404 E0.01224
G1 X121.268 Y95.091 E0.02534
G1 X122.030 Y94.837 E0.02517
G1 X122.813 Y94.641 E0.02534
G1 X123.594 Y94.507 E0.02482
G1 X124.398 Y94.430 E0.02533
G1 X125.224 Y94.416 E0.02590
G1 X126.007 Y94.461 E0.02461
G1 X126.401 Y94.506 E0.01242
G1 X126.792 Y94.565 E0.01241
G1 X127.588 Y94.733 E0.02550
G1 X127.987 Y94.842 E0.01297
G1 X128.732 Y95.091 E0.02462
G1 X129.472 Y95.401 E0.02517
G1 X130.192 Y95.769 E0.02534
G1 X130.529 Y95.967 E0.01224
G1 X131.202 Y96.414 E0.02535
G1 X131.821 Y96.896 E0.02462
G1 X132.138 Y97.172 E0.01315
G1 X132.425 Y97.443 E0.01239
G1 X132.984 Y98.034 E0.02552
G1 X133.236 Y98.332 E0.01224
G1 X133.721 Y98.979 E0.02534
G1 X134.153 Y99.655 E0.02517
G1 X134.533 Y100.362 E0.02517
G1 X134.860 Y101.101 E0.02534
G1 X134.998 Y101.466 E0.01224
G1 X135.241 Y102.243 E0.02552
G1 X135.337 Y102.621 E0.01224
G1 X135.491 Y103.421 E0.02552
G1 X135.543 Y103.807 E0.01224
G1 X135.604 Y104.613 E0.02534
G1 X135.605 Y105.421 E0.02534
G1 X135.584 Y105.811 E0.01224
G1 X135.493 Y106.614 E0.02535
G1 X135.346 Y107.386 E0.02462
G1 X135.247 Y107.788 E0.01298
G1 X135.013 Y108.542 E0.02477
G1 X134.866 Y108.935 E0.01315
G1 X134.714 Y109.300 E0.01239
G1 X134.360 Y110.027 E0.02534
G1 X133.956 Y110.720 E0.02517
G1 X133.496 Y111.385 E0.02534
G1 X133.257 Y111.693 E0.01224
G1 X132.725 Y112.302 E0.02534
G1 X132.149 Y112.869 E0.02534
G1 X131.856 Y113.126 E0.01224
G1 X131.220 Y113.624 E0.02534
G1 X130.547 Y114.073 E0.02534
G1 X130.211 Y114.271 E0.01224
G1 X129.487 Y114.643 E0.02552
G1 X128.758 Y114.951 E0.02482
G1 X127.992 Y115.208 E0.02534
G1 X127.208 Y115.406 E0.02534
G1 X126.583 Y115.514 E0.01989
G1 F8640.000
G1 X126.219 Y115.212 E-0.10907
G1 X125.874 Y114.990 E-0.09477
G1 X125.638 Y114.891 E-0.05910
G1 X125.222 Y114.794 E-0.09869
G1 X124.778 Y114.794 E-0.10260
G1 X124.345 Y114.895 E-0.10260
G1 X123.946 Y115.091 E-0.10260
G1 X123.643 Y115.339 E-0.09059
G1 E-0.04000 F2100.00000
G1 Z0.800 F10800.000
G1 X133.640 Y99.062
G1 Z0.200
G1 E0.80000 F2100.00000
G1 F720.000
G1 X132.188 Y97.610 E0.06531
G1 X131.639 Y97.113 E0.02353
G1 X131.037 Y96.644 E0.02430
G1 X130.379 Y96.207 E0.02512
G1 X130.054 Y96.017 E0.01196
G1 X133.994 Y99.957 E0.17722
G1 X134.279 Y100.487 E0.01912
G1 X134.514 Y101.018 E0.01847
G1 X129.011 Y95.515 E0.24749
G1 X128.632 Y95.356 E0.01307
G1 X128.151 Y95.195 E0.01614
G1 X134.829 Y101.874 E0.30038
G1 X135.048 Y102.633 E0.02514
G1 X127.397 Y94.982 E0.34413
G1 X126.714 Y94.840 E0.02217
G1 X135.181 Y103.307 E0.38080
G1 X135.269 Y103.936 E0.02020
G1 X126.090 Y94.757 E0.41282
G1 X125.507 Y94.715 E0.01858
G1 X135.314 Y104.522 E0.44105
G1 X135.322 Y105.071 E0.01747
G1 X124.955 Y94.703 E0.46629
G1 X124.423 Y94.713 E0.01691
G1 X135.312 Y105.602 E0.48974
G1 X135.267 Y106.097 E0.01583
G1 X123.928 Y94.759 E0.50995
G1 X123.444 Y94.815 E0.01551
G1 X135.211 Y106.583 E0.52924
G1 X135.125 Y107.037 E0.01472
G1 X122.984 Y94.896 E0.54606
G1 X122.546 Y94.999 E0.01430
G1 X135.031 Y107.484 E0.56151
G1 X134.914 Y107.908 E0.01398
G1 X122.114 Y95.108 E0.57569
G1 X121.708 Y95.243 E0.01361
G1 X134.785 Y108.321 E0.58818
G1 X134.645 Y108.721 E0.01349
G1 X121.306 Y95.382 E0.59992
G1 X120.925 Y95.542 E0.01314
G1 X134.489 Y109.106 E0.61004
G1 X134.315 Y109.473 E0.01292
G1 X120.548 Y95.706 E0.61918
G1 X120.190 Y95.889 E0.01279
G1 X134.138 Y109.837 E0.62732
G1 X133.942 Y110.182 E0.01262
G1 X119.843 Y96.083 E0.63410
G1 X119.504 Y96.285 E0.01255
G1 X133.743 Y110.523 E0.64039
G1 X133.525 Y110.846 E0.01239
G1 X119.180 Y96.501 E0.64518
M73 Q11 S8
M73 P11 R8
G1 X118.945 Y96.657 E0.00895
G1 X118.861 Y96.723 E0.00341
G1 X133.304 Y111.166 E0.64958
G1 X133.070 Y111.473 E0.01227
G1 X118.557 Y96.960 E0.65272
G1 X118.258 Y97.202 E0.01223
G1 X132.820 Y111.764 E0.65494
G1 X132.568 Y112.053 E0.01219
G1 X117.974 Y97.459 E0.65636
G1 X117.701 Y97.727 E0.01216
G1 X132.299 Y112.325 E0.65656
G1 X132.026 Y112.593 E0.01216
G1 X117.431 Y97.998 E0.65642
G1 X117.177 Y98.284 E0.01218
G1 X131.742 Y112.850 E0.65509
G1 X131.442 Y113.091 E0.01224
G1 X116.935 Y98.583 E0.65250
G1 X116.697 Y98.886 E0.01225
G1 X131.139 Y113.328 E0.64956
G1 X130.820 Y113.551 E0.01235
G1 X116.476 Y99.206 E0.64517
G1 X116.257 Y99.528 E0.01239
G1 X130.496 Y113.767 E0.64040
G1 X130.160 Y113.973 E0.01251
G1 X116.057 Y99.870 E0.63429
G1 X115.861 Y100.214 E0.01261
G1 X129.807 Y114.160 E0.62726
G1 X129.450 Y114.344 E0.01277
G1 X115.682 Y100.576 E0.61923
G1 X115.516 Y100.951 E0.01305
G1 X129.080 Y114.515 E0.61002
G1 X128.695 Y114.671 E0.01320
G1 X115.357 Y101.333 E0.59989
G1 X115.216 Y101.732 E0.01347
G1 X128.292 Y114.809 E0.58811
G1 X127.885 Y114.943 E0.01362
G1 X115.083 Y102.141 E0.57579
G1 X114.969 Y102.567 E0.01404
G1 X127.454 Y115.052 E0.56153
G1 X127.013 Y115.152 E0.01437
G1 X114.875 Y103.015 E0.54589
G1 X114.789 Y103.469 E0.01471
G1 X126.154 Y114.834 E0.51115
G1 X126.007 Y114.739 E0.00557
G1 X125.726 Y114.621 E0.00969
G1 X125.301 Y114.522 E0.01390
G1 X114.733 Y103.954 E0.47528
G1 X114.688 Y104.450 E0.01583
G1 X124.749 Y114.511 E0.45250
G1 X124.310 Y114.612 E0.01434
G1 X114.678 Y104.981 E0.43319
G1 X114.687 Y105.531 E0.01749
G1 X123.937 Y114.780 E0.41601
G1 X123.792 Y114.851 E0.00511
G1 X123.613 Y114.998 E0.00736
G1 X114.731 Y106.115 E0.39950
G1 X114.820 Y106.746 E0.02025
G1 X123.276 Y115.201 E0.38030
G1 X122.850 Y115.129 E0.01372
G1 X122.599 Y115.065 E0.00825
G1 X114.955 Y107.422 E0.34378
G1 X115.164 Y108.172 E0.02476
G1 X121.856 Y114.864 E0.30099
G1 X121.355 Y114.691 E0.01686
G1 X120.988 Y114.536 E0.01268
G1 X115.478 Y109.027 E0.24778
G1 X115.889 Y109.893 E0.03050
G1 X116.009 Y110.098 E0.00755
G1 X119.943 Y114.032 E0.17692
G1 X119.267 Y113.618 E0.02520
G1 X118.627 Y113.155 E0.02511
G1 X118.337 Y112.919 E0.01190
G1 X117.790 Y112.420 E0.02355
G1 X116.387 Y111.018 E0.06308
M106 S255
;BEFORE_LAYER_CHANGE
G92 E0.0
;0.4


G1 F8640.000
G1 X117.790 Y112.420 E-0.45803
G1 X118.337 Y112.919 E-0.17096
