; generated by PrusaSlicer 2.2.0+win64 on 2020-05-29 at 08:47:54 UTC

; 

; external perimeters extrusion width = 0.45mm
; perimeters extrusion width = 0.45mm
; infill extrusion width = 0.45mm
; solid infill extrusion width = 0.45mm
; top infill extrusion width = 0.40mm
; support material extrusion width = 0.35mm
; first layer extrusion width = 0.42mm

M73 P0 R14
M73 Q0 S14
M201 X1000 Y1000 Z1000 E5000 ; sets maximum accelerations, mm/sec^2
M203 X200 Y200 Z12 E120 ; sets maximum feedrates, mm/sec
M204 P1250 R1250 T1250 ; sets acceleration (P, T) and retract acceleration (R), mm/sec^2
M205 X8.00 Y8.00 Z0.40 E4.50 ; sets the jerk limits, mm/sec
M205 S0 T0 ; sets the minimum extruding and travel feed rate, mm/sec
M107
M862.3 P "MK3S" ; printer model check
M862.1 P0.4 ; nozzle diameter check
M115 U3.8.1 ; tell printer latest fw version
G90 ; use absolute coordinates
M83 ; extruder relative mode
M104 S240 ; set extruder temp
M140 S70 ; set bed temp
M190 S70 ; wait for bed temp
M109 S240 ; wait for extruder temp
G28 W ; home all without mesh bed level
G80 ; mesh bed leveling
G1 Y-3.0 F1000.0 ; go outside print area
G92 E0.0
G1 X60.0 E9.0 F1000.0 ; intro line
M73 Q0 S14
M73 P0 R14
G1 X100.0 E12.5 F1000.0 ; intro line
G92 E0.0
M221 S95
G21 ; set units to millimeters
G90 ; use absolute coordinates
M83 ; use relative distances for extrusion
M900 K30 ; Filament gcode
;BEFORE_LAYER_CHANGE
G92 E0.0
;0.2


G1 E-0.80000 F2100.00000
G1 Z0.600 F10800.000
;AFTER_LAYER_CHANGE
;0.2
G1 X106.950 Y90.143
G1 Z0.200
G1 E0.80000 F2100.00000
M204 S1000
G1 F1200.000
G1 X108.537 Y88.402 E0.07385
G1 X110.291 Y86.830 E0.07385
G1 X112.194 Y85.442 E0.07385
G1 X114.227 Y84.253 E0.07385
G1 X116.334 Y83.288 E0.07266
G1 X118.529 Y82.537 E0.07275
G1 X120.164 Y82.128 E0.05285
G1 X122.453 Y81.762 E0.07266
G1 X124.827 Y81.624 E0.07457
G1 X127.157 Y81.723 E0.07314
G1 X129.489 Y82.058 E0.07385
G1 X131.771 Y82.625 E0.07373
G1 X133.988 Y83.421 E0.07385
G1 X136.114 Y84.435 E0.07385
G1 X138.127 Y85.658 E0.07385
G1 X140.007 Y87.077 E0.07385
G1 X141.707 Y88.651 E0.07266
G1 X143.156 Y90.279 E0.06832
G1 X144.251 Y91.741 E0.05727
G1 X145.470 Y93.712 E0.07266
G1 X146.515 Y95.861 E0.07492
G1 X147.315 Y98.040 E0.07278
G1 X147.903 Y100.321 E0.07385
G1 X148.257 Y102.646 E0.07373
G1 X148.376 Y104.998 E0.07385
G1 X148.257 Y107.354 E0.07397
G1 X147.903 Y109.679 E0.07373
G1 X147.315 Y111.960 E0.07385
G1 X146.515 Y114.139 E0.07278
G1 X145.472 Y116.285 E0.07481
G1 X144.251 Y118.259 E0.07278
G1 X142.819 Y120.129 E0.07385
G1 X141.707 Y121.349 E0.05175
G1 X140.007 Y122.923 E0.07266
G1 X138.127 Y124.342 E0.07385
G1 X136.114 Y125.565 E0.07385
G1 X133.988 Y126.580 E0.07385
G1 X131.771 Y127.375 E0.07385
G1 X129.489 Y127.942 E0.07373
G1 X127.157 Y128.277 E0.07385
G1 X124.823 Y128.376 E0.07326
G1 X122.453 Y128.238 E0.07445
G1 X120.127 Y127.864 E0.07385
G1 X117.851 Y127.258 E0.07385
G1 X115.683 Y126.440 E0.07266
G1 X113.572 Y125.394 E0.07385
G1 X112.162 Y124.537 E0.05175
G1 X110.287 Y123.168 E0.07278
G1 X108.512 Y121.574 E0.07480
G1 X106.950 Y119.857 E0.07278
G1 X105.546 Y117.966 E0.07385
G1 X104.342 Y115.946 E0.07373
G1 X103.346 Y113.811 E0.07385
G1 X102.569 Y111.588 E0.07385
G1 X102.020 Y109.297 E0.07385
G1 X101.704 Y106.963 E0.07385
G1 X101.624 Y104.647 E0.07266
G1 X101.775 Y102.332 E0.07275
G1 X102.027 Y100.665 E0.05285
G1 X102.570 Y98.408 E0.07278
G1 X103.359 Y96.157 E0.07481
G1 X104.342 Y94.054 E0.07278
G1 X105.549 Y92.031 E0.07385
G1 X106.914 Y90.191 E0.07185
G1 F8640.000
G1 X108.537 Y88.402 E-0.55766
G1 X109.189 Y87.817 E-0.20234
G1 E-0.04000 F2100.00000
G1 Z0.800 F10800.000
G1 X110.671 Y97.251
G1 Z0.200
G1 E0.80000 F2100.00000
G1 F1200.000
G1 X110.671 Y112.579 E0.48059
G1 X111.425 Y112.579 E0.02365
G1 X111.425 Y97.421 E0.47527
G1 X112.179 Y97.421 E0.02365
G1 X112.179 Y112.579 E0.47527
G1 X112.807 Y112.579 E0.01967
G1 X112.807 Y114.886 E0.07234
G1 X112.933 Y114.886 E0.00397
G1 X112.933 Y95.114 E0.61995
G1 X113.688 Y95.114 E0.02365
G1 X113.688 Y114.886 E0.61995
G1 X114.442 Y114.886 E0.02365
G1 X114.442 Y95.114 E0.61995
G1 X115.114 Y95.114 E0.02107
G1 X115.114 Y92.807 E0.07234
G1 X115.196 Y92.807 E0.00257
G1 X115.196 Y117.193 E0.76462
G1 X115.950 Y117.193 E0.02365
G1 X115.950 Y92.807 E0.76462
G1 X116.704 Y92.807 E0.02365
G1 X116.704 Y117.193 E0.76462
G1 X117.421 Y117.193 E0.02247
G1 X117.421 Y119.500 E0.07234
G1 X117.458 Y119.500 E0.00118
G1 X117.458 Y90.500 E0.90929
G1 X118.213 Y90.500 E0.02365
G1 X118.213 Y119.500 E0.90929
G1 X118.967 Y119.500 E0.02365
G1 X118.967 Y90.500 E0.90929
G1 X119.721 Y90.500 E0.02365
G1 X119.721 Y119.500 E0.90929
G1 X120.475 Y119.500 E0.02365
G1 X120.475 Y90.500 E0.90929
G1 X121.229 Y90.500 E0.02365
G1 X121.229 Y119.500 E0.90929
G1 X121.983 Y119.500 E0.02365
G1 X121.983 Y90.500 E0.90929
G1 X122.738 Y90.500 E0.02365
G1 X122.738 Y119.500 E0.90929
G1 X123.492 Y119.500 E0.02365
G1 X123.492 Y90.500 E0.90929
G1 X124.246 Y90.500 E0.02365
G1 X124.246 Y103.351 E0.40294
G1 X125.000 Y103.351 E0.02365
G1 X125.000 Y90.500 E0.40294
G1 X125.754 Y90.500 E0.02365
G1 X125.754 Y103.520 E0.40826
G1 F8640.000
G1 X125.754 Y100.229 E-0.76000
G1 E-0.04000 F2100.00000
G1 Z0.800 F10800.000
G1 X124.246 Y106.480
G1 Z0.200
G1 E0.80000 F2100.00000
G1 F1200.000
G1 X124.246 Y119.500 E0.40826
G1 X125.000 Y119.500 E0.02365
G1 X125.000 Y106.649 E0.40294
G1 X125.754 Y106.649 E0.02365
G1 X125.754 Y119.500 E0.40294
G1 X126.508 Y119.500 E0.02365
G1 X126.508 Y90.500 E0.90929
G1 X127.262 Y90.500 E0.02365
G1 X127.262 Y119.500 E0.90929
G1 X128.017 Y119.500 E0.02365
G1 X128.017 Y90.500 E0.90929
G1 X128.771 Y90.500 E0.02365
G1 X128.771 Y119.500 E0.90929
G1 X129.525 Y119.500 E0.02365
G1 X129.525 Y90.500 E0.90929
G1 X130.279 Y90.500 E0.02365
G1 X130.279 Y119.500 E0.90929
G1 X131.033 Y119.500 E0.02365
G1 X131.033 Y90.500 E0.90929
G1 X131.787 Y90.500 E0.02365
G1 X131.787 Y119.500 E0.90929
G1 X132.542 Y119.500 E0.02365
G1 X132.542 Y90.500 E0.90929
G1 X132.579 Y90.500 E0.00118
G1 X132.579 Y92.807 E0.07234
G1 X133.296 Y92.807 E0.02247
G1 X133.296 Y117.193 E0.76462
G1 X134.050 Y117.193 E0.02365
G1 X134.050 Y92.807 E0.76462
G1 X134.804 Y92.807 E0.02365
G1 X134.804 Y117.193 E0.76462
G1 X134.886 Y117.193 E0.00257
G1 X134.886 Y114.886 E0.07234
G1 X135.558 Y114.886 E0.02107
G1 X135.558 Y95.114 E0.61995
G1 X136.312 Y95.114 E0.02365
G1 X136.312 Y114.886 E0.61995
G1 X137.067 Y114.886 E0.02365
G1 X137.067 Y95.114 E0.61995
G1 X137.193 Y95.114 E0.00397
G1 X137.193 Y97.421 E0.07234
M73 Q7 S13
G1 X137.821 Y97.421 E0.01967
G1 X137.821 Y112.579 E0.47527
M73 P7 R13
G1 X138.575 Y112.579 E0.02365
G1 X138.575 Y97.421 E0.47527
G1 X139.329 Y97.421 E0.02365
G1 X139.329 Y112.749 E0.48059
G1 F8640.000
G1 X139.329 Y109.457 E-0.76000
G1 E-0.04000 F2100.00000
G1 Z0.800 F10800.000
G1 X142.829 Y114.712
G1 Z0.200
G1 E0.80000 F2100.00000
G1 F1200.000
G1 X142.468 Y115.356 E0.02315
G1 X141.910 Y116.247 E0.03297
G1 X141.304 Y117.106 E0.03297
G1 X140.657 Y117.934 E0.03294
G1 X140.200 Y118.469 E0.02205
G1 X139.482 Y119.236 E0.03294
G1 X138.728 Y119.967 E0.03294
G1 X138.201 Y120.433 E0.02205
G1 X137.384 Y121.094 E0.03294
G1 X136.536 Y121.715 E0.03297
G1 X135.654 Y122.288 E0.03297
G1 X134.746 Y122.819 E0.03297
G1 X133.810 Y123.297 E0.03297
G1 X132.852 Y123.731 E0.03297
G1 X131.871 Y124.110 E0.03297
G1 X130.875 Y124.443 E0.03294
G1 X130.198 Y124.634 E0.02206
G1 X129.175 Y124.874 E0.03294
G1 X128.142 Y125.066 E0.03294
G1 X127.445 Y125.163 E0.02207
G1 X126.123 Y125.279 E0.04162
G1 X125.348 Y125.307 E0.02430
G1 X124.298 Y125.296 E0.03294
G1 X123.248 Y125.235 E0.03297
G1 X122.203 Y125.115 E0.03297
G1 X121.165 Y124.945 E0.03297
G1 X120.138 Y124.718 E0.03297
G1 X119.125 Y124.442 E0.03294
G1 X118.455 Y124.227 E0.02205
G1 X117.470 Y123.861 E0.03294
G1 X116.504 Y123.449 E0.03294
G1 X115.871 Y123.144 E0.02205
G1 X114.976 Y122.663 E0.03185
G1 X114.045 Y122.103 E0.03406
G1 X113.175 Y121.512 E0.03297
G1 X112.335 Y120.879 E0.03297
G1 X111.558 Y120.224 E0.03189
G1 X110.761 Y119.485 E0.03406
G1 X110.032 Y118.727 E0.03297
G1 X109.340 Y117.937 E0.03294
G1 X108.902 Y117.387 E0.02206
G1 X108.285 Y116.536 E0.03294
G1 X107.709 Y115.658 E0.03294
G1 X107.350 Y115.053 E0.02206
G1 X106.856 Y114.126 E0.03294
G1 X106.406 Y113.176 E0.03297
G1 X106.010 Y112.201 E0.03297
G1 X105.661 Y111.210 E0.03297
G1 X105.367 Y110.200 E0.03297
G1 X105.122 Y109.177 E0.03297
G1 X104.935 Y108.142 E0.03297
G1 X104.797 Y107.101 E0.03294
G1 X104.737 Y106.400 E0.02205
G1 X104.693 Y105.351 E0.03294
G1 X104.701 Y104.300 E0.03294
G1 X104.737 Y103.598 E0.02205
G1 X104.838 Y102.552 E0.03294
G1 X104.990 Y101.512 E0.03297
G1 X105.200 Y100.481 E0.03297
G1 X105.458 Y99.462 E0.03297
G1 X105.762 Y98.491 E0.03189
G1 X106.135 Y97.471 E0.03406
G1 X106.552 Y96.506 E0.03297
G1 X107.014 Y95.562 E0.03294
G1 X107.351 Y94.945 E0.02206
G1 X107.897 Y94.047 E0.03294
G1 X108.483 Y93.176 E0.03294
G1 X108.903 Y92.611 E0.02206
G1 X109.567 Y91.797 E0.03294
G1 X110.270 Y91.014 E0.03299
G1 X111.216 Y90.082 E0.04166
G1 X111.795 Y89.566 E0.02430
G1 X112.612 Y88.906 E0.03294
G1 X113.403 Y88.326 E0.03075
G1 X114.343 Y87.712 E0.03520
G1 X115.250 Y87.182 E0.03294
G1 X115.873 Y86.856 E0.02205
G1 X116.824 Y86.410 E0.03294
G1 X117.795 Y86.010 E0.03294
G1 X118.457 Y85.772 E0.02205
G1 X119.461 Y85.461 E0.03294
G1 X120.479 Y85.199 E0.03297
G1 X121.510 Y84.994 E0.03297
G1 X122.550 Y84.838 E0.03297
G1 X123.563 Y84.743 E0.03189
G1 X124.648 Y84.693 E0.03406
G1 X125.699 Y84.704 E0.03297
G1 X126.749 Y84.765 E0.03297
G1 X127.794 Y84.885 E0.03297
G1 X128.832 Y85.054 E0.03297
G1 X129.859 Y85.282 E0.03297
G1 X130.872 Y85.557 E0.03294
G1 X131.542 Y85.772 E0.02206
G1 X132.527 Y86.139 E0.03294
G1 X133.493 Y86.551 E0.03294
G1 X134.127 Y86.856 E0.02207
G1 X135.293 Y87.492 E0.04162
G1 X135.953 Y87.897 E0.02430
G1 X136.822 Y88.488 E0.03294
G1 X137.662 Y89.121 E0.03299
G1 X138.673 Y89.983 E0.04166
G1 X139.236 Y90.516 E0.02430
G1 X139.965 Y91.273 E0.03294
G1 X140.657 Y92.065 E0.03297
G1 X141.304 Y92.894 E0.03297
G1 X141.910 Y93.753 E0.03297
G1 X142.468 Y94.644 E0.03297
G1 X142.982 Y95.560 E0.03294
G1 X143.298 Y96.189 E0.02205
G1 X143.727 Y97.148 E0.03294
G1 X144.110 Y98.126 E0.03294
G1 X144.337 Y98.792 E0.02206
G1 X144.630 Y99.800 E0.03294
G1 X144.875 Y100.823 E0.03297
G1 X145.062 Y101.858 E0.03297
G1 X145.201 Y102.900 E0.03297
G1 X145.280 Y103.949 E0.03297
G1 X145.310 Y105.000 E0.03297
G1 X145.280 Y106.051 E0.03297
G1 X145.201 Y107.099 E0.03294
G1 X145.116 Y107.797 E0.02206
G1 X144.942 Y108.833 E0.03294
G1 X144.719 Y109.860 E0.03294
G1 X144.539 Y110.540 E0.02206
G1 X144.224 Y111.542 E0.03294
G1 X143.862 Y112.529 E0.03297
G1 X143.445 Y113.494 E0.03297
G1 X142.858 Y114.659 E0.04090
G1 X143.041 Y115.051 F10800.000
G1 X143.196 Y114.834
G1 F1200.000
G1 X142.596 Y115.875 E0.03769
G1 X142.017 Y116.764 E0.03324
G1 X141.412 Y117.591 E0.03213
G1 X140.746 Y118.417 E0.03327
G1 X140.288 Y118.937 E0.02173
G1 X139.577 Y119.676 E0.03217
G1 X138.806 Y120.406 E0.03327
G1 X138.283 Y120.860 E0.02172
G1 X137.479 Y121.497 E0.03217
G1 X136.618 Y122.117 E0.03324
G1 X135.740 Y122.678 E0.03269
G1 X134.837 Y123.199 E0.03269
G1 X133.906 Y123.669 E0.03269
G1 X132.956 Y124.097 E0.03269
G1 X131.983 Y124.471 E0.03269
G1 X130.994 Y124.801 E0.03269
G1 X129.988 Y125.075 E0.03269
G1 X128.971 Y125.303 E0.03269
G1 X127.942 Y125.475 E0.03269
G1 X126.907 Y125.600 E0.03269
G1 X125.867 Y125.668 E0.03269
G1 X124.825 Y125.688 E0.03269
G1 X123.783 Y125.650 E0.03269
G1 X122.744 Y125.565 E0.03269
G1 X121.711 Y125.423 E0.03269
G1 X120.686 Y125.234 E0.03269
G1 X119.672 Y124.989 E0.03269
G1 X118.671 Y124.697 E0.03269
G1 X117.704 Y124.358 E0.03214
G1 X116.722 Y123.961 E0.03324
G1 X115.778 Y123.518 E0.03269
G1 X114.856 Y123.031 E0.03269
G1 X113.976 Y122.505 E0.03214
G1 X113.093 Y121.919 E0.03324
G1 X112.271 Y121.307 E0.03214
G1 X111.450 Y120.634 E0.03327
G1 X110.934 Y120.172 E0.02172
G1 X110.201 Y119.454 E0.03217
G1 X109.477 Y118.678 E0.03328
G1 X109.028 Y118.151 E0.02172
G1 X108.387 Y117.327 E0.03272
G1 X107.785 Y116.476 E0.03269
G1 X107.240 Y115.608 E0.03214
G1 X106.717 Y114.685 E0.03324
G1 X106.262 Y113.767 E0.03213
G1 X105.836 Y112.796 E0.03324
G1 X105.469 Y111.820 E0.03269
G1 X105.148 Y110.829 E0.03269
G1 X104.882 Y109.821 E0.03269
G1 X104.662 Y108.801 E0.03269
G1 X104.501 Y107.789 E0.03213
G1 X104.383 Y106.736 E0.03324
G1 X104.323 Y105.695 E0.03269
G1 X104.313 Y104.652 E0.03269
G1 X104.358 Y103.611 E0.03269
G1 X104.453 Y102.573 E0.03269
G1 X104.601 Y101.558 E0.03214
G1 X104.802 Y100.517 E0.03324
G1 X105.051 Y99.523 E0.03214
G1 X105.356 Y98.507 E0.03327
G1 X105.584 Y97.853 E0.02172
G1 X105.965 Y96.900 E0.03217
G1 X106.403 Y95.933 E0.03327
G1 X106.717 Y95.316 E0.02172
G1 X107.231 Y94.407 E0.03272
G1 X107.785 Y93.524 E0.03269
G1 X108.377 Y92.687 E0.03214
G1 X109.027 Y91.850 E0.03324
G1 X109.700 Y91.077 E0.03213
G1 X110.431 Y90.310 E0.03324
G1 X111.178 Y89.608 E0.03213
G1 X111.984 Y88.919 E0.03324
G1 X112.797 Y88.295 E0.03213
G1 X113.668 Y87.690 E0.03324
G1 X114.540 Y87.152 E0.03213
G1 X115.467 Y86.638 E0.03324
G1 X116.405 Y86.183 E0.03269
G1 X117.363 Y85.772 E0.03269
G1 X118.342 Y85.413 E0.03269
G1 X119.337 Y85.101 E0.03269
G1 X120.347 Y84.843 E0.03269
G1 X121.368 Y84.633 E0.03269
G1 X122.399 Y84.478 E0.03269
G1 X123.437 Y84.371 E0.03272
G1 X124.129 Y84.330 E0.02173
G1 X125.155 Y84.315 E0.03217
G1 X126.215 Y84.348 E0.03327
G1 X126.906 Y84.400 E0.02172
G1 X127.925 Y84.522 E0.03217
G1 X128.971 Y84.697 E0.03324
G1 X129.988 Y84.925 E0.03269
G1 X130.994 Y85.199 E0.03269
G1 X131.983 Y85.529 E0.03269
G1 X132.956 Y85.903 E0.03269
G1 X133.891 Y86.323 E0.03213
G1 X134.837 Y86.801 E0.03324
G1 X135.740 Y87.322 E0.03269
G1 X136.618 Y87.883 E0.03269
G1 X137.465 Y88.492 E0.03269
G1 X138.282 Y89.140 E0.03269
G1 X139.050 Y89.818 E0.03213
G1 X139.811 Y90.557 E0.03324
G1 X140.518 Y91.322 E0.03269
G1 X141.189 Y92.120 E0.03269
G1 X141.816 Y92.953 E0.03269
G1 X142.403 Y93.815 E0.03269
G1 X142.943 Y94.707 E0.03269
G1 X143.440 Y95.624 E0.03272
G1 X143.744 Y96.247 E0.02173
G1 X144.159 Y97.204 E0.03272
G1 X144.530 Y98.180 E0.03272
G1 X144.748 Y98.838 E0.02173
G1 X145.027 Y99.825 E0.03217
G1 X145.268 Y100.857 E0.03324
G1 X145.448 Y101.884 E0.03269
G1 X145.582 Y102.918 E0.03267
G1 X145.674 Y104.273 E0.04261
G1 X145.687 Y104.999 E0.02275
G1 X145.658 Y106.042 E0.03272
G1 X145.582 Y107.082 E0.03269
G1 X145.448 Y108.116 E0.03269
G1 X145.268 Y109.143 E0.03269
G1 X145.031 Y110.158 E0.03269
G1 X144.748 Y111.161 E0.03269
G1 X144.410 Y112.148 E0.03269
G1 X144.028 Y113.117 E0.03269
G1 X143.593 Y114.065 E0.03269
G1 X143.223 Y114.780 E0.02525
G1 X142.796 Y114.844 F10800.000
M106 S255
;BEFORE_LAYER_CHANGE
G92 E0.0
;0.370043


G1 F8640.000
G1 X142.596 Y115.875 E-0.29138
G1 X142.017 Y116.764 E-0.24480
G1 X141.445 Y117.546 E-0.22383
G1 E-0.04000 F2100.00000
G1 Z0.800 F10800.000
;AFTER_LAYER_CHANGE
;0.370043
G1 X136.156 Y109.752
G1 Z0.370
G1 E0.80000 F2100.00000
G1 F1843
G1 X136.156 Y100.386 E0.20760
G1 X135.649 Y100.386 E0.01124
G1 X135.649 Y109.614 E0.20453
G1 X135.142 Y109.614 E0.01124
G1 X135.142 Y100.386 E0.20453
G1 X134.635 Y100.386 E0.01124
G1 X134.635 Y109.614 E0.20453
G1 X134.228 Y109.614 E0.00900
G1 X134.228 Y111.921 E0.05113
G1 X134.127 Y111.921 E0.00224
G1 X134.127 Y98.079 E0.30680
G1 X133.620 Y98.079 E0.01124
G1 X133.620 Y111.921 E0.30680
G1 X133.113 Y111.921 E0.01124
G1 X133.113 Y98.079 E0.30680
G1 X132.606 Y98.079 E0.01124
G1 X132.606 Y111.921 E0.30680
G1 X132.099 Y111.921 E0.01124
G1 X132.099 Y98.079 E0.30680
G1 X131.921 Y98.079 E0.00394
G1 X131.921 Y95.772 E0.05113
G1 X131.592 Y95.772 E0.00730
G1 X131.592 Y102.693 E0.15340
G1 X131.085 Y102.693 E0.01124
G1 X131.085 Y95.772 E0.15340
G1 X130.578 Y95.772 E0.01124
G1 X130.578 Y102.693 E0.15340
G1 X130.071 Y102.693 E0.01124
G1 X130.071 Y95.772 E0.15340
G1 X129.614 Y95.772 E0.01012
G1 X129.614 Y93.465 E0.05113
G1 X129.564 Y93.465 E0.00112
G1 X129.564 Y100.386 E0.15340
G1 X129.057 Y100.386 E0.01124
G1 X129.057 Y93.465 E0.15340
G1 X128.550 Y93.465 E0.01124
G1 X128.550 Y100.386 E0.15340
G1 X128.042 Y100.386 E0.01124
G1 X128.042 Y93.465 E0.15340
G1 X127.535 Y93.465 E0.01124
G1 X127.535 Y100.386 E0.15340
G1 X127.307 Y100.386 E0.00506
G1 X127.307 Y98.079 E0.05113
