; generated by PrusaSlicer 2.2.0+win64 on 2020-05-29 at 09:09:11 UTC

; 

; external perimeters extrusion width = 0.45mm
; perimeters extrusion width = 0.45mm
; infill extrusion width = 0.45mm
; solid infill extrusion width = 0.45mm
; top infill extrusion width = 0.40mm
; support material extrusion width = 0.35mm
; first layer extrusion width = 0.42mm

M73 P0 R58
M73 Q0 S58
M201 X1000 Y1000 Z1000 E5000 ; sets maximum accelerations, mm/sec^2
M203 X200 Y200 Z12 E120 ; sets maximum feedrates, mm/sec
M204 P1250 R1250 T1250 ; sets acceleration (P, T) and retract acceleration (R), mm/sec^2
M205 X8.00 Y8.00 Z0.40 E4.50 ; sets the jerk limits, mm/sec
M205 S0 T0 ; sets the minimum extruding and travel feed rate, mm/sec
M107
M862.3 P "MK3S" ; printer model check
M862.1 P0.4 ; nozzle diameter check
M115 U3.8.1 ; tell printer latest fw version
G90 ; use absolute coordinates
M83 ; extruder relative mode
M104 S240 ; set extruder temp
M140 S70 ; set bed temp
M190 S70 ; wait for bed temp
M109 S240 ; wait for extruder temp
G28 W ; home all without mesh bed level
G80 ; mesh bed leveling
G1 Y-3.0 F1000.0 ; go outside print area
G92 E0.0
G1 X60.0 E9.0 F1000.0 ; intro line
M73 Q0 S58
M73 P0 R58
G1 X100.0 E12.5 F1000.0 ; intro line
G92 E0.0
M221 S95
G21 ; set units to millimeters
G90 ; use absolute coordinates
M83 ; use relative distances for extrusion
M900 K30 ; Filament gcode
;BEFORE_LAYER_CHANGE
G92 E0.0
;0.2


G1 E-0.80000 F2100.00000
G1 Z0.600 F10800.000
;AFTER_LAYER_CHANGE
;0.2
G1 X99.978 Y95.533
G1 Z0.200
G1 E0.80000 F2100.00000
M204 S1000
G1 F1200.000
G1 X100.735 Y95.045 E0.02825
G1 X101.624 Y94.874 E0.02837
G1 X148.391 Y95.044 E1.46637
G1 X149.027 Y95.134 E0.02012
G1 X149.660 Y95.419 E0.02178
G1 X150.187 Y95.877 E0.02190
G1 X150.557 Y96.469 E0.02190
G1 X150.739 Y97.140 E0.02178
G1 X150.756 Y108.150 E0.34522
G1 X150.665 Y108.785 E0.02012
G1 X150.426 Y109.344 E0.01906
G1 X150.052 Y109.823 E0.01906
G1 X149.569 Y110.192 E0.01906
G1 X149.012 Y110.426 E0.01894
G1 X142.173 Y111.126 E0.21557
G1 X107.850 Y111.127 E1.07615
G1 X100.974 Y110.252 E0.21733
G1 X100.344 Y109.970 E0.02166
G1 X99.824 Y109.521 E0.02154
G1 X99.453 Y108.938 E0.02166
G1 X99.265 Y108.278 E0.02154
G1 X99.246 Y97.152 E0.34883
G1 X99.455 Y96.272 E0.02837
G1 X99.943 Y95.582 E0.02649
G1 F8640.000
G1 X100.735 Y95.045 E-0.22097
G1 X101.624 Y94.874 E-0.20892
G1 X103.053 Y94.879 E-0.33011
G1 E-0.04000 F2100.00000
G1 Z0.800 F10800.000
G1 X137.414 Y115.387
G1 Z0.200
G1 E0.80000 F2100.00000
G1 F1200.000
G1 X135.483 Y115.884 E0.06250
G1 X129.177 Y115.884 E0.19773
G1 X128.683 Y115.864 E0.01550
G1 X128.435 Y115.884 E0.00779
G1 X120.881 Y115.884 E0.23686
G1 X120.387 Y115.864 E0.01550
G1 X120.140 Y115.884 E0.00779
G1 X112.289 Y115.884 E0.24615
G1 X111.727 Y115.771 E0.01798
G1 X110.447 Y116.175 E0.04208
G1 X109.205 Y116.401 E0.03957
G1 X107.842 Y116.480 E0.04280
G1 X106.617 Y116.402 E0.03848
G1 X105.440 Y116.195 E0.03750
G1 X104.424 Y115.874 E0.03339
G1 X100.758 Y115.859 E0.11496
G1 X98.379 Y115.211 E0.07731
G1 X96.651 Y114.136 E0.06379
G1 X95.236 Y112.679 E0.06370
G1 X94.244 Y110.896 E0.06397
G1 X93.768 Y109.093 E0.05847
G1 X93.702 Y96.540 E0.39359
G1 X94.231 Y94.361 E0.07032
G1 X95.144 Y92.719 E0.05892
G1 X96.389 Y91.356 E0.05786
G1 X98.128 Y90.233 E0.06491
G1 X99.701 Y89.678 E0.05230
G1 X101.948 Y89.503 E0.07067
G1 X148.904 Y89.502 E1.47225
G1 X151.295 Y90.036 E0.07683
G1 X153.024 Y90.985 E0.06184
G1 X154.490 Y92.365 E0.06314
G1 X155.579 Y94.079 E0.06368
G1 X156.186 Y95.973 E0.06236
G1 X156.299 Y108.697 E0.39897
G1 X155.806 Y110.948 E0.07223
G1 X154.895 Y112.624 E0.05981
G1 X153.592 Y114.056 E0.06071
G1 X151.264 Y115.409 E0.08442
G1 X149.074 Y115.867 E0.07016
G1 X145.609 Y115.882 E0.10864
G1 X145.393 Y115.963 E0.00725
G1 X144.439 Y116.222 E0.03101
G1 X142.767 Y116.459 E0.05294
G1 X141.260 Y116.448 E0.04724
G1 X139.799 Y116.233 E0.04632
G1 X138.173 Y115.740 E0.05328
G1 X137.468 Y115.412 E0.02435
G1 X137.628 Y115.071 F10800.000
G1 F1200.000
G1 X137.450 Y114.988 E0.00615
G1 X135.459 Y115.507 E0.06452
G1 X129.181 Y115.507 E0.19685
G1 X128.675 Y115.487 E0.01587
G1 X128.428 Y115.507 E0.00778
G1 X120.885 Y115.507 E0.23649
G1 X120.379 Y115.487 E0.01587
G1 X120.132 Y115.507 E0.00778
G1 X112.309 Y115.507 E0.24527
G1 X111.708 Y115.382 E0.01926
G1 X110.368 Y115.806 E0.04407
G1 X109.149 Y116.028 E0.03883
G1 X107.854 Y116.103 E0.04067
G1 X106.672 Y116.029 E0.03713
G1 X105.518 Y115.826 E0.03677
G1 X104.483 Y115.497 E0.03403
G1 X100.832 Y115.488 E0.11449
G1 X98.553 Y114.875 E0.07398
G1 X96.905 Y113.857 E0.06074
G1 X95.524 Y112.434 E0.06216
G1 X94.585 Y110.735 E0.06087
G1 X94.139 Y109.021 E0.05553
G1 X94.079 Y96.562 E0.39066
G1 X94.591 Y94.476 E0.06734
G1 X95.462 Y92.923 E0.05584
G1 X96.650 Y91.629 E0.05507
G1 X98.275 Y90.580 E0.06065
G1 X99.756 Y90.052 E0.04928
G1 X101.970 Y89.879 E0.06965
G1 X148.883 Y89.879 E1.47092
G1 X151.137 Y90.379 E0.07239
G1 X152.821 Y91.304 E0.06023
G1 X154.214 Y92.622 E0.06013
G1 X155.247 Y94.260 E0.06071
G1 X155.818 Y96.060 E0.05922
G1 X155.921 Y108.679 E0.39568
G1 X155.461 Y110.791 E0.06776
G1 X154.575 Y112.423 E0.05824
G1 X153.334 Y113.779 E0.05764
G1 X151.102 Y115.067 E0.08077
G1 X149.054 Y115.490 E0.06559
G1 X145.539 Y115.505 E0.11021
G1 X145.284 Y115.602 E0.00854
G1 X144.374 Y115.850 E0.02960
G1 X142.728 Y116.084 E0.05212
G1 X141.277 Y116.071 E0.04550
G1 X139.868 Y115.862 E0.04465
G1 X138.296 Y115.383 E0.05154
G1 X137.682 Y115.096 E0.02123
G1 X137.487 Y114.588 F10800.000
G1 F1200.000
G1 X135.434 Y115.130 E0.06655
G1 X129.185 Y115.130 E0.19596
G1 X128.667 Y115.109 E0.01626
G1 X128.419 Y115.130 E0.00777
G1 X120.889 Y115.130 E0.23612
G1 X120.371 Y115.109 E0.01626
G1 X120.124 Y115.130 E0.00777
G1 X112.330 Y115.130 E0.24437
G1 X111.656 Y114.985 E0.02162
G1 X111.428 Y115.086 E0.00783
G1 X110.290 Y115.437 E0.03734
G1 X109.115 Y115.652 E0.03743
G1 X107.866 Y115.726 E0.03924
G1 X106.727 Y115.656 E0.03577
G1 X105.596 Y115.456 E0.03603
G1 X104.526 Y115.115 E0.03522
G1 X104.278 Y115.129 E0.00779
G1 X100.905 Y115.117 E0.10576
G1 X98.728 Y114.540 E0.07062
G1 X97.124 Y113.548 E0.05912
G1 X95.813 Y112.191 E0.05916
G1 X94.928 Y110.575 E0.05778
G1 X94.510 Y108.950 E0.05261
G1 X94.456 Y96.584 E0.38774
G1 X94.950 Y94.592 E0.06434
G1 X95.779 Y93.128 E0.05276
G1 X96.910 Y91.903 E0.05228
G1 X98.460 Y90.910 E0.05771
G1 X99.857 Y90.416 E0.04647
G1 X101.977 Y90.256 E0.06665
G1 X148.863 Y90.256 E1.47007
G1 X150.981 Y90.723 E0.06800
G1 X152.580 Y91.594 E0.05710
G1 X153.937 Y92.879 E0.05859
G1 X154.914 Y94.439 E0.05771
G1 X155.450 Y96.146 E0.05610
G1 X155.544 Y108.662 E0.39243
G1 X155.117 Y110.636 E0.06334
G1 X154.281 Y112.186 E0.05522
G1 X153.076 Y113.503 E0.05597
G1 X150.942 Y114.724 E0.07709
G1 X149.040 Y115.112 E0.06086
G1 X148.324 Y115.104 E0.02244
G1 X148.027 Y115.130 E0.00937
G1 X145.469 Y115.128 E0.08019
G1 X145.175 Y115.241 E0.00988
G1 X144.309 Y115.479 E0.02817
G1 X142.689 Y115.708 E0.05129
G1 X141.294 Y115.694 E0.04375
G1 X139.938 Y115.491 E0.04299
G1 X138.419 Y115.026 E0.04980
G1 X137.541 Y114.614 E0.03043
G1 X137.702 Y114.273 F10800.000
G1 F1200.000
G1 X137.523 Y114.188 E0.00622
G1 X135.410 Y114.752 E0.06858
G1 X129.188 Y114.752 E0.19506
G1 X128.658 Y114.731 E0.01666
G1 X128.411 Y114.752 E0.00776
G1 X120.893 Y114.752 E0.23573
G1 X120.362 Y114.731 E0.01666
G1 X120.115 Y114.752 E0.00776
G1 X112.351 Y114.752 E0.24344
G1 X111.614 Y114.589 E0.02367
G1 X111.304 Y114.730 E0.01069
G1 X110.210 Y115.069 E0.03590
G1 X109.081 Y115.276 E0.03600
G1 X107.877 Y115.348 E0.03780
G1 X106.761 Y115.280 E0.03507
G1 X105.674 Y115.087 E0.03461
G1 X104.574 Y114.734 E0.03624
G1 X104.272 Y114.752 E0.00946
G1 X100.976 Y114.747 E0.10334
G1 X98.902 Y114.204 E0.06724
G1 X97.343 Y113.240 E0.05747
G1 X96.103 Y111.949 E0.05613
G1 X95.270 Y110.416 E0.05468
G1 X94.881 Y108.880 E0.04969
G1 X94.833 Y96.606 E0.38485
G1 X95.310 Y94.710 E0.06131
G1 X96.095 Y93.334 E0.04967
G1 X97.170 Y92.178 E0.04950
G1 X98.644 Y91.240 E0.05477
G1 X99.958 Y90.781 E0.04365
G1 X101.984 Y90.633 E0.06368
G1 X148.843 Y90.633 E1.46924
G1 X150.825 Y91.067 E0.06363
G1 X152.340 Y91.886 E0.05399
G1 X153.631 Y93.101 E0.05559
G1 X154.562 Y94.576 E0.05467
G1 X155.082 Y96.232 E0.05444
G1 X155.167 Y108.644 E0.38916
G1 X154.772 Y110.481 E0.05892
G1 X153.960 Y111.986 E0.05363
G1 X152.819 Y113.225 E0.05283
G1 X150.782 Y114.381 E0.07342
G1 X149.025 Y114.735 E0.05621
G1 X148.310 Y114.727 E0.02243
G1 X148.018 Y114.752 E0.00917
G1 X145.398 Y114.751 E0.08214
G1 X145.065 Y114.880 E0.01121
G1 X144.244 Y115.107 E0.02672
G1 X142.651 Y115.333 E0.05044
G1 X141.312 Y115.317 E0.04198
G1 X140.008 Y115.121 E0.04133
G1 X138.543 Y114.670 E0.04806
G1 X137.756 Y114.298 E0.02729
G1 X137.559 Y113.787 F10800.000
G1 F1200.000
G1 X135.384 Y114.375 E0.07062
G1 X129.192 Y114.375 E0.19415
G1 X128.648 Y114.353 E0.01708
G1 X128.402 Y114.375 E0.00774
G1 X120.897 Y114.375 E0.23534
G1 X120.352 Y114.353 E0.01708
G1 X120.107 Y114.375 E0.00774
G1 X112.373 Y114.375 E0.24248
G1 X111.573 Y114.192 E0.02573
G1 X111.180 Y114.374 E0.01359
G1 X110.130 Y114.700 E0.03445
G1 X109.046 Y114.900 E0.03457
G1 X107.889 Y114.971 E0.03636
G1 X106.795 Y114.904 E0.03436
G1 X105.753 Y114.719 E0.03318
G1 X104.622 Y114.354 E0.03728
G1 X104.266 Y114.375 E0.01116
G1 X101.047 Y114.375 E0.10094
G1 X99.074 Y113.868 E0.06387
G1 X97.598 Y112.962 E0.05431
G1 X96.393 Y111.706 E0.05455
G1 X95.614 Y110.259 E0.05154
G1 X95.253 Y108.811 E0.04678
G1 X95.210 Y96.629 E0.38197
G1 X95.668 Y94.828 E0.05825
G1 X96.411 Y93.542 E0.04657
G1 X97.428 Y92.453 E0.04672
G1 X98.826 Y91.571 E0.05183
G1 X100.057 Y91.145 E0.04084
G1 X101.990 Y91.010 E0.06075
G1 X148.823 Y91.010 E1.46842
G1 X150.669 Y91.412 E0.05925
G1 X152.138 Y92.206 E0.05236
G1 X153.354 Y93.358 E0.05251
G1 X154.229 Y94.754 E0.05167
G1 X154.713 Y96.317 E0.05128
G1 X154.790 Y108.626 E0.38594
G1 X154.427 Y110.327 E0.05454
G1 X153.667 Y111.748 E0.05055
G1 X152.562 Y112.948 E0.05113
G1 X150.624 Y114.038 E0.06971
G1 X149.010 Y114.358 E0.05160
G1 X148.294 Y114.349 E0.02244
G1 X148.010 Y114.375 E0.00896
G1 X145.327 Y114.373 E0.08411
G1 X144.955 Y114.519 E0.01253
G1 X144.155 Y114.740 E0.02602
G1 X142.613 Y114.958 E0.04884
G1 X141.330 Y114.940 E0.04021
G1 X140.079 Y114.750 E0.03968
G1 X138.668 Y114.314 E0.04632
G1 X137.613 Y113.813 E0.03662
G1 X137.564 Y113.338 F10800.000
G1 F1200.000
G1 X137.329 Y113.462 E0.00830
G1 X135.359 Y113.998 E0.06403
G1 X129.196 Y113.998 E0.19323
G1 X128.638 Y113.975 E0.01752
G1 X128.393 Y113.998 E0.00770
G1 X120.900 Y113.998 E0.23493
G1 X120.342 Y113.975 E0.01752
G1 X120.097 Y113.998 E0.00771
G1 X112.396 Y113.998 E0.24149
G1 X111.532 Y113.794 E0.02781
G1 X111.055 Y114.018 E0.01654
G1 X110.050 Y114.331 E0.03299
G1 X109.011 Y114.525 E0.03313
G1 X107.878 Y114.594 E0.03562
G1 X106.830 Y114.529 E0.03292
G1 X105.833 Y114.350 E0.03176
G1 X104.670 Y113.973 E0.03833
G1 X104.260 Y113.998 E0.01286
G1 X101.071 Y113.998 E0.10000
G1 X99.197 Y113.510 E0.06071
G1 X97.817 Y112.654 E0.05091
G1 X96.684 Y111.465 E0.05150
G1 X95.958 Y110.103 E0.04840
G1 X95.624 Y108.744 E0.04389
G1 X95.588 Y96.652 E0.37912
G1 X96.027 Y94.948 E0.05517
G1 X96.725 Y93.751 E0.04347
G1 X97.686 Y92.730 E0.04397
G1 X99.007 Y91.902 E0.04888
G1 X100.155 Y91.510 E0.03802
G1 X101.995 Y91.387 E0.05784
G1 X148.803 Y91.388 E1.46761
G1 X150.515 Y91.757 E0.05492
G1 X151.899 Y92.498 E0.04921
G1 X153.048 Y93.580 E0.04951
G1 X153.876 Y94.890 E0.04859
G1 X154.345 Y96.402 E0.04962
G1 X154.413 Y108.608 E0.38271
G1 X154.082 Y110.173 E0.05015
G1 X153.346 Y111.549 E0.04894
G1 X152.306 Y112.669 E0.04792
G1 X150.467 Y113.694 E0.06600
G1 X148.995 Y113.980 E0.04702
G1 X148.278 Y113.972 E0.02248
G1 X148.001 Y113.998 E0.00875
G1 X145.255 Y113.996 E0.08608
G1 X144.844 Y114.158 E0.01385
G1 X144.066 Y114.374 E0.02531
G1 X142.575 Y114.582 E0.04722
G1 X141.349 Y114.564 E0.03844
G1 X140.150 Y114.380 E0.03802
G1 X138.793 Y113.958 E0.04458
G1 X137.819 Y113.495 E0.03380
G1 X137.615 Y113.370 E0.00752
G1 X137.569 Y112.897 F10800.000
G1 F1200.000
G1 X137.203 Y113.105 E0.01319
G1 X135.333 Y113.621 E0.06082
G1 X129.200 Y113.621 E0.19230
G1 X128.627 Y113.598 E0.01798
G1 X128.384 Y113.621 E0.00767
G1 X120.904 Y113.621 E0.23451
G1 X120.331 Y113.598 E0.01798
G1 X120.088 Y113.621 E0.00767
G1 X112.419 Y113.621 E0.24047
M73 Q1 S57
G1 X111.492 Y113.396 E0.02989
G1 X110.929 Y113.662 E0.01952
G1 X109.969 Y113.963 E0.03153
G1 X108.977 Y114.149 E0.03167
G1 X107.866 Y114.217 E0.03487
G1 X106.865 Y114.153 E0.03146
G1 X105.913 Y113.981 E0.03034
M73 P1 R57
G1 X104.718 Y113.592 E0.03939
G1 X104.254 Y113.621 E0.01457
G1 X101.096 Y113.621 E0.09903
G1 X99.322 Y113.153 E0.05752
G1 X98.039 Y112.348 E0.04749
G1 X96.976 Y111.225 E0.04847
G1 X96.303 Y109.949 E0.04526
G1 X95.996 Y108.677 E0.04101
G1 X95.965 Y96.676 E0.37628
G1 X96.385 Y95.070 E0.05205
G1 X97.039 Y93.962 E0.04035
G1 X97.943 Y93.007 E0.04122
G1 X99.187 Y92.234 E0.04592
G1 X100.249 Y91.876 E0.03516
G1 X101.672 Y91.799 E0.04468
G1 X102.008 Y91.765 E0.01059
G1 X148.783 Y91.765 E1.46659
G1 X150.362 Y92.102 E0.05062
G1 X151.660 Y92.791 E0.04607
G1 X152.743 Y93.802 E0.04645
G1 X153.544 Y95.070 E0.04702
G1 X153.976 Y96.485 E0.04639
G1 X154.035 Y108.590 E0.37954
G1 X153.736 Y110.020 E0.04582
G1 X153.052 Y111.311 E0.04580
G1 X152.050 Y112.390 E0.04618
G1 X150.312 Y113.349 E0.06225
G1 X148.981 Y113.603 E0.04248
G1 X148.262 Y113.595 E0.02256
G1 X147.991 Y113.621 E0.00852
G1 X145.183 Y113.619 E0.08806
G1 X144.734 Y113.798 E0.01515
G1 X143.978 Y114.007 E0.02458
G1 X142.538 Y114.207 E0.04559
G1 X141.393 Y114.189 E0.03590
G1 X140.248 Y114.015 E0.03631
G1 X138.942 Y113.611 E0.04286
G1 X137.991 Y113.159 E0.03302
G1 X137.620 Y112.929 E0.01368
G1 X137.572 Y112.454 F10800.000
G1 F1200.000
G1 X137.076 Y112.750 E0.01811
G1 X135.307 Y113.244 E0.05758
G1 X129.204 Y113.244 E0.19136
G1 X128.616 Y113.220 E0.01847
G1 X128.374 Y113.244 E0.00762
G1 X120.908 Y113.244 E0.23408
G1 X120.320 Y113.220 E0.01847
G1 X120.078 Y113.244 E0.00762
G1 X112.442 Y113.244 E0.23942
G1 X111.452 Y112.997 E0.03199
G1 X110.803 Y113.306 E0.02256
G1 X109.888 Y113.594 E0.03007
G1 X108.942 Y113.774 E0.03021
G1 X107.855 Y113.840 E0.03412
G1 X106.901 Y113.778 E0.03000
G1 X105.993 Y113.612 E0.02892
G1 X104.785 Y113.217 E0.03986
G1 X104.513 Y113.216 E0.00853
G1 X104.241 Y113.244 E0.00857
G1 X101.121 Y113.244 E0.09783
G1 X99.448 Y112.797 E0.05430
G1 X98.262 Y112.043 E0.04407
G1 X97.269 Y110.987 E0.04545
G1 X96.648 Y109.796 E0.04211
G1 X96.368 Y108.612 E0.03815
G1 X96.342 Y96.700 E0.37348
G1 X96.742 Y95.193 E0.04890
G1 X97.351 Y94.174 E0.03723
G1 X98.198 Y93.285 E0.03849
G1 X99.365 Y92.567 E0.04296
G1 X100.343 Y92.242 E0.03231
G1 X101.701 Y92.175 E0.04264
G1 X102.018 Y92.142 E0.00999
G1 X148.764 Y92.142 E1.46567
G1 X150.209 Y92.448 E0.04631
G1 X151.461 Y93.112 E0.04443
G1 X152.466 Y94.060 E0.04332
G1 X153.211 Y95.248 E0.04397
G1 X153.607 Y96.567 E0.04319
G1 X153.658 Y108.572 E0.37640
G1 X153.390 Y109.867 E0.04148
G1 X152.731 Y111.112 E0.04415
G1 X151.796 Y112.110 E0.04287
G1 X150.158 Y113.003 E0.05851
G1 X148.967 Y113.226 E0.03798
G1 X148.244 Y113.217 E0.02267
G1 X147.981 Y113.244 E0.00829
G1 X145.110 Y113.242 E0.09004
G1 X144.623 Y113.437 E0.01645
G1 X143.889 Y113.640 E0.02386
G1 X142.528 Y113.829 E0.04308
G1 X141.436 Y113.814 E0.03426
G1 X140.345 Y113.650 E0.03459
G1 X139.092 Y113.265 E0.04112
G1 X138.163 Y112.823 E0.03224
G1 X137.623 Y112.486 E0.01996
G1 X137.573 Y112.009 F10800.000
G1 F1200.000
G1 X136.946 Y112.394 E0.02307
G1 X135.281 Y112.867 E0.05428
G1 X129.208 Y112.867 E0.19041
G1 X128.603 Y112.842 E0.01898
G1 X128.364 Y112.867 E0.00755
G1 X120.912 Y112.867 E0.23363
G1 X120.307 Y112.842 E0.01898
G1 X120.068 Y112.867 E0.00755
G1 X112.467 Y112.867 E0.23833
G1 X111.413 Y112.598 E0.03409
G1 X110.676 Y112.951 E0.02563
G1 X109.806 Y113.226 E0.02861
G1 X108.906 Y113.398 E0.02873
G1 X107.845 Y113.463 E0.03335
G1 X106.937 Y113.402 E0.02852
G1 X106.073 Y113.244 E0.02754
G1 X105.027 Y112.908 E0.03443
G1 X104.876 Y112.840 E0.00519
G1 X104.493 Y112.839 E0.01202
G1 X104.231 Y112.867 E0.00828
G1 X101.146 Y112.867 E0.09671
G1 X99.575 Y112.441 E0.05103
G1 X98.486 Y111.739 E0.04062
G1 X97.563 Y110.749 E0.04244
G1 X96.994 Y109.645 E0.03895
