; generated by PrusaSlicer 2.2.0+win64 on 2020-05-29 at 11:02:47 UTC

; 

; external perimeters extrusion width = 0.45mm
; perimeters extrusion width = 0.45mm
; infill extrusion width = 0.45mm
; solid infill extrusion width = 0.45mm
; top infill extrusion width = 0.40mm
; support material extrusion width = 0.35mm
; first layer extrusion width = 0.42mm

M73 P0 R54
M73 Q0 S54
M201 X1000 Y1000 Z1000 E5000 ; sets maximum accelerations, mm/sec^2
M203 X200 Y200 Z12 E120 ; sets maximum feedrates, mm/sec
M204 P1250 R1250 T1250 ; sets acceleration (P, T) and retract acceleration (R), mm/sec^2
M205 X8.00 Y8.00 Z0.40 E4.50 ; sets the jerk limits, mm/sec
M205 S0 T0 ; sets the minimum extruding and travel feed rate, mm/sec
M107
M862.3 P "MK3S" ; printer model check
M862.1 P0.4 ; nozzle diameter check
M115 U3.8.1 ; tell printer latest fw version
G90 ; use absolute coordinates
M83 ; extruder relative mode
M104 S240 ; set extruder temp
M140 S70 ; set bed temp
M190 S70 ; wait for bed temp
M109 S240 ; wait for extruder temp
G28 W ; home all without mesh bed level
G80 ; mesh bed leveling
G1 Y-3.0 F1000.0 ; go outside print area
G92 E0.0
G1 X60.0 E9.0 F1000.0 ; intro line
M73 Q0 S54
M73 P0 R54
G1 X100.0 E12.5 F1000.0 ; intro line
G92 E0.0
M221 S95
G21 ; set units to millimeters
G90 ; use absolute coordinates
M83 ; use relative distances for extrusion
M900 K30 ; Filament gcode
;BEFORE_LAYER_CHANGE
G92 E0.0
;0.2


G1 E-0.80000 F2100.00000
G1 Z0.600 F10800.000
;AFTER_LAYER_CHANGE
;0.2
G1 X99.337 Y80.537
G1 Z0.200
G1 E0.80000 F2100.00000
M204 S1000
G1 F1200.000
G1 X100.066 Y79.670 E0.03552
G1 X100.901 Y78.867 E0.03634
G1 X101.702 Y78.241 E0.03185
G1 X102.541 Y77.704 E0.03123
G1 X103.425 Y77.247 E0.03122
G1 X104.393 Y76.859 E0.03270
G1 X105.336 Y76.581 E0.03083
G1 X106.297 Y76.390 E0.03070
G1 X107.310 Y76.287 E0.03194
G1 X108.380 Y76.282 E0.03354
G1 X109.501 Y76.389 E0.03532
G1 X110.616 Y76.616 E0.03566
G1 X111.699 Y76.961 E0.03564
G1 X112.739 Y77.417 E0.03560
G1 X113.943 Y78.126 E0.04383
G1 X114.975 Y78.900 E0.04044
G1 X115.886 Y79.540 E0.03491
G1 X116.774 Y80.084 E0.03264
G1 X117.710 Y80.580 E0.03323
G1 X118.697 Y81.025 E0.03395
G1 X119.074 Y81.174 E0.01270
G1 X120.131 Y81.536 E0.03504
G1 X121.162 Y81.818 E0.03351
G1 X122.113 Y82.015 E0.03044
G1 X123.169 Y82.165 E0.03346
G1 X124.232 Y82.248 E0.03343
G1 X125.311 Y82.265 E0.03384
G1 X125.726 Y82.252 E0.01302
G1 X126.870 Y82.162 E0.03596
G1 X127.290 Y82.109 E0.01329
G1 X128.412 Y81.914 E0.03571
G1 X128.826 Y81.821 E0.01331
G1 X129.912 Y81.524 E0.03529
G1 X130.830 Y81.210 E0.03043
G1 X131.818 Y80.801 E0.03351
G1 X132.771 Y80.335 E0.03326
G1 X133.710 Y79.799 E0.03391
G1 X134.069 Y79.572 E0.01331
G1 X135.057 Y78.878 E0.03788
G1 X136.258 Y77.992 E0.04677
G1 X137.813 Y77.159 E0.05532
G1 X139.489 Y76.590 E0.05550
G1 X141.083 Y76.317 E0.05070
G1 X142.580 Y76.282 E0.04693
G1 X144.017 Y76.443 E0.04534
G1 X145.403 Y76.792 E0.04482
G1 X146.721 Y77.317 E0.04449
G1 X148.260 Y78.214 E0.05585
G1 X149.361 Y79.103 E0.04436
G1 X150.353 Y80.141 E0.04502
G1 X150.909 Y80.873 E0.02881
G1 X151.404 Y81.654 E0.02901
G1 X151.812 Y82.438 E0.02769
G1 X152.153 Y83.249 E0.02759
G1 X152.427 Y84.085 E0.02759
G1 X152.631 Y84.944 E0.02767
G1 X152.763 Y85.802 E0.02724
G1 X152.824 Y86.691 E0.02792
G1 X152.829 Y123.145 E1.14298
G1 X152.767 Y124.163 E0.03201
G1 X152.607 Y125.173 E0.03204
G1 X152.303 Y126.312 E0.03699
G1 X151.745 Y127.708 E0.04714
G1 X151.229 Y128.638 E0.03333
G1 X150.624 Y129.514 E0.03337
G1 X149.796 Y130.475 E0.03981
G1 X148.874 Y131.321 E0.03922
G1 X147.897 Y132.028 E0.03780
G1 X146.841 Y132.624 E0.03803
G1 X145.651 Y133.125 E0.04049
G1 X144.491 Y133.459 E0.03784
G1 X143.298 Y133.662 E0.03796
G1 X142.072 Y133.730 E0.03850
G1 X140.828 Y133.654 E0.03908
G1 X139.589 Y133.436 E0.03943
G1 X138.018 Y132.928 E0.05176
G1 X136.490 Y132.152 E0.05375
G1 X134.577 Y130.773 E0.07393
G1 X133.669 Y130.177 E0.03408
G1 X132.783 Y129.671 E0.03197
G1 X131.845 Y129.211 E0.03275
G1 X130.811 Y128.782 E0.03509
G1 X130.431 Y128.646 E0.01266
G1 X129.324 Y128.305 E0.03632
G1 X128.930 Y128.204 E0.01275
G1 X127.870 Y127.984 E0.03396
G1 X126.762 Y127.826 E0.03509
G1 X126.360 Y127.788 E0.01266
G1 X125.203 Y127.733 E0.03632
G1 X124.796 Y127.733 E0.01275
G1 X123.714 Y127.784 E0.03396
G1 X122.605 Y127.906 E0.03500
G1 X122.187 Y127.972 E0.01325
G1 X121.126 Y128.192 E0.03398
G1 X120.064 Y128.483 E0.03453
G1 X119.678 Y128.608 E0.01273
G1 X118.648 Y128.997 E0.03453
G1 X117.660 Y129.443 E0.03398
G1 X117.281 Y129.636 E0.01334
G1 X116.291 Y130.200 E0.03570
G1 X115.932 Y130.427 E0.01332
G1 X114.927 Y131.134 E0.03855
G1 X113.686 Y132.043 E0.04822
G1 X112.140 Y132.862 E0.05485
G1 X110.466 Y133.421 E0.05534
G1 X108.966 Y133.678 E0.04772
G1 X107.393 Y133.717 E0.04935
G1 X105.976 Y133.555 E0.04472
G1 X104.609 Y133.212 E0.04417
G1 X103.142 Y132.616 E0.04964
G1 X101.694 Y131.754 E0.05286
G1 X100.621 Y130.881 E0.04336
G1 X99.630 Y129.839 E0.04509
G1 X99.070 Y129.096 E0.02916
G1 X98.585 Y128.326 E0.02853
G1 X98.179 Y127.543 E0.02768
G1 X97.844 Y126.743 E0.02720
G1 X97.570 Y125.902 E0.02771
G1 X97.363 Y125.026 E0.02824
G1 X97.235 Y124.177 E0.02693
G1 X97.176 Y123.311 E0.02721
G1 X97.210 Y86.068 E1.16774
G1 X97.359 Y84.993 E0.03402
G1 X97.581 Y84.057 E0.03015
G1 X97.882 Y83.156 E0.02979
G1 X98.271 Y82.264 E0.03051
G1 X98.732 Y81.425 E0.03003
G1 X99.303 Y80.586 E0.03179
G1 X99.614 Y80.799 F10800.000
G1 F1200.000
G1 X100.335 Y79.935 E0.03527
G1 X101.141 Y79.157 E0.03513
G1 X101.913 Y78.554 E0.03072
G1 X102.722 Y78.035 E0.03012
G1 X103.590 Y77.587 E0.03066
G1 X104.509 Y77.218 E0.03103
G1 X105.418 Y76.949 E0.02973
G1 X106.362 Y76.762 E0.03015
G1 X107.322 Y76.664 E0.03026
G1 X108.354 Y76.658 E0.03236
G1 X109.455 Y76.764 E0.03470
G1 X110.530 Y76.984 E0.03440
G1 X111.574 Y77.318 E0.03437
G1 X112.577 Y77.758 E0.03432
G1 X113.742 Y78.446 E0.04244
G1 X114.753 Y79.205 E0.03964
G1 X115.679 Y79.856 E0.03548
G1 X116.587 Y80.412 E0.03338
G1 X117.545 Y80.919 E0.03397
G1 X118.550 Y81.373 E0.03459
G1 X118.943 Y81.528 E0.01326
G1 X120.020 Y81.897 E0.03569
G1 X121.074 Y82.185 E0.03425
G1 X122.048 Y82.386 E0.03118
G1 X123.128 Y82.540 E0.03420
G1 X124.214 Y82.625 E0.03417
G1 X125.314 Y82.642 E0.03449
G1 X125.747 Y82.629 E0.01357
G1 X126.908 Y82.538 E0.03652
G1 X127.346 Y82.482 E0.01385
G1 X128.486 Y82.284 E0.03626
G1 X128.917 Y82.187 E0.01387
G1 X130.023 Y81.885 E0.03594
G1 X130.964 Y81.563 E0.03117
G1 X131.973 Y81.145 E0.03426
G1 X132.947 Y80.669 E0.03400
G1 X133.905 Y80.123 E0.03456
G1 X134.278 Y79.886 E0.01387
G1 X135.278 Y79.184 E0.03830
G1 X136.471 Y78.304 E0.04649
G1 X137.949 Y77.510 E0.05261
G1 X139.568 Y76.959 E0.05361
G1 X141.133 Y76.691 E0.04980
G1 X142.551 Y76.658 E0.04446
G1 X143.938 Y76.812 E0.04376
G1 X145.276 Y77.147 E0.04324
G1 X146.569 Y77.662 E0.04364
G1 X148.057 Y78.532 E0.05408
G1 X149.097 Y79.372 E0.04190
G1 X150.073 Y80.393 E0.04429
G1 X150.603 Y81.094 E0.02755
G1 X151.081 Y81.849 E0.02802
G1 X151.474 Y82.605 E0.02670
G1 X151.802 Y83.387 E0.02662
G1 X152.066 Y84.195 E0.02662
G1 X152.262 Y85.023 E0.02670
G1 X152.389 Y85.851 E0.02628
G1 X152.447 Y86.697 E0.02658
G1 X152.452 Y123.128 E1.14225
G1 X152.393 Y124.114 E0.03097
G1 X152.236 Y125.104 E0.03144
G1 X151.948 Y126.183 E0.03502
G1 X151.409 Y127.536 E0.04566
G1 X150.904 Y128.447 E0.03265
G1 X150.320 Y129.291 E0.03217
G1 X149.518 Y130.221 E0.03851
G1 X148.628 Y131.036 E0.03783
G1 X147.686 Y131.715 E0.03643
G1 X146.666 Y132.290 E0.03670
G1 X145.516 Y132.773 E0.03911
G1 X144.398 Y133.094 E0.03646
G1 X143.246 Y133.288 E0.03664
G1 X142.062 Y133.353 E0.03715
G1 X140.862 Y133.279 E0.03771
G1 X139.668 Y133.067 E0.03801
G1 X138.149 Y132.574 E0.05008
G1 X136.674 Y131.823 E0.05190
G1 X134.791 Y130.463 E0.07283
G1 X133.866 Y129.855 E0.03471
G1 X132.960 Y129.337 E0.03272
G1 X132.000 Y128.867 E0.03349
G1 X130.947 Y128.430 E0.03574
G1 X130.551 Y128.288 E0.01322
G1 X129.427 Y127.942 E0.03687
G1 X129.016 Y127.836 E0.01331
G1 X127.935 Y127.612 E0.03461
G1 X126.806 Y127.451 E0.03574
G1 X126.387 Y127.411 E0.01322
G1 X125.212 Y127.356 E0.03687
G1 X124.787 Y127.356 E0.01331
G1 X123.685 Y127.408 E0.03461
G1 X122.554 Y127.532 E0.03566
G1 X122.119 Y127.601 E0.01381
G1 X121.038 Y127.825 E0.03463
G1 X119.956 Y128.121 E0.03518
G1 X119.553 Y128.252 E0.01329
G1 X118.503 Y128.649 E0.03518
G1 X117.497 Y129.103 E0.03463
G1 X117.102 Y129.304 E0.01390
G1 X116.097 Y129.877 E0.03626
G1 X115.723 Y130.113 E0.01388
G1 X114.706 Y130.828 E0.03896
G1 X113.498 Y131.716 E0.04704
G1 X111.978 Y132.521 E0.05392
G1 X110.361 Y133.059 E0.05341
G1 X108.917 Y133.304 E0.04594
G1 X107.422 Y133.341 E0.04687
G1 X106.055 Y133.186 E0.04314
G1 X104.714 Y132.850 E0.04336
G1 X103.323 Y132.285 E0.04707
G1 X101.921 Y131.452 E0.05113
G1 X100.886 Y130.612 E0.04179
G1 X99.911 Y129.587 E0.04436
G1 X99.376 Y128.876 E0.02789
G1 X98.916 Y128.146 E0.02707
G1 X98.524 Y127.390 E0.02671
G1 X98.195 Y126.604 E0.02671
G1 X97.931 Y125.793 E0.02674
G1 X97.735 Y124.962 E0.02678
G1 X97.609 Y124.128 E0.02644
G1 X97.553 Y123.292 E0.02628
G1 X97.587 Y86.081 E1.16672
G1 X97.728 Y85.071 E0.03197
G1 X97.942 Y84.169 E0.02908
G1 X98.237 Y83.284 E0.02925
G1 X98.613 Y82.423 E0.02944
G1 X99.058 Y81.614 E0.02895
G1 X99.581 Y80.848 E0.02907
G1 X99.892 Y81.061 F10800.000
G1 F1200.000
G1 X100.604 Y80.199 E0.03505
G1 X101.382 Y79.448 E0.03391
G1 X102.124 Y78.866 E0.02957
G1 X102.918 Y78.357 E0.02955
G1 X103.755 Y77.926 E0.02954
G1 X104.625 Y77.577 E0.02937
G1 X105.517 Y77.313 E0.02918
G1 X106.426 Y77.134 E0.02905
G1 X107.333 Y77.041 E0.02859
G1 X108.328 Y77.034 E0.03118
G1 X109.390 Y77.135 E0.03346
G1 X110.425 Y77.346 E0.03313
G1 X111.432 Y77.667 E0.03312
G1 X112.415 Y78.098 E0.03365
G1 X113.541 Y78.765 E0.04105
G1 X114.531 Y79.510 E0.03885
G1 X115.472 Y80.171 E0.03605
G1 X116.400 Y80.740 E0.03412
G1 X117.379 Y81.258 E0.03472
G1 X118.403 Y81.720 E0.03524
G1 X118.813 Y81.882 E0.01381
G1 X119.909 Y82.257 E0.03634
G1 X120.986 Y82.552 E0.03500
G1 X121.983 Y82.758 E0.03192
G1 X123.086 Y82.915 E0.03494
G1 X124.197 Y83.002 E0.03492
G1 X125.317 Y83.020 E0.03514
G1 X125.767 Y83.005 E0.01413
G1 X126.946 Y82.913 E0.03708
G1 X127.402 Y82.855 E0.01441
G1 X128.559 Y82.653 E0.03682
G1 X129.008 Y82.553 E0.01442
G1 X130.134 Y82.245 E0.03659
G1 X131.097 Y81.916 E0.03192
G1 X132.128 Y81.489 E0.03500
G1 X133.124 Y81.002 E0.03474
G1 X134.099 Y80.446 E0.03521
G1 X134.488 Y80.200 E0.01442
G1 X135.498 Y79.490 E0.03871
G1 X136.684 Y78.615 E0.04620
G1 X138.086 Y77.862 E0.04990
G1 X139.646 Y77.328 E0.05171
G1 X141.183 Y77.065 E0.04889
G1 X142.522 Y77.034 E0.04199
G1 X143.859 Y77.181 E0.04217
G1 X145.172 Y77.510 E0.04243
G1 X146.415 Y78.006 E0.04200
G1 X147.854 Y78.850 E0.05230
G1 X148.833 Y79.641 E0.03944
G1 X149.793 Y80.646 E0.04357
G1 X150.297 Y81.315 E0.02627
G1 X150.758 Y82.044 E0.02703
G1 X151.135 Y82.771 E0.02571
G1 X151.451 Y83.526 E0.02565
G1 X151.705 Y84.304 E0.02565
G1 X151.894 Y85.102 E0.02573
G1 X152.015 Y85.900 E0.02531
G1 X152.070 Y86.704 E0.02524
G1 X152.075 Y123.111 E1.14152
G1 X152.017 Y124.082 E0.03050
G1 X151.865 Y125.035 E0.03027
G1 X151.594 Y126.054 E0.03307
G1 X151.073 Y127.364 E0.04419
G1 X150.588 Y128.240 E0.03139
G1 X150.016 Y129.068 E0.03156
G1 X149.240 Y129.965 E0.03720
G1 X148.382 Y130.750 E0.03645
G1 X147.474 Y131.403 E0.03507
G1 X146.491 Y131.956 E0.03537
G1 X145.380 Y132.421 E0.03773
G1 X144.305 Y132.728 E0.03508
G1 X143.194 Y132.915 E0.03532
G1 X142.053 Y132.976 E0.03581
G1 X140.896 Y132.903 E0.03634
G1 X139.747 Y132.698 E0.03660
G1 X138.280 Y132.220 E0.04839
G1 X136.859 Y131.494 E0.05005
G1 X135.005 Y130.153 E0.07173
G1 X134.063 Y129.533 E0.03535
G1 X133.136 Y129.004 E0.03346
G1 X132.156 Y128.524 E0.03424
G1 X131.084 Y128.079 E0.03640
G1 X130.670 Y127.930 E0.01378
G1 X129.529 Y127.579 E0.03743
G1 X129.101 Y127.469 E0.01386
G1 X128.000 Y127.241 E0.03525
G1 X126.851 Y127.077 E0.03640
G1 X126.413 Y127.035 E0.01378
G1 X125.221 Y126.979 E0.03743
G1 X124.779 Y126.979 E0.01386
G1 X123.655 Y127.032 E0.03525
G1 X122.504 Y127.158 E0.03631
G1 X122.052 Y127.230 E0.01437
G1 X120.950 Y127.458 E0.03527
G1 X119.848 Y127.760 E0.03583
G1 X119.428 Y127.896 E0.01384
G1 X118.359 Y128.300 E0.03583
G1 X117.334 Y128.763 E0.03527
G1 X116.923 Y128.972 E0.01446
G1 X115.903 Y129.553 E0.03682
G1 X115.514 Y129.800 E0.01443
G1 X114.486 Y130.522 E0.03938
G1 X113.309 Y131.390 E0.04586
G1 X111.815 Y132.180 E0.05298
G1 X110.257 Y132.696 E0.05148
G1 X108.867 Y132.930 E0.04417
G1 X107.452 Y132.965 E0.04440
G1 X106.110 Y132.813 E0.04233
G1 X104.819 Y132.487 E0.04176
G1 X103.503 Y131.953 E0.04454
G1 X102.147 Y131.151 E0.04939
G1 X101.151 Y130.343 E0.04021
G1 X100.191 Y129.335 E0.04362
G1 X99.683 Y128.656 E0.02661
G1 X99.247 Y127.965 E0.02563
G1 X98.868 Y127.237 E0.02573
G1 X98.545 Y126.466 E0.02621
G1 X98.292 Y125.684 E0.02576
G1 X98.106 Y124.898 E0.02533
G1 X97.983 Y124.080 E0.02594
G1 X97.929 Y123.273 E0.02534
G1 X97.964 Y86.095 E1.16571
G1 X98.097 Y85.149 E0.02993
G1 X98.302 Y84.280 E0.02802
G1 X98.586 Y83.427 E0.02819
G1 X98.948 Y82.598 E0.02836
G1 X99.384 Y81.804 E0.02839
G1 X99.858 Y81.111 E0.02634
G1 X100.169 Y81.323 F10800.000
G1 F1200.000
G1 X100.255 Y81.199 E0.00474
G1 X100.886 Y80.450 E0.03071
G1 X101.622 Y79.739 E0.03210
G1 X102.336 Y79.179 E0.02843
G1 X103.099 Y78.688 E0.02844
G1 X103.904 Y78.272 E0.02843
G1 X104.741 Y77.936 E0.02826
G1 X105.599 Y77.681 E0.02808
G1 X106.474 Y77.508 E0.02795
G1 X107.345 Y77.418 E0.02747
G1 X108.302 Y77.411 E0.03001
G1 X109.325 Y77.507 E0.03222
G1 X110.321 Y77.708 E0.03185
G1 X111.308 Y78.023 E0.03248
G1 X112.252 Y78.439 E0.03235
G1 X113.340 Y79.084 E0.03965
G1 X114.309 Y79.815 E0.03807
G1 X115.265 Y80.487 E0.03662
G1 X116.213 Y81.068 E0.03487
G1 X117.213 Y81.596 E0.03546
G1 X118.256 Y82.067 E0.03589
G1 X118.682 Y82.236 E0.01437
G1 X119.799 Y82.618 E0.03699
G1 X120.898 Y82.918 E0.03574
G1 X121.918 Y83.130 E0.03267
G1 X123.045 Y83.290 E0.03569
G1 X124.179 Y83.379 E0.03566
G1 X125.320 Y83.397 E0.03579
G1 X125.788 Y83.382 E0.01468
G1 X126.985 Y83.288 E0.03764
G1 X127.458 Y83.228 E0.01497
G1 X128.633 Y83.023 E0.03738
G1 X129.099 Y82.919 E0.01498
G1 X130.245 Y82.606 E0.03724
G1 X131.230 Y82.269 E0.03266
G1 X132.283 Y81.833 E0.03574
G1 X133.300 Y81.335 E0.03549
G1 X134.293 Y80.769 E0.03585
G1 X134.697 Y80.513 E0.01498
G1 X135.718 Y79.796 E0.03913
G1 X136.897 Y78.927 E0.04591
G1 X138.250 Y78.202 E0.04814
G1 X139.753 Y77.690 E0.04979
G1 X141.206 Y77.442 E0.04619
G1 X142.518 Y77.412 E0.04116
G1 X143.804 Y77.554 E0.04057
G1 X145.067 Y77.872 E0.04083
G1 X146.262 Y78.351 E0.04036
G1 X147.651 Y79.168 E0.05053
G1 X148.586 Y79.926 E0.03774
G1 X149.512 Y80.898 E0.04209
G1 X149.991 Y81.535 E0.02499
G1 X150.427 Y82.225 E0.02557
G1 X150.791 Y82.925 E0.02474
G1 X151.095 Y83.650 E0.02468
G1 X151.340 Y84.399 E0.02468
G1 X151.522 Y85.167 E0.02477
G1 X151.640 Y85.934 E0.02433
G1 X151.693 Y86.723 E0.02479
G1 X151.699 Y123.094 E1.14040
G1 X151.643 Y124.032 E0.02946
G1 X151.498 Y124.948 E0.02908
G1 X151.239 Y125.926 E0.03172
G1 X150.737 Y127.193 E0.04271
G1 X150.273 Y128.034 E0.03013
G1 X149.724 Y128.829 E0.03030
G1 X148.977 Y129.695 E0.03585
G1 X148.152 Y130.451 E0.03507
G1 X147.280 Y131.080 E0.03372
G1 X146.315 Y131.622 E0.03470
G1 X145.266 Y132.062 E0.03567
G1 X144.231 Y132.358 E0.03375
G1 X143.162 Y132.539 E0.03399
G1 X142.065 Y132.599 E0.03444
G1 X140.951 Y132.530 E0.03500
G1 X139.851 Y132.335 E0.03504
G1 X138.438 Y131.878 E0.04658
G1 X137.068 Y131.180 E0.04820
G1 X135.220 Y129.842 E0.07154
G1 X134.260 Y129.212 E0.03599
G1 X133.313 Y128.671 E0.03420
G1 X132.311 Y128.180 E0.03498
G1 X131.220 Y127.727 E0.03705
G1 X130.789 Y127.572 E0.01434
G1 X129.631 Y127.216 E0.03799
G1 X129.186 Y127.102 E0.01442
G1 X128.065 Y126.869 E0.03590
G1 X126.895 Y126.702 E0.03705
G1 X126.440 Y126.659 E0.01434
G1 X125.230 Y126.602 E0.03799
G1 X124.770 Y126.602 E0.01442
G1 X123.626 Y126.656 E0.03590
G1 X122.454 Y126.784 E0.03697
G1 X121.984 Y126.859 E0.01493
G1 X120.862 Y127.092 E0.03592
G1 X119.740 Y127.399 E0.03647
G1 X119.303 Y127.540 E0.01440
G1 X118.215 Y127.952 E0.03647
G1 X117.171 Y128.423 E0.03592
G1 X116.744 Y128.640 E0.01501
G1 X115.708 Y129.230 E0.03737
G1 X115.304 Y129.486 E0.01499
