; generated by PrusaSlicer 2.2.0+win64 on 2020-05-29 at 11:03:32 UTC

; 

; external perimeters extrusion width = 0.45mm
; perimeters extrusion width = 0.45mm
; infill extrusion width = 0.45mm
; solid infill extrusion width = 0.45mm
; top infill extrusion width = 0.40mm
; support material extrusion width = 0.35mm
; first layer extrusion width = 0.42mm

M73 P0 R58
M73 Q0 S59
M201 X1000 Y1000 Z1000 E5000 ; sets maximum accelerations, mm/sec^2
M203 X200 Y200 Z12 E120 ; sets maximum feedrates, mm/sec
M204 P1250 R1250 T1250 ; sets acceleration (P, T) and retract acceleration (R), mm/sec^2
M205 X8.00 Y8.00 Z0.40 E4.50 ; sets the jerk limits, mm/sec
M205 S0 T0 ; sets the minimum extruding and travel feed rate, mm/sec
M107
M862.3 P "MK3S" ; printer model check
M862.1 P0.4 ; nozzle diameter check
M115 U3.8.1 ; tell printer latest fw version
G90 ; use absolute coordinates
M83 ; extruder relative mode
M104 S240 ; set extruder temp
M140 S70 ; set bed temp
M190 S70 ; wait for bed temp
M109 S240 ; wait for extruder temp
G28 W ; home all without mesh bed level
G80 ; mesh bed leveling
G1 Y-3.0 F1000.0 ; go outside print area
G92 E0.0
G1 X60.0 E9.0 F1000.0 ; intro line
M73 Q0 S59
M73 P0 R58
G1 X100.0 E12.5 F1000.0 ; intro line
G92 E0.0
M221 S95
G21 ; set units to millimeters
G90 ; use absolute coordinates
M83 ; use relative distances for extrusion
M900 K30 ; Filament gcode
;BEFORE_LAYER_CHANGE
G92 E0.0
;0.2


G1 E-0.80000 F2100.00000
G1 Z0.600 F10800.000
;AFTER_LAYER_CHANGE
;0.2
G1 X99.636 Y80.157
G1 Z0.200
G1 E0.80000 F2100.00000
M204 S1000
G1 F1200.000
G1 X100.398 Y79.328 E0.03532
G1 X101.105 Y78.696 E0.02971
G1 X101.868 Y78.125 E0.02989
G1 X102.812 Y77.553 E0.03459
G1 X103.763 Y77.100 E0.03304
G1 X104.665 Y76.769 E0.03013
G1 X105.908 Y76.456 E0.04020
G1 X106.992 Y76.308 E0.03429
G1 X108.081 Y76.271 E0.03416
G1 X109.040 Y76.329 E0.03012
G1 X110.000 Y76.475 E0.03045
G1 X110.958 Y76.711 E0.03095
G1 X111.893 Y77.036 E0.03100
G1 X112.810 Y77.453 E0.03162
G1 X113.832 Y78.051 E0.03713
G1 X115.581 Y79.336 E0.06804
G1 X116.586 Y79.978 E0.03740
G1 X117.052 Y80.242 E0.01677
G1 X118.133 Y80.780 E0.03787
G1 X119.221 Y81.229 E0.03691
G1 X120.347 Y81.602 E0.03719
G1 X121.483 Y81.891 E0.03676
G1 X122.646 Y82.100 E0.03704
G1 X123.843 Y82.228 E0.03773
G1 X124.376 Y82.256 E0.01675
G1 X125.438 Y82.262 E0.03329
G1 X126.073 Y82.232 E0.01993
G1 X126.768 Y82.174 E0.02186
G1 X127.919 Y82.009 E0.03647
G1 X129.091 Y81.755 E0.03759
G1 X130.220 Y81.425 E0.03688
G1 X131.328 Y81.014 E0.03708
G1 X132.423 Y80.516 E0.03769
G1 X132.899 Y80.269 E0.01684
G1 X133.965 Y79.640 E0.03879
G1 X134.406 Y79.347 E0.01660
G1 X136.103 Y78.095 E0.06611
G1 X137.297 Y77.398 E0.04335
G1 X138.199 Y76.999 E0.03094
G1 X139.069 Y76.703 E0.02881
G1 X139.949 Y76.485 E0.02841
G1 X141.118 Y76.314 E0.03706
G1 X142.273 Y76.271 E0.03622
G1 X143.284 Y76.336 E0.03178
G1 X144.283 Y76.494 E0.03172
G1 X145.241 Y76.740 E0.03100
G1 X146.176 Y77.074 E0.03111
G1 X147.148 Y77.533 E0.03371
G1 X148.001 Y78.038 E0.03108
G1 X148.809 Y78.626 E0.03134
G1 X149.573 Y79.300 E0.03193
G1 X150.268 Y80.042 E0.03190
G1 X150.905 Y80.867 E0.03268
G1 X151.463 Y81.760 E0.03301
G1 X151.951 Y82.746 E0.03449
G1 X152.401 Y83.997 E0.04168
G1 X152.646 Y85.019 E0.03295
G1 X152.776 Y85.928 E0.02879
G1 X152.829 Y86.854 E0.02910
G1 X152.825 Y123.280 E1.14210
G1 X152.775 Y124.089 E0.02540
G1 X152.662 Y124.899 E0.02567
G1 X152.321 Y126.266 E0.04415
G1 X151.975 Y127.198 E0.03119
G1 X151.538 Y128.105 E0.03154
G1 X151.006 Y128.984 E0.03224
G1 X150.397 Y129.802 E0.03198
G1 X149.611 Y130.663 E0.03655
G1 X148.741 Y131.428 E0.03631
G1 X147.869 Y132.047 E0.03353
G1 X146.967 Y132.563 E0.03260
G1 X146.078 Y132.965 E0.03058
G1 X145.267 Y133.251 E0.02696
G1 X144.426 Y133.476 E0.02730
G1 X143.183 Y133.675 E0.03948
G1 X142.034 Y133.729 E0.03606
G1 X140.991 Y133.674 E0.03275
G1 X139.972 Y133.519 E0.03231
G1 X138.958 Y133.263 E0.03281
G1 X138.012 Y132.926 E0.03147
G1 X137.104 Y132.502 E0.03144
G1 X136.135 Y131.927 E0.03531
G1 X134.419 Y130.664 E0.06682
G1 X133.437 Y130.037 E0.03652
G1 X132.394 Y129.470 E0.03723
G1 X131.329 Y128.986 E0.03669
G1 X130.219 Y128.574 E0.03711
G1 X129.066 Y128.237 E0.03766
G1 X128.537 Y128.113 E0.01706
G1 X127.351 Y127.900 E0.03777
G1 X126.178 Y127.774 E0.03700
G1 X124.999 Y127.733 E0.03698
G1 X123.825 Y127.774 E0.03681
G1 X122.646 Y127.900 E0.03719
G1 X121.463 Y128.113 E0.03767
G1 X120.937 Y128.237 E0.01695
G1 X119.778 Y128.576 E0.03787
G1 X118.675 Y128.985 E0.03690
G1 X117.600 Y129.473 E0.03701
G1 X116.561 Y130.038 E0.03708
G1 X115.585 Y130.661 E0.03632
G1 X113.854 Y131.934 E0.06737
G1 X112.884 Y132.509 E0.03535
G1 X111.900 Y132.961 E0.03394
G1 X110.917 Y133.301 E0.03261
G1 X109.918 Y133.541 E0.03222
G1 X108.869 Y133.687 E0.03319
G1 X107.737 Y133.729 E0.03552
G1 X106.624 Y133.654 E0.03499
G1 X105.525 Y133.464 E0.03496
G1 X104.586 Y133.206 E0.03053
G1 X103.768 Y132.902 E0.02737
G1 X103.000 Y132.545 E0.02656
G1 X102.005 Y131.966 E0.03609
G1 X101.073 Y131.278 E0.03632
G1 X100.391 Y130.664 E0.02877
G1 X99.761 Y129.993 E0.02887
G1 X99.120 Y129.168 E0.03275
G1 X98.559 Y128.278 E0.03297
G1 X98.086 Y127.338 E0.03302
G1 X97.695 Y126.314 E0.03436
G1 X97.400 Y125.208 E0.03590
G1 X97.237 Y124.198 E0.03207
G1 X97.172 Y123.177 E0.03208
G1 X97.174 Y86.743 E1.14235
G1 X97.235 Y85.818 E0.02908
G1 X97.378 Y84.896 E0.02925
G1 X97.609 Y83.961 E0.03018
G1 X97.921 Y83.054 E0.03008
G1 X98.535 Y81.761 E0.04487
G1 X99.052 Y80.930 E0.03069
G1 X99.599 Y80.204 E0.02850
G1 X99.900 Y80.431 F10800.000
G1 F1200.000
G1 X100.657 Y79.603 E0.03518
G1 X101.350 Y78.983 E0.02916
G1 X102.087 Y78.433 E0.02882
G1 X102.982 Y77.890 E0.03285
G1 X103.917 Y77.444 E0.03246
G1 X104.785 Y77.127 E0.02898
G1 X105.990 Y76.825 E0.03894
G1 X107.033 Y76.683 E0.03301
G1 X108.067 Y76.648 E0.03244
G1 X108.992 Y76.704 E0.02904
G1 X109.918 Y76.843 E0.02938
G1 X110.843 Y77.071 E0.02987
G1 X111.745 Y77.383 E0.02991
G1 X112.628 Y77.784 E0.03043
G1 X113.634 Y78.372 E0.03651
G1 X115.367 Y79.647 E0.06749
G1 X116.392 Y80.301 E0.03810
G1 X116.874 Y80.575 E0.01740
G1 X117.977 Y81.124 E0.03861
G1 X119.090 Y81.583 E0.03775
G1 X120.241 Y81.964 E0.03803
G1 X121.404 Y82.260 E0.03760
G1 X122.593 Y82.473 E0.03788
G1 X123.813 Y82.604 E0.03846
G1 X124.365 Y82.633 E0.01735
G1 X125.446 Y82.639 E0.03387
G1 X126.097 Y82.609 E0.02046
G1 X126.810 Y82.549 E0.02243
G1 X127.986 Y82.380 E0.03724
G1 X129.184 Y82.121 E0.03843
G1 X130.338 Y81.783 E0.03772
G1 X131.472 Y81.363 E0.03792
G1 X132.588 Y80.856 E0.03842
G1 X133.082 Y80.598 E0.01747
G1 X134.165 Y79.959 E0.03942
G1 X134.622 Y79.656 E0.01721
G1 X136.301 Y78.416 E0.06545
G1 X137.478 Y77.729 E0.04270
G1 X138.329 Y77.354 E0.02918
G1 X139.168 Y77.067 E0.02781
G1 X140.013 Y76.857 E0.02730
G1 X141.143 Y76.690 E0.03581
G1 X142.259 Y76.648 E0.03500
G1 X143.251 Y76.711 E0.03119
G1 X144.215 Y76.865 E0.03060
G1 X145.139 Y77.103 E0.02990
G1 X146.040 Y77.426 E0.03001
G1 X146.964 Y77.862 E0.03203
G1 X147.786 Y78.348 E0.02997
G1 X148.566 Y78.915 E0.03023
G1 X149.304 Y79.564 E0.03081
G1 X149.975 Y80.280 E0.03077
G1 X150.590 Y81.075 E0.03151
G1 X151.138 Y81.952 E0.03242
G1 X151.600 Y82.884 E0.03261
G1 X152.043 Y84.115 E0.04102
G1 X152.274 Y85.081 E0.03116
G1 X152.400 Y85.957 E0.02776
G1 X152.452 Y86.860 E0.02834
G1 X152.448 Y123.262 E1.14138
G1 X152.399 Y124.058 E0.02499
G1 X152.290 Y124.837 E0.02468
G1 X151.964 Y126.144 E0.04223
G1 X151.624 Y127.058 E0.03058
G1 X151.202 Y127.933 E0.03043
G1 X150.698 Y128.767 E0.03057
G1 X150.112 Y129.555 E0.03081
G1 X149.354 Y130.387 E0.03528
G1 X148.500 Y131.138 E0.03567
G1 X147.674 Y131.725 E0.03175
G1 X146.803 Y132.223 E0.03147
G1 X145.930 Y132.618 E0.03004
G1 X145.149 Y132.893 E0.02596
G1 X144.356 Y133.105 E0.02572
G1 X143.154 Y133.299 E0.03818
G1 X142.026 Y133.352 E0.03542
G1 X141.021 Y133.298 E0.03156
G1 X140.055 Y133.151 E0.03062
G1 X139.075 Y132.905 E0.03168
G1 X138.163 Y132.580 E0.03036
G1 X137.288 Y132.173 E0.03028
G1 X136.351 Y131.618 E0.03413
G1 X134.633 Y130.353 E0.06691
G1 X133.629 Y129.712 E0.03733
G1 X132.562 Y129.132 E0.03807
G1 X131.473 Y128.637 E0.03753
G1 X130.338 Y128.216 E0.03795
G1 X129.162 Y127.873 E0.03840
G1 X128.613 Y127.744 E0.01769
G1 X127.404 Y127.526 E0.03851
G1 X126.204 Y127.398 E0.03784
G1 X124.999 Y127.355 E0.03782
G1 X123.799 Y127.398 E0.03765
G1 X122.593 Y127.527 E0.03803
G1 X121.387 Y127.743 E0.03841
G1 X120.841 Y127.872 E0.01758
G1 X119.659 Y128.217 E0.03861
G1 X118.531 Y128.636 E0.03774
G1 X117.432 Y129.135 E0.03785
G1 X116.369 Y129.713 E0.03792
G1 X115.371 Y130.350 E0.03713
G1 X113.638 Y131.625 E0.06746
G1 X112.717 Y132.170 E0.03356
G1 X111.768 Y132.608 E0.03277
G1 X110.819 Y132.936 E0.03146
G1 X109.856 Y133.169 E0.03108
G1 X108.845 Y133.311 E0.03200
G1 X107.753 Y133.352 E0.03428
G1 X106.659 Y133.278 E0.03436
G1 X105.599 Y133.094 E0.03374
G1 X104.695 Y132.845 E0.02941
G1 X103.920 Y132.557 E0.02591
G1 X103.181 Y132.215 E0.02552
G1 X102.220 Y131.656 E0.03486
G1 X101.318 Y130.991 E0.03513
G1 X100.649 Y130.390 E0.02822
G1 X100.042 Y129.741 E0.02784
G1 X99.434 Y128.959 E0.03108
G1 X98.891 Y128.100 E0.03183
G1 X98.435 Y127.194 E0.03184
G1 X98.056 Y126.207 E0.03313
G1 X97.770 Y125.138 E0.03469
G1 X97.613 Y124.165 E0.03091
G1 X97.549 Y123.159 E0.03160
G1 X97.551 Y86.762 E1.14121
G1 X97.609 Y85.867 E0.02810
G1 X97.750 Y84.962 E0.02873
G1 X97.969 Y84.076 E0.02863
G1 X98.267 Y83.206 E0.02882
G1 X98.871 Y81.932 E0.04420
G1 X99.358 Y81.150 E0.02890
G1 X99.864 Y80.479 E0.02636
G1 X100.165 Y80.705 F10800.000
G1 F1200.000
G1 X100.928 Y79.865 E0.03560
G1 X101.582 Y79.280 E0.02751
G1 X102.290 Y78.751 E0.02770
G1 X103.170 Y78.217 E0.03227
G1 X104.071 Y77.788 E0.03128
G1 X104.905 Y77.484 E0.02784
G1 X106.051 Y77.197 E0.03704
G1 X107.074 Y77.058 E0.03239
G1 X108.054 Y77.025 E0.03073
G1 X108.945 Y77.078 E0.02797
G1 X109.837 Y77.212 E0.02830
G1 X110.729 Y77.430 E0.02878
G1 X111.598 Y77.730 E0.02881
G1 X112.447 Y78.114 E0.02923
G1 X113.435 Y78.692 E0.03588
G1 X115.154 Y79.958 E0.06695
G1 X116.197 Y80.625 E0.03881
G1 X116.697 Y80.908 E0.01803
G1 X117.821 Y81.467 E0.03934
G1 X118.959 Y81.936 E0.03859
G1 X120.135 Y82.326 E0.03887
G1 X121.324 Y82.628 E0.03844
G1 X122.539 Y82.847 E0.03872
G1 X123.782 Y82.980 E0.03920
G1 X124.354 Y83.010 E0.01796
G1 X125.453 Y83.016 E0.03446
G1 X126.122 Y82.985 E0.02098
G1 X126.853 Y82.923 E0.02300
G1 X128.053 Y82.752 E0.03800
G1 X129.277 Y82.487 E0.03927
G1 X130.457 Y82.142 E0.03856
G1 X131.616 Y81.711 E0.03876
G1 X132.753 Y81.195 E0.03916
G1 X133.265 Y80.928 E0.01810
G1 X134.365 Y80.279 E0.04006
G1 X134.839 Y79.964 E0.01782
G1 X136.501 Y78.736 E0.06480
G1 X137.640 Y78.070 E0.04137
G1 X138.474 Y77.702 E0.02858
G1 X139.267 Y77.431 E0.02630
G1 X140.078 Y77.229 E0.02619
G1 X141.168 Y77.067 E0.03455
G1 X142.263 Y77.025 E0.03437
G1 X143.201 Y77.085 E0.02946
G1 X144.130 Y77.233 E0.02949
G1 X145.020 Y77.461 E0.02881
G1 X145.888 Y77.771 E0.02888
G1 X146.780 Y78.191 E0.03091
G1 X147.572 Y78.659 E0.02886
G1 X148.324 Y79.204 E0.02912
G1 X149.035 Y79.829 E0.02968
G1 X149.694 Y80.531 E0.03019
G1 X150.286 Y81.298 E0.03037
G1 X150.804 Y82.128 E0.03068
G1 X151.257 Y83.041 E0.03197
G1 X151.684 Y84.232 E0.03966
G1 X151.902 Y85.144 E0.02938
G1 X152.026 Y86.003 E0.02723
G1 X152.075 Y86.875 E0.02740
G1 X152.072 Y123.245 E1.14034
G1 X152.024 Y124.013 E0.02412
G1 X151.918 Y124.775 E0.02413
G1 X151.601 Y126.042 E0.04096
G1 X151.274 Y126.918 E0.02931
G1 X150.867 Y127.760 E0.02933
G1 X150.380 Y128.564 E0.02945
G1 X149.827 Y129.309 E0.02910
G1 X149.097 Y130.111 E0.03401
G1 X148.273 Y130.837 E0.03443
G1 X147.478 Y131.402 E0.03057
G1 X146.623 Y131.891 E0.03089
G1 X145.782 Y132.271 E0.02893
G1 X145.044 Y132.531 E0.02453
G1 X144.286 Y132.734 E0.02461
G1 X143.126 Y132.923 E0.03687
G1 X142.018 Y132.975 E0.03478
G1 X141.068 Y132.924 E0.02982
G1 X140.138 Y132.783 E0.02948
G1 X139.176 Y132.541 E0.03110
G1 X138.298 Y132.228 E0.02923
G1 X137.455 Y131.835 E0.02916
G1 X136.567 Y131.309 E0.03237
G1 X134.846 Y130.042 E0.06701
G1 X133.821 Y129.387 E0.03814
G1 X132.731 Y128.795 E0.03891
G1 X131.616 Y128.289 E0.03837
G1 X130.456 Y127.858 E0.03879
G1 X129.259 Y127.508 E0.03913
G1 X128.690 Y127.374 E0.01832
G1 X127.458 Y127.153 E0.03925
G1 X126.231 Y127.022 E0.03868
G1 X124.999 Y126.978 E0.03866
G1 X123.772 Y127.021 E0.03849
G1 X122.539 Y127.153 E0.03887
G1 X121.310 Y127.374 E0.03914
G1 X120.745 Y127.507 E0.01821
G1 X119.540 Y127.859 E0.03934
G1 X118.387 Y128.287 E0.03858
G1 X117.264 Y128.798 E0.03869
G1 X116.177 Y129.388 E0.03876
G1 X115.158 Y130.039 E0.03794
G1 X113.437 Y131.306 E0.06698
G1 X112.550 Y131.832 E0.03236
G1 X111.635 Y132.255 E0.03159
G1 X110.722 Y132.572 E0.03032
G1 X109.794 Y132.797 E0.02993
G1 X108.821 Y132.934 E0.03081
G1 X107.768 Y132.975 E0.03306
G1 X106.713 Y132.905 E0.03313
G1 X105.690 Y132.728 E0.03256
G1 X104.818 Y132.488 E0.02836
G1 X104.071 Y132.212 E0.02496
G1 X103.363 Y131.884 E0.02447
G1 X102.435 Y131.346 E0.03363
G1 X101.563 Y130.705 E0.03395
G1 X100.919 Y130.126 E0.02716
G1 X100.323 Y129.490 E0.02731
G1 X99.737 Y128.735 E0.02997
G1 X99.215 Y127.907 E0.03068
G1 X98.776 Y127.033 E0.03069
G1 X98.412 Y126.081 E0.03194
G1 X98.141 Y125.068 E0.03288
G1 X97.986 Y124.114 E0.03032
G1 X97.925 Y123.141 E0.03055
G1 X97.928 Y86.768 E1.14046
G1 X97.985 Y85.900 E0.02725
G1 X98.121 Y85.028 E0.02767
G1 X98.333 Y84.174 E0.02758
G1 X98.620 Y83.339 E0.02771
G1 X99.197 Y82.122 E0.04220
G1 X99.665 Y81.370 E0.02778
G1 X100.129 Y80.753 E0.02421
G1 X100.430 Y80.980 F10800.000
G1 F1200.000
G1 X101.186 Y80.140 E0.03545
G1 X101.827 Y79.566 E0.02696
G1 X102.508 Y79.059 E0.02663
G1 X103.357 Y78.545 E0.03112
G1 X104.209 Y78.139 E0.02957
G1 X105.007 Y77.848 E0.02664
G1 X106.112 Y77.569 E0.03575
G1 X107.097 Y77.435 E0.03115
G1 X108.058 Y77.402 E0.03015
G1 X108.914 Y77.454 E0.02688
G1 X109.756 Y77.580 E0.02671
G1 X110.614 Y77.789 E0.02769
G1 X111.466 Y78.083 E0.02826
G1 X112.282 Y78.453 E0.02809
G1 X113.235 Y79.012 E0.03465
G1 X114.940 Y80.269 E0.06642
G1 X116.003 Y80.948 E0.03952
G1 X116.520 Y81.241 E0.01865
G1 X117.664 Y81.811 E0.04008
G1 X118.827 Y82.290 E0.03943
G1 X120.030 Y82.688 E0.03971
G1 X121.244 Y82.997 E0.03928
G1 X122.486 Y83.220 E0.03956
G1 X123.752 Y83.356 E0.03994
G1 X124.343 Y83.387 E0.01856
G1 X125.461 Y83.393 E0.03504
G1 X126.146 Y83.362 E0.02151
G1 X126.895 Y83.298 E0.02357
G1 X128.119 Y83.123 E0.03876
G1 X129.370 Y82.852 E0.04011
G1 X130.576 Y82.500 E0.03940
G1 X131.760 Y82.060 E0.03961
G1 X132.918 Y81.534 E0.03989
G1 X133.448 Y81.258 E0.01873
G1 X134.565 Y80.599 E0.04069
G1 X135.055 Y80.273 E0.01844
G1 X136.700 Y79.056 E0.06414
G1 X137.821 Y78.401 E0.04071
G1 X138.603 Y78.056 E0.02681
G1 X139.367 Y77.795 E0.02531
G1 X140.143 Y77.600 E0.02507
G1 X141.213 Y77.441 E0.03393
G1 X142.249 Y77.402 E0.03250
G1 X143.168 Y77.461 E0.02888
G1 X144.062 Y77.604 E0.02837
G1 X144.918 Y77.824 E0.02771
G1 X145.752 Y78.123 E0.02778
G1 X146.596 Y78.520 E0.02925
G1 X147.358 Y78.970 E0.02776
G1 X148.082 Y79.494 E0.02802
G1 X148.767 Y80.094 E0.02855
G1 X149.401 Y80.769 E0.02904
G1 X149.981 Y81.521 E0.02978
G1 X150.479 Y82.320 E0.02951
G1 X150.906 Y83.179 E0.03009
G1 X151.326 Y84.350 E0.03899
G1 X151.530 Y85.206 E0.02761
G1 X151.650 Y86.033 E0.02619
G1 X151.698 Y86.881 E0.02663
G1 X151.695 Y123.228 E1.13964
G1 X151.650 Y123.968 E0.02325
G1 X151.546 Y124.713 E0.02358
G1 X151.244 Y125.921 E0.03902
G1 X150.924 Y126.778 E0.02870
G1 X150.540 Y127.573 E0.02768
G1 X150.072 Y128.346 E0.02833
G1 X149.530 Y129.076 E0.02852
G1 X148.825 Y129.849 E0.03279
G1 X148.031 Y130.547 E0.03314
G1 X147.268 Y131.089 E0.02937
G1 X146.460 Y131.552 E0.02919
G1 X145.650 Y131.918 E0.02788
G1 X144.926 Y132.172 E0.02405
G1 X144.198 Y132.368 E0.02363
G1 X143.076 Y132.549 E0.03563
G1 X142.010 Y132.598 E0.03347
G1 X141.098 Y132.548 E0.02864
G1 X140.222 Y132.416 E0.02779
G1 X139.277 Y132.178 E0.03053
G1 X138.449 Y131.882 E0.02756
G1 X137.639 Y131.506 E0.02801
G1 X136.767 Y130.989 E0.03178
G1 X135.060 Y129.731 E0.06651
G1 X134.013 Y129.062 E0.03895
G1 X132.899 Y128.457 E0.03974
G1 X131.760 Y127.940 E0.03921
G1 X130.575 Y127.500 E0.03963
G1 X129.355 Y127.143 E0.03987
G1 X128.766 Y127.005 E0.01895
G1 X127.511 Y126.779 E0.03998
G1 X126.258 Y126.645 E0.03952
