; generated by PrusaSlicer 2.2.0+win64 on 2020-05-29 at 15:23:04 UTC


;
;

;
;
; 

; external perimeters extrusion width = 0.45mm
; perimeters extrusion width = 0.45mm
; infill extrusion width = 0.45mm
; solid infill extrusion width = 0.45mm
; top infill extrusion width = 0.40mm
; first layer extrusion width = 0.42mm

M73 P0 R79
M201 X1250 Y1250 Z400 E5000 ; sets maximum accelerations, mm/sec^2
M203 X180 Y180 Z12 E80 ; sets maximum feedrates, mm/sec
M204 P1250 R1250 T1250 ; sets acceleration (P, T) and retract acceleration (R), mm/sec^2
M205 X8.00 Y8.00 Z2.00 E10.00 ; sets the jerk limits, mm/sec
M205 S0 T0 ; sets the minimum extruding and travel feed rate, mm/sec
M107
G90 ; use absolute coordinates
M83 ; extruder relative mode
M104 S170 ; set extruder temp for bed leveling
M140 S80 ; set bed temp
M109 R170 ; wait for bed leveling temp
M190 S80 ; wait for bed temp
G28 ; home all without mesh bed level
G29 ; mesh bed leveling 
M104 S250 ; set extruder temp
G92 E0.0
G1 Y-2.0 X179 F2400
G1 Z3 F720
M109 S250 ; wait for extruder temp

; intro line
G1 X170 F1000
G1 Z0.2 F720
G1 X110.0 E8.0 F900
M73 P0 R79
G1 X40.0 E10.0 F700
G92 E0.0

M221 S95 ; set flow
G21 ; set units to millimeters
G90 ; use absolute coordinates
M83 ; use relative distances for extrusion
M900 K0.2 ; Filament gcode
;BEFORE_LAYER_CHANGE
G92 E0.0
;0.2


G1 Z0.200 F9000.000
;AFTER_LAYER_CHANGE
;0.2
G1 E-3.20000 F4200.00000
G1 Z0.400 F9000.000
G1 X82.905 Y83.862
G1 Z0.200
G1 E3.20000 F2400.00000
M204 S800
G1 F1200.000
G1 X83.914 Y82.966 E0.04230
G1 X85.012 Y82.155 E0.04279
G1 X86.591 Y81.229 E0.05741
G1 X87.846 Y80.660 E0.04320
G1 X89.104 Y80.222 E0.04176
G1 X90.424 Y79.891 E0.04267
G1 X92.237 Y79.634 E0.05741
G1 X93.576 Y79.586 E0.04202
G1 X94.936 Y79.658 E0.04269
G1 X96.288 Y79.854 E0.04283
G1 X98.064 Y80.306 E0.05748
G1 X99.360 Y80.786 E0.04334
G1 X100.599 Y81.379 E0.04304
G1 X102.157 Y82.340 E0.05741
G1 X103.238 Y83.174 E0.04279
G1 X104.216 Y84.080 E0.04179
G1 X105.133 Y85.096 E0.04293
G1 X106.212 Y86.580 E0.05752
G1 X106.894 Y87.762 E0.04280
G1 X107.456 Y88.975 E0.04192
G1 X107.917 Y90.264 E0.04292
G1 X108.350 Y92.043 E0.05741
G1 X108.531 Y93.396 E0.04279
G1 X108.589 Y94.731 E0.04192
G1 X108.526 Y96.099 E0.04291
G1 X108.249 Y97.913 E0.05754
G1 X107.904 Y99.229 E0.04266
G1 X107.448 Y100.490 E0.04205
G1 X106.872 Y101.727 E0.04279
G1 X105.928 Y103.296 E0.05741
G1 X105.106 Y104.386 E0.04279
G1 X104.202 Y105.382 E0.04217
G1 X103.198 Y106.306 E0.04279
G1 X101.729 Y107.399 E0.05741
G1 X100.557 Y108.091 E0.04266
G1 X99.347 Y108.668 E0.04205
G1 X98.067 Y109.142 E0.04279
G1 X96.288 Y109.594 E0.05754
G1 X94.921 Y109.791 E0.04333
G1 X93.574 Y109.862 E0.04228
G1 X92.235 Y109.814 E0.04202
G1 X90.422 Y109.557 E0.05741
G1 X89.082 Y109.219 E0.04333
G1 X87.829 Y108.781 E0.04163
G1 X86.596 Y108.222 E0.04242
G1 X85.007 Y107.289 E0.05779
G1 X83.893 Y106.465 E0.04345
G1 X82.872 Y105.553 E0.04292
G1 X81.642 Y104.197 E0.05741
G1 X80.835 Y103.093 E0.04286
G1 X80.124 Y101.906 E0.04339
G1 X79.353 Y100.241 E0.05753
G1 X78.912 Y98.945 E0.04293
G1 X78.588 Y97.606 E0.04320
G1 X78.393 Y96.295 E0.04155
G1 X78.314 Y94.467 E0.05736
G1 X78.399 Y93.101 E0.04291
G1 X78.610 Y91.735 E0.04334
G1 X79.083 Y89.954 E0.05778
G1 X79.569 Y88.683 E0.04267
G1 X80.158 Y87.478 E0.04204
G1 X80.867 Y86.307 E0.04292
G1 X81.975 Y84.850 E0.05741
G1 X82.864 Y83.905 E0.04066
M204 S1250
G1 X83.138 Y84.162 F9000.000
M204 S800
G1 F1200.000
G1 X84.140 Y83.268 E0.04210
G1 X85.204 Y82.480 E0.04153
G1 X86.767 Y81.562 E0.05682
G1 X87.980 Y81.013 E0.04174
G1 X89.201 Y80.587 E0.04057
G1 X90.482 Y80.264 E0.04142
G1 X92.269 Y80.010 E0.05658
G1 X93.577 Y79.963 E0.04105
G1 X94.891 Y80.032 E0.04126
G1 X96.202 Y80.221 E0.04153
G1 X97.955 Y80.667 E0.05671
G1 X99.211 Y81.132 E0.04198
G1 X100.409 Y81.705 E0.04165
G1 X101.945 Y82.652 E0.05658
G1 X103.004 Y83.471 E0.04197
G1 X103.945 Y84.343 E0.04022
G1 X104.836 Y85.328 E0.04165
G1 X105.897 Y86.788 E0.05658
G1 X106.565 Y87.948 E0.04198
G1 X107.106 Y89.116 E0.04034
G1 X107.553 Y90.362 E0.04154
G1 X107.980 Y92.116 E0.05658
G1 X108.157 Y93.443 E0.04198
G1 X108.212 Y94.728 E0.04034
G1 X108.152 Y96.051 E0.04153
G1 X107.880 Y97.835 E0.05658
G1 X107.540 Y99.130 E0.04198
G1 X107.102 Y100.340 E0.04034
G1 X106.544 Y101.541 E0.04154
G1 X105.614 Y103.088 E0.05658
G1 X104.807 Y104.156 E0.04197
G1 X103.942 Y105.109 E0.04035
G1 X102.969 Y106.007 E0.04153
G1 X101.521 Y107.084 E0.05658
G1 X100.368 Y107.765 E0.04198
G1 X99.206 Y108.318 E0.04034
G1 X97.965 Y108.778 E0.04153
G1 X96.212 Y109.225 E0.05670
G1 X94.887 Y109.416 E0.04197
G1 X93.583 Y109.485 E0.04094
G1 X92.282 Y109.439 E0.04082
G1 X90.492 Y109.186 E0.05670
G1 X89.197 Y108.860 E0.04186
G1 X87.983 Y108.436 E0.04034
G1 X86.775 Y107.890 E0.04154
G1 X85.219 Y106.977 E0.05658
G1 X84.142 Y106.182 E0.04197
G1 X83.177 Y105.325 E0.04046
G1 X82.271 Y104.364 E0.04142
G1 X81.178 Y102.928 E0.05658
G1 X80.485 Y101.783 E0.04197
G1 X79.918 Y100.623 E0.04046
G1 X79.446 Y99.390 E0.04141
G1 X78.980 Y97.643 E0.05670
G1 X78.775 Y96.320 E0.04198
G1 X78.691 Y94.990 E0.04176
G1 X78.769 Y93.191 E0.05647
G1 X78.958 Y91.918 E0.04034
G1 X79.271 Y90.617 E0.04198
G1 X79.698 Y89.359 E0.04164
G1 X80.456 Y87.721 E0.05659
G1 X81.143 Y86.572 E0.04198
G1 X81.926 Y85.499 E0.04164
G1 X83.098 Y84.206 E0.05470
M204 S1250
G1 E-2.24000 F4200.00000
G1 F7200.000
G1 X84.140 Y83.268 E-0.77713
G1 X84.336 Y83.123 E-0.13487
G1 E-0.04800 F4200.00000
G1 Z0.400 F9000.000
G1 X79.566 Y80.169
G1 Z0.200
G1 E3.20000 F2400.00000
M204 S800
G1 F1200.000
G1 X80.893 Y79.010 E0.05523
G1 X82.311 Y77.975 E0.05505
G1 X83.455 Y77.270 E0.04212
G1 X84.345 Y76.787 E0.03175
G1 X86.172 Y75.972 E0.06273
G1 X87.733 Y75.438 E0.05175
G1 X88.704 Y75.178 E0.03150
G1 X90.023 Y74.903 E0.04224
G1 X91.941 Y74.666 E0.06060
G1 X93.869 Y74.613 E0.06050
G1 X95.588 Y74.723 E0.05401
G1 X96.917 Y74.911 E0.04208
G1 X97.908 Y75.108 E0.03167
G1 X99.721 Y75.612 E0.05901
G1 X101.476 Y76.279 E0.05887
G1 X102.950 Y76.993 E0.05133
G1 X103.822 Y77.490 E0.03148
G1 X104.953 Y78.222 E0.04224
G1 X106.483 Y79.402 E0.06060
G1 X107.892 Y80.721 E0.06050
G1 X109.037 Y82.008 E0.05401
G1 X109.849 Y83.076 E0.04208
G1 X110.415 Y83.913 E0.03168
G1 X111.350 Y85.547 E0.05901
G1 X112.128 Y87.256 E0.05887
G1 X112.674 Y88.799 E0.05133
G1 X112.944 Y89.766 E0.03148
G1 X113.233 Y91.082 E0.04223
G1 X113.489 Y92.978 E0.06001
G1 X113.565 Y94.900 E0.06030
G1 X113.507 Y96.246 E0.04223
G1 X113.407 Y97.251 E0.03166
G1 X113.086 Y99.087 E0.05844
G1 X112.594 Y100.901 E0.05895
G1 X112.137 Y102.167 E0.04220
G1 X111.741 Y103.097 E0.03168
G1 X110.872 Y104.778 E0.05933
G1 X109.862 Y106.355 E0.05871
G1 X108.866 Y107.647 E0.05117
G1 X108.201 Y108.399 E0.03148
G1 X107.254 Y109.356 E0.04219
G1 X105.835 Y110.574 E0.05865
G1 X104.307 Y111.658 E0.05874
G1 X103.443 Y112.180 E0.03167
G1 X102.257 Y112.809 E0.04208
G1 X100.677 Y113.496 E0.05401
G1 X98.845 Y114.102 E0.06050
G1 X96.961 Y114.531 E0.06060
G1 X95.627 Y114.720 E0.04224
G1 X94.627 Y114.805 E0.03148
G1 X92.994 Y114.834 E0.05122
G1 X91.065 Y114.697 E0.06062
G1 X89.167 Y114.378 E0.06034
G1 X87.862 Y114.046 E0.04224
G1 X86.904 Y113.745 E0.03148
G1 X85.379 Y113.149 E0.05133
G1 X83.696 Y112.316 E0.05887
G1 X82.094 Y111.328 E0.05901
G1 X81.276 Y110.735 E0.03167
G1 X80.233 Y109.888 E0.04214
G1 X78.934 Y108.648 E0.05632
G1 X77.688 Y107.220 E0.05942
G1 X76.583 Y105.684 E0.05933
G1 X75.889 Y104.530 E0.04221
G1 X75.419 Y103.641 E0.03154
G1 X74.727 Y102.076 E0.05364
G1 X74.120 Y100.288 E0.05919
G1 X73.683 Y98.448 E0.05931
G1 X73.479 Y97.117 E0.04221
G1 X73.383 Y96.113 E0.03162
G1 X73.340 Y94.293 E0.05710
G1 X73.463 Y92.461 E0.05756
G1 X73.751 Y90.652 E0.05745
G1 X74.069 Y89.345 E0.04217
G1 X74.362 Y88.378 E0.03168
G1 X75.052 Y86.593 E0.06000
G1 X75.844 Y84.996 E0.05588
G1 X76.779 Y83.468 E0.05620
G1 X77.569 Y82.380 E0.04213
G1 X78.208 Y81.596 E0.03172
G1 X79.525 Y80.212 E0.05989
M204 S1250
G1 X79.798 Y80.472 F9000.000
M204 S800
G1 F1200.000
G1 X81.122 Y79.310 E0.05525
G1 X82.515 Y78.292 E0.05410
G1 X83.648 Y77.593 E0.04172
G1 X84.518 Y77.122 E0.03102
G1 X86.302 Y76.326 E0.06126
G1 X87.837 Y75.800 E0.05088
G1 X88.786 Y75.546 E0.03080
G1 X90.092 Y75.273 E0.04183
G1 X91.960 Y75.042 E0.05902
G1 X93.854 Y74.990 E0.05941
G1 X95.543 Y75.097 E0.05305
G1 X96.859 Y75.284 E0.04168
G1 X97.827 Y75.477 E0.03096
G1 X99.596 Y75.967 E0.05754
G1 X101.320 Y76.622 E0.05783
G1 X102.769 Y77.323 E0.05047
G1 X103.622 Y77.810 E0.03079
G1 X104.742 Y78.534 E0.04182
G1 X106.232 Y79.684 E0.05902
G1 X107.616 Y80.979 E0.05941
G1 X108.741 Y82.242 E0.05305
G1 X109.545 Y83.300 E0.04168
G1 X110.098 Y84.119 E0.03096
G1 X111.010 Y85.711 E0.05754
G1 X111.775 Y87.389 E0.05782
G1 X112.312 Y88.907 E0.05047
G1 X112.577 Y89.852 E0.03079
G1 X112.863 Y91.155 E0.04182
G1 X113.114 Y93.020 E0.05899
G1 X113.188 Y94.891 E0.05873
G1 X113.130 Y96.224 E0.04182
G1 X113.032 Y97.206 E0.03095
G1 X112.717 Y99.013 E0.05751
G1 X112.237 Y100.780 E0.05742
G1 X111.784 Y102.034 E0.04179
G1 X111.397 Y102.942 E0.03096
G1 X110.550 Y104.582 E0.05786
G1 X109.559 Y106.131 E0.05766
G1 X108.579 Y107.402 E0.05032
G1 X107.929 Y108.137 E0.03078
G1 X106.992 Y109.085 E0.04178
G1 X105.596 Y110.282 E0.05766
G1 X104.106 Y111.339 E0.05727
G1 X103.261 Y111.850 E0.03096
G1 X102.087 Y112.473 E0.04169
G1 X100.535 Y113.147 E0.05305
G1 X98.736 Y113.741 E0.05941
G1 X96.900 Y114.158 E0.05902
G1 X95.579 Y114.346 E0.04182
G1 X94.601 Y114.429 E0.03078
G1 X92.996 Y114.457 E0.05036
G1 X91.119 Y114.324 E0.05900
G1 X89.253 Y114.011 E0.05932
G1 X87.960 Y113.682 E0.04183
G1 X87.023 Y113.387 E0.03079
G1 X85.524 Y112.801 E0.05047
G1 X83.872 Y111.982 E0.05782
G1 X82.310 Y111.018 E0.05754
G1 X81.510 Y110.439 E0.03096
G1 X80.477 Y109.600 E0.04174
G1 X79.212 Y108.393 E0.05481
G1 X77.988 Y106.992 E0.05832
G1 X76.902 Y105.483 E0.05832
G1 X76.215 Y104.340 E0.04180
G1 X75.755 Y103.471 E0.03084
G1 X75.081 Y101.947 E0.05224
G1 X74.485 Y100.192 E0.05810
G1 X74.054 Y98.383 E0.05831
G1 X73.853 Y97.065 E0.04180
G1 X73.759 Y96.084 E0.03091
G1 X73.717 Y94.310 E0.05566
G1 X73.837 Y92.512 E0.05649
G1 X74.120 Y90.733 E0.05646
G1 X74.434 Y89.439 E0.04176
G1 X74.721 Y88.494 E0.03097
G1 X75.394 Y86.753 E0.05854
G1 X76.170 Y85.186 E0.05482
G1 X77.089 Y83.683 E0.05523
G1 X77.871 Y82.606 E0.04173
G1 X78.496 Y81.840 E0.03100
G1 X79.756 Y80.515 E0.05734
M204 S1250
G1 X80.029 Y80.774 F9000.000
M204 S800
G1 F1200.000
G1 X81.352 Y79.609 E0.05527
G1 X82.720 Y78.609 E0.05314
G1 X83.841 Y77.917 E0.04132
G1 X84.691 Y77.457 E0.03030
G1 X86.432 Y76.680 E0.05979
G1 X87.941 Y76.163 E0.05001
G1 X88.868 Y75.914 E0.03010
G1 X90.161 Y75.644 E0.04141
G1 X91.997 Y75.418 E0.05800
G1 X93.839 Y75.367 E0.05777
G1 X95.497 Y75.471 E0.05209
G1 X96.801 Y75.656 E0.04129
G1 X97.747 Y75.845 E0.03024
G1 X99.486 Y76.328 E0.05661
G1 X101.163 Y76.965 E0.05624
G1 X102.588 Y77.654 E0.04961
G1 X103.421 Y78.129 E0.03009
G1 X104.530 Y78.847 E0.04141
G1 X105.995 Y79.977 E0.05800
G1 X107.340 Y81.236 E0.05777
G1 X108.445 Y82.476 E0.05209
G1 X109.242 Y83.524 E0.04129
G1 X109.782 Y84.324 E0.03024
G1 X110.679 Y85.891 E0.05661
G1 X111.422 Y87.523 E0.05624
G1 X111.951 Y89.014 E0.04961
G1 X112.210 Y89.939 E0.03009
G1 X112.493 Y91.228 E0.04141
G1 X112.738 Y93.043 E0.05743
G1 X112.811 Y94.883 E0.05772
G1 X112.754 Y96.202 E0.04141
G1 X112.658 Y97.162 E0.03023
G1 X112.350 Y98.923 E0.05605
G1 X111.879 Y100.659 E0.05642
G1 X111.431 Y101.901 E0.04138
G1 X111.053 Y102.788 E0.03025
G1 X110.228 Y104.386 E0.05639
G1 X109.255 Y105.907 E0.05662
G1 X108.292 Y107.157 E0.04946
G1 X107.657 Y107.876 E0.03008
G1 X106.729 Y108.814 E0.04138
G1 X105.371 Y109.980 E0.05612
G1 X103.905 Y111.020 E0.05635
G1 X103.080 Y111.519 E0.03024
G1 X101.917 Y112.136 E0.04129
G1 X100.393 Y112.797 E0.05209
G1 X98.643 Y113.375 E0.05777
G1 X96.839 Y113.786 E0.05800
G1 X95.532 Y113.972 E0.04141
G1 X94.576 Y114.053 E0.03008
G1 X92.997 Y114.080 E0.04950
G1 X91.154 Y113.948 E0.05793
G1 X89.338 Y113.643 E0.05775
G1 X88.058 Y113.318 E0.04141
G1 X87.143 Y113.029 E0.03009
G1 X85.669 Y112.453 E0.04962
G1 X84.062 Y111.656 E0.05624
G1 X82.525 Y110.709 E0.05661
G1 X81.744 Y110.143 E0.03024
G1 X80.721 Y109.312 E0.04133
G1 X79.479 Y108.127 E0.05383
G1 X78.289 Y106.765 E0.05669
G1 X77.221 Y105.282 E0.05731
G1 X76.540 Y104.150 E0.04139
G1 X76.092 Y103.300 E0.03013
G1 X75.430 Y101.802 E0.05137
G1 X74.845 Y100.079 E0.05703
G1 X74.426 Y98.319 E0.05675
G1 X74.226 Y97.014 E0.04139
G1 X74.135 Y96.055 E0.03020
G1 X74.094 Y94.309 E0.05475
G1 X74.213 Y92.546 E0.05542
G1 X74.488 Y90.815 E0.05495
G1 X74.799 Y89.533 E0.04136
G1 X75.079 Y88.610 E0.03025
G1 X75.742 Y86.897 E0.05761
G1 X76.504 Y85.361 E0.05375
G1 X77.398 Y83.899 E0.05374
G1 X78.173 Y82.832 E0.04133
G1 X78.784 Y82.084 E0.03028
G1 X79.988 Y80.818 E0.05479
M204 S1250
G1 X80.261 Y81.077 F9000.000
M204 S800
G1 F1200.000
G1 X81.581 Y79.908 E0.05529
G1 X82.924 Y78.926 E0.05217
G1 X84.035 Y78.241 E0.04091
G1 X84.864 Y77.792 E0.02958
G1 X86.563 Y77.034 E0.05832
G1 X88.045 Y76.525 E0.04914
G1 X88.951 Y76.282 E0.02940
G1 X90.231 Y76.015 E0.04100
G1 X92.017 Y75.794 E0.05643
G1 X93.824 Y75.744 E0.05668
G1 X95.451 Y75.846 E0.05113
G1 X96.743 Y76.029 E0.04089
G1 X97.666 Y76.213 E0.02952
G1 X99.361 Y76.684 E0.05515
G1 X101.006 Y77.309 E0.05519
G1 X102.407 Y77.985 E0.04876
G1 X103.221 Y78.449 E0.02939
G1 X104.319 Y79.159 E0.04100
G1 X105.744 Y80.258 E0.05643
G1 X107.064 Y81.493 E0.05669
G1 X108.149 Y82.710 E0.05113
G1 X108.939 Y83.748 E0.04089
G1 X109.465 Y84.529 E0.02953
G1 X110.339 Y86.055 E0.05515
G1 X111.070 Y87.657 E0.05519
G1 X111.590 Y89.122 E0.04875
G1 X111.842 Y90.025 E0.02939
G1 X112.123 Y91.302 E0.04099
G1 X112.363 Y93.085 E0.05641
G1 X112.434 Y94.874 E0.05615
G1 X112.377 Y96.181 E0.04100
G1 X112.283 Y97.117 E0.02952
G1 X111.984 Y98.833 E0.05459
G1 X111.522 Y100.539 E0.05542
G1 X111.078 Y101.768 E0.04097
G1 X110.709 Y102.634 E0.02953
G1 X109.897 Y104.205 E0.05546
G1 X108.951 Y105.684 E0.05503
G1 X108.005 Y106.912 E0.04860
G1 X107.385 Y107.615 E0.02938
G1 X106.466 Y108.544 E0.04096
G1 X105.132 Y109.688 E0.05512
G1 X103.704 Y110.701 E0.05489
G1 X102.899 Y111.188 E0.02952
G1 X101.746 Y111.799 E0.04089
G1 X100.250 Y112.448 E0.05113
G1 X98.534 Y113.014 E0.05668
G1 X96.779 Y113.414 E0.05643
G1 X95.484 Y113.598 E0.04100
G1 X94.551 Y113.676 E0.02938
G1 X92.999 Y113.703 E0.04864
G1 X91.208 Y113.575 E0.05632
G1 X89.423 Y113.276 E0.05673
G1 X88.156 Y112.954 E0.04100
G1 X87.262 Y112.672 E0.02939
G1 X85.814 Y112.104 E0.04876
G1 X84.237 Y111.322 E0.05519
G1 X82.740 Y110.399 E0.05515
G1 X81.977 Y109.847 E0.02952
G1 X80.964 Y109.024 E0.04093
G1 X79.745 Y107.860 E0.05286
G1 X78.579 Y106.523 E0.05561
G1 X77.540 Y105.080 E0.05575
G1 X76.866 Y103.961 E0.04098
G1 X76.429 Y103.130 E0.02943
G1 X75.778 Y101.657 E0.05049
G1 X75.210 Y99.983 E0.05542
G1 X74.797 Y98.254 E0.05575
G1 X74.600 Y96.962 E0.04098
G1 X74.511 Y96.026 E0.02948
G1 X74.471 Y94.326 E0.05332
G1 X74.586 Y92.596 E0.05435
G1 X74.856 Y90.897 E0.05396
G1 X75.164 Y89.628 E0.04095
G1 X75.438 Y88.726 E0.02953
G1 X76.084 Y87.056 E0.05614
G1 X76.830 Y85.550 E0.05270
G1 X77.708 Y84.114 E0.05277
G1 X78.475 Y83.058 E0.04093
G1 X79.071 Y82.328 E0.02956
G1 X80.219 Y81.121 E0.05224
M204 S1250
G1 X80.492 Y81.380 F9000.000
M204 S800
G1 F1200.000
G1 X81.811 Y80.208 E0.05532
G1 X83.128 Y79.243 E0.05121
G1 X84.228 Y78.565 E0.04051
G1 X85.037 Y78.127 E0.02885
G1 X86.693 Y77.388 E0.05686
G1 X88.149 Y76.888 E0.04828
G1 X89.033 Y76.650 E0.02870
G1 X90.300 Y76.386 E0.04058
G1 X92.054 Y76.170 E0.05541
G1 X93.809 Y76.121 E0.05505
G1 X95.406 Y76.220 E0.05017
G1 X96.684 Y76.401 E0.04048
G1 X97.585 Y76.582 E0.02880
G1 X99.251 Y77.045 E0.05423
G1 X100.850 Y77.652 E0.05361
G1 X102.226 Y78.316 E0.04790
G1 X103.021 Y78.768 E0.02868
G1 X104.108 Y79.471 E0.04058
G1 X105.506 Y80.551 E0.05541
G1 X106.788 Y81.751 E0.05505
G1 X107.854 Y82.944 E0.05016
G1 X108.635 Y83.972 E0.04048
G1 X109.149 Y84.734 E0.02881
G1 X110.008 Y86.235 E0.05423
G1 X110.717 Y87.791 E0.05361
G1 X111.228 Y89.230 E0.04790
G1 X111.475 Y90.111 E0.02868
G1 X111.754 Y91.375 E0.04058
G1 X111.987 Y93.109 E0.05485
G1 X112.057 Y94.866 E0.05514
G1 X112.001 Y96.159 E0.04058
G1 X111.909 Y97.073 E0.02880
