; generated by PrusaSlicer 2.2.0+win64 on 2020-05-29 at 09:35:00 UTC

; 

; external perimeters extrusion width = 0.45mm
; perimeters extrusion width = 0.45mm
; infill extrusion width = 0.45mm
; solid infill extrusion width = 0.45mm
; top infill extrusion width = 0.40mm
; first layer extrusion width = 0.42mm

M73 P0 R71
M73 Q0 S71
M201 X1000 Y1000 Z1000 E5000 ; sets maximum accelerations, mm/sec^2
M203 X200 Y200 Z12 E120 ; sets maximum feedrates, mm/sec
M204 P1250 R1250 T1250 ; sets acceleration (P, T) and retract acceleration (R), mm/sec^2
M205 X8.00 Y8.00 Z0.40 E4.50 ; sets the jerk limits, mm/sec
M205 S0 T0 ; sets the minimum extruding and travel feed rate, mm/sec
M107
M862.3 P "MK3S" ; printer model check
M862.1 P0.4 ; nozzle diameter check
M115 U3.8.1 ; tell printer latest fw version
G90 ; use absolute coordinates
M83 ; extruder relative mode
M104 S255 ; set extruder temp
M140 S100 ; set bed temp
M190 S100 ; wait for bed temp
M109 S255 ; wait for extruder temp
G28 W ; home all without mesh bed level
G80 ; mesh bed leveling
G1 Y-3.0 F1000.0 ; go outside print area
G92 E0.0
G1 X60.0 E9.0 F1000.0 ; intro line
M73 Q0 S71
M73 P0 R71
G1 X100.0 E12.5 F1000.0 ; intro line
G92 E0.0
M221 S95
G21 ; set units to millimeters
G90 ; use absolute coordinates
M83 ; use relative distances for extrusion
M900 K30 ; Filament gcode
;BEFORE_LAYER_CHANGE
G92 E0.0
;0.2


G1 E-0.80000 F2100.00000
G1 Z0.600 F10800.000
;AFTER_LAYER_CHANGE
;0.2
G1 X115.078 Y96.986
G1 Z0.200
G1 E0.80000 F2100.00000
M204 S1000
G1 F1200.000
G1 X115.977 Y95.987 E0.04214
G1 X116.889 Y95.157 E0.03867
G1 X117.936 Y94.381 E0.04086
G1 X119.045 Y93.722 E0.04046
G1 X120.231 Y93.171 E0.04100
G1 X121.462 Y92.746 E0.04085
G1 X122.727 Y92.450 E0.04073
G1 X124.008 Y92.284 E0.04049
G1 X125.235 Y92.249 E0.03849
G1 X127.340 Y92.463 E0.06634
G1 X128.549 Y92.750 E0.03897
G1 X129.833 Y93.198 E0.04264
G1 X130.949 Y93.718 E0.03861
G1 X132.072 Y94.386 E0.04095
G1 X133.112 Y95.158 E0.04062
G1 X134.081 Y96.045 E0.04119
G1 X134.942 Y97.011 E0.04057
G1 X135.700 Y98.059 E0.04055
G1 X136.347 Y99.177 E0.04053
G1 X136.861 Y100.312 E0.03903
G1 X137.291 Y101.594 E0.04242
G1 X137.555 Y102.764 E0.03761
G1 X137.753 Y104.939 E0.06847
G1 X137.700 Y106.168 E0.03856
G1 X137.516 Y107.452 E0.04068
G1 X137.206 Y108.698 E0.04026
G1 X136.767 Y109.919 E0.04068
G1 X136.207 Y111.089 E0.04069
G1 X135.528 Y112.199 E0.04078
G1 X134.743 Y113.230 E0.04064
G1 X133.887 Y114.147 E0.03932
G1 X132.884 Y115.026 E0.04182
G1 X131.867 Y115.747 E0.03907
G1 X129.977 Y116.742 E0.06698
G1 X128.832 Y117.165 E0.03829
G1 X127.564 Y117.494 E0.04105
G1 X126.295 Y117.688 E0.04027
G1 X124.961 Y117.754 E0.04186
G1 X123.696 Y117.687 E0.03974
G1 X122.416 Y117.490 E0.04060
G1 X121.160 Y117.162 E0.04071
G1 X119.941 Y116.708 E0.04077
G1 X118.767 Y116.127 E0.04109
G1 X117.668 Y115.436 E0.04070
G1 X116.647 Y114.638 E0.04064
G1 X115.755 Y113.786 E0.03866
G1 X114.873 Y112.753 E0.04261
G1 X114.174 Y111.741 E0.03855
G1 X113.198 Y109.834 E0.06717
G1 X112.785 Y108.669 E0.03876
G1 X112.479 Y107.427 E0.04011
G1 X112.298 Y106.148 E0.04051
G1 X112.247 Y104.839 E0.04107
G1 X112.329 Y103.546 E0.04062
G1 X112.542 Y102.269 E0.04059
G1 X112.885 Y101.014 E0.04080
G1 X113.323 Y99.872 E0.03834
G1 X114.341 Y97.997 E0.06691
G1 X115.043 Y97.035 E0.03732
G1 X115.347 Y97.256 F10800.000
G1 F1200.000
G1 X116.239 Y96.258 E0.04197
G1 X117.127 Y95.450 E0.03767
G1 X118.144 Y94.695 E0.03968
G1 X119.218 Y94.057 E0.03919
G1 X120.370 Y93.521 E0.03983
G1 X121.566 Y93.109 E0.03967
G1 X122.791 Y92.822 E0.03944
G1 X124.038 Y92.660 E0.03940
G1 X125.234 Y92.626 E0.03753
G1 X127.272 Y92.834 E0.06424
G1 X128.440 Y93.111 E0.03763
G1 X129.684 Y93.544 E0.04128
G1 X130.770 Y94.050 E0.03758
G1 X131.862 Y94.700 E0.03985
G1 X132.879 Y95.455 E0.03970
G1 X133.807 Y96.303 E0.03943
G1 X134.648 Y97.247 E0.03963
G1 X135.382 Y98.262 E0.03929
G1 X136.014 Y99.353 E0.03951
G1 X136.511 Y100.453 E0.03784
G1 X136.927 Y101.695 E0.04107
G1 X137.185 Y102.836 E0.03669
G1 X137.376 Y104.939 E0.06621
G1 X137.326 Y106.122 E0.03710
G1 X137.148 Y107.371 E0.03958
G1 X136.847 Y108.583 E0.03915
G1 X136.415 Y109.784 E0.04001
G1 X135.875 Y110.911 E0.03918
G1 X135.216 Y111.987 E0.03955
G1 X134.452 Y112.991 E0.03957
G1 X133.623 Y113.879 E0.03809
G1 X132.647 Y114.732 E0.04065
G1 X131.659 Y115.433 E0.03797
G1 X129.834 Y116.393 E0.06464
G1 X128.722 Y116.804 E0.03717
G1 X127.489 Y117.124 E0.03994
G1 X126.255 Y117.313 E0.03915
G1 X124.968 Y117.377 E0.04041
G1 X123.736 Y117.312 E0.03866
G1 X122.493 Y117.120 E0.03945
G1 X121.273 Y116.802 E0.03953
G1 X120.090 Y116.361 E0.03960
G1 X118.950 Y115.797 E0.03988
G1 X117.883 Y115.126 E0.03952
G1 X116.892 Y114.351 E0.03943
G1 X116.024 Y113.521 E0.03767
G1 X115.172 Y112.523 E0.04116
G1 X114.490 Y111.536 E0.03759
G1 X113.549 Y109.695 E0.06483
G1 X113.148 Y108.566 E0.03756
G1 X112.850 Y107.357 E0.03906
G1 X112.673 Y106.114 E0.03937
G1 X112.624 Y104.849 E0.03969
G1 X112.704 Y103.587 E0.03964
G1 X112.911 Y102.347 E0.03941
G1 X113.248 Y101.116 E0.04003
G1 X113.671 Y100.018 E0.03690
G1 X114.653 Y98.210 E0.06452
G1 X115.311 Y97.305 E0.03509
G1 F8640.000
G1 X116.239 Y96.258 E-0.32290
G1 X117.127 Y95.450 E-0.27739
G1 X117.683 Y95.037 E-0.15971
G1 E-0.04000 F2100.00000
G1 Z0.800 F10800.000
G1 X111.078 Y94.029
G1 Z0.200
G1 E0.80000 F2100.00000
G1 F1200.000
G1 X111.849 Y93.109 E0.03763
G1 X112.478 Y92.448 E0.02859
G1 X113.126 Y91.834 E0.02801
G1 X113.814 Y91.244 E0.02840
G1 X114.525 Y90.695 E0.02820
G1 X115.257 Y90.187 E0.02794
G1 X116.016 Y89.714 E0.02803
G1 X116.802 Y89.279 E0.02815
G1 X117.610 Y88.884 E0.02821
G1 X118.431 Y88.532 E0.02801
G1 X119.273 Y88.220 E0.02816
G1 X120.131 Y87.952 E0.02819
G1 X120.996 Y87.728 E0.02800
G1 X121.874 Y87.548 E0.02810
G1 X122.760 Y87.412 E0.02809
G1 X123.660 Y87.321 E0.02839
G1 X124.554 Y87.276 E0.02805
G1 X125.444 Y87.276 E0.02792
G1 X126.489 Y87.333 E0.03281
G1 X127.381 Y87.431 E0.02814
G1 X128.286 Y87.577 E0.02874
G1 X129.160 Y87.765 E0.02802
G1 X130.034 Y88.000 E0.02836
G1 X130.901 Y88.281 E0.02857
G1 X131.754 Y88.607 E0.02866
G1 X132.570 Y88.967 E0.02795
G1 X133.376 Y89.373 E0.02829
G1 X134.157 Y89.818 E0.02819
G1 X134.911 Y90.299 E0.02803
G1 X135.641 Y90.818 E0.02810
G1 X136.347 Y91.377 E0.02823
G1 X137.020 Y91.967 E0.02806
G1 X137.663 Y92.590 E0.02809
G1 X138.263 Y93.233 E0.02755
G1 X138.833 Y93.909 E0.02774
G1 X139.368 Y94.611 E0.02768
G1 X139.863 Y95.334 E0.02746
G1 X140.325 Y96.083 E0.02760
G1 X140.751 Y96.860 E0.02777
G1 X141.137 Y97.655 E0.02772
G1 X141.479 Y98.458 E0.02736
G1 X141.797 Y99.325 E0.02898
G1 X142.065 Y100.189 E0.02834
G1 X142.287 Y101.061 E0.02821
G1 X142.463 Y101.932 E0.02788
G1 X142.628 Y103.103 E0.03707
G1 X142.701 Y103.993 E0.02800
G1 X142.730 Y104.914 E0.02890
G1 X142.712 Y105.793 E0.02756
G1 X142.649 Y106.693 E0.02828
G1 X142.543 Y107.568 E0.02764
G1 X142.392 Y108.444 E0.02790
G1 X142.197 Y109.316 E0.02800
G1 X141.961 Y110.167 E0.02768
G1 X141.680 Y111.012 E0.02792
G1 X141.357 Y111.842 E0.02792
G1 X140.993 Y112.655 E0.02793
G1 X140.592 Y113.440 E0.02766
G1 X140.150 Y114.210 E0.02783
G1 X139.668 Y114.960 E0.02795
G1 X139.149 Y115.684 E0.02794
G1 X138.594 Y116.382 E0.02796
G1 X138.005 Y117.051 E0.02796
G1 X137.388 Y117.684 E0.02770
G1 X136.720 Y118.304 E0.02858
G1 X136.026 Y118.885 E0.02837
G1 X135.305 Y119.428 E0.02829
G1 X134.563 Y119.930 E0.02812
G1 X133.775 Y120.406 E0.02886
G1 X132.985 Y120.830 E0.02811
G1 X131.923 Y121.323 E0.03671
G1 X131.090 Y121.651 E0.02806
G1 X130.237 Y121.939 E0.02823
G1 X129.368 Y122.184 E0.02831
G1 X128.475 Y122.386 E0.02872
G1 X127.583 Y122.541 E0.02837
G1 X126.689 Y122.649 E0.02824
G1 X125.783 Y122.713 E0.02846
G1 X124.875 Y122.730 E0.02849
G1 X123.998 Y122.702 E0.02752
G1 X123.133 Y122.632 E0.02720
G1 X122.268 Y122.518 E0.02736
G1 X121.405 Y122.362 E0.02751
G1 X120.552 Y122.163 E0.02744
G1 X119.712 Y121.923 E0.02740
G1 X118.882 Y121.641 E0.02747
G1 X118.073 Y121.321 E0.02730
G1 X117.240 Y120.942 E0.02868
G1 X116.437 Y120.525 E0.02837
G1 X115.658 Y120.069 E0.02831
G1 X114.912 Y119.581 E0.02794
G1 X114.174 Y119.041 E0.02869
G1 X113.472 Y118.471 E0.02833
G1 X112.609 Y117.681 E0.03671
G1 X111.983 Y117.038 E0.02812
G1 X111.393 Y116.366 E0.02805
G1 X110.828 Y115.654 E0.02850
G1 X110.300 Y114.913 E0.02852
G1 X109.814 Y114.151 E0.02833
G1 X109.370 Y113.370 E0.02817
G1 X108.967 Y112.570 E0.02809
G1 X108.604 Y111.746 E0.02825
G1 X108.281 Y110.900 E0.02839
G1 X108.003 Y110.045 E0.02820
G1 X107.770 Y109.179 E0.02810
G1 X107.579 Y108.293 E0.02842
G1 X107.434 Y107.403 E0.02828
G1 X107.334 Y106.511 E0.02814
G1 X107.281 Y105.616 E0.02813
G1 X107.272 Y104.709 E0.02842
G1 X107.308 Y103.835 E0.02743
G1 X107.388 Y102.959 E0.02758
G1 X107.512 Y102.083 E0.02774
G1 X107.679 Y101.215 E0.02771
G1 X107.889 Y100.355 E0.02776
G1 X108.139 Y99.517 E0.02742
G1 X108.434 Y98.682 E0.02777
G1 X108.767 Y97.870 E0.02750
G1 X109.272 Y96.815 E0.03667
G1 X109.708 Y96.028 E0.02821
G1 X110.193 Y95.248 E0.02882
G1 X110.705 Y94.512 E0.02812
G1 X111.042 Y94.077 E0.01724
G1 X111.340 Y94.307 F10800.000
G1 F1200.000
G1 X111.550 Y94.036 E0.01075
G1 X112.125 Y93.365 E0.02771
G1 X112.741 Y92.719 E0.02799
G1 X113.375 Y92.117 E0.02741
G1 X114.048 Y91.540 E0.02780
G1 X114.745 Y91.002 E0.02760
G1 X115.461 Y90.504 E0.02734
G1 X116.203 Y90.042 E0.02743
G1 X116.972 Y89.616 E0.02755
G1 X117.763 Y89.228 E0.02761
G1 X118.566 Y88.884 E0.02741
G1 X119.391 Y88.579 E0.02756
G1 X120.230 Y88.315 E0.02759
G1 X121.077 Y88.096 E0.02741
G1 X121.936 Y87.920 E0.02751
G1 X122.803 Y87.787 E0.02749
G1 X123.684 Y87.697 E0.02779
G1 X124.559 Y87.653 E0.02746
G1 X125.429 Y87.653 E0.02729
G1 X126.453 Y87.708 E0.03216
G1 X127.326 Y87.804 E0.02752
G1 X128.212 Y87.947 E0.02814
G1 X129.067 Y88.130 E0.02742
G1 X129.922 Y88.360 E0.02776
G1 X130.771 Y88.635 E0.02796
G1 X131.607 Y88.954 E0.02806
G1 X132.405 Y89.306 E0.02735
G1 X133.193 Y89.703 E0.02769
G1 X133.959 Y90.138 E0.02760
G1 X134.696 Y90.609 E0.02743
G1 X135.411 Y91.117 E0.02751
G1 X136.102 Y91.663 E0.02763
G1 X136.761 Y92.241 E0.02747
G1 X137.391 Y92.851 E0.02749
G1 X137.977 Y93.480 E0.02696
G1 X138.536 Y94.142 E0.02715
G1 X139.060 Y94.829 E0.02709
G1 X139.550 Y95.543 E0.02717
G1 X140.001 Y96.277 E0.02701
G1 X140.418 Y97.037 E0.02718
G1 X140.796 Y97.815 E0.02713
G1 X141.130 Y98.601 E0.02677
G1 X141.442 Y99.450 E0.02838
G1 X141.703 Y100.295 E0.02774
G1 X141.920 Y101.149 E0.02761
G1 X142.092 Y102.001 E0.02726
G1 X142.253 Y103.139 E0.03604
G1 X142.325 Y104.009 E0.02737
G1 X142.353 Y104.911 E0.02830
G1 X142.336 Y105.771 E0.02697
G1 X142.274 Y106.652 E0.02768
G1 X142.171 Y107.509 E0.02705
G1 X142.023 Y108.367 E0.02730
G1 X141.832 Y109.220 E0.02741
G1 X141.601 Y110.052 E0.02709
G1 X141.327 Y110.879 E0.02733
G1 X141.011 Y111.692 E0.02733
G1 X140.654 Y112.488 E0.02734
G1 X140.258 Y113.265 E0.02736
G1 X139.826 Y114.018 E0.02723
G1 X139.354 Y114.752 E0.02735
G1 X138.846 Y115.461 E0.02735
G1 X138.302 Y116.144 E0.02736
G1 X137.725 Y116.798 E0.02737
G1 X137.122 Y117.418 E0.02711
G1 X136.467 Y118.024 E0.02798
G1 X135.788 Y118.592 E0.02776
G1 X135.082 Y119.123 E0.02769
G1 X134.355 Y119.615 E0.02752
G1 X133.584 Y120.081 E0.02825
G1 X132.812 Y120.495 E0.02749
G1 X131.779 Y120.974 E0.03569
G1 X130.965 Y121.296 E0.02744
G1 X130.130 Y121.577 E0.02763
G1 X129.280 Y121.817 E0.02770
G1 X128.405 Y122.016 E0.02811
G1 X127.533 Y122.167 E0.02777
G1 X126.658 Y122.274 E0.02764
G1 X125.771 Y122.336 E0.02786
G1 X124.882 Y122.353 E0.02789
G1 X124.024 Y122.325 E0.02693
G1 X123.177 Y122.257 E0.02662
G1 X122.331 Y122.146 E0.02677
G1 X121.485 Y121.993 E0.02693
G1 X120.651 Y121.799 E0.02686
G1 X119.829 Y121.564 E0.02682
G1 X119.017 Y121.289 E0.02689
G1 X118.216 Y120.972 E0.02700
G1 X117.401 Y120.601 E0.02808
G1 X116.615 Y120.193 E0.02776
G1 X115.853 Y119.746 E0.02771
G1 X115.123 Y119.268 E0.02734
G1 X114.400 Y118.739 E0.02809
G1 X113.715 Y118.182 E0.02770
G1 X112.875 Y117.414 E0.03568
G1 X112.263 Y116.786 E0.02750
G1 X111.685 Y116.128 E0.02745
G1 X111.132 Y115.431 E0.02789
G1 X110.615 Y114.706 E0.02791
G1 X110.140 Y113.961 E0.02773
G1 X109.705 Y113.197 E0.02757
G1 X109.310 Y112.413 E0.02749
G1 X108.954 Y111.607 E0.02765
G1 X108.638 Y110.779 E0.02779
G1 X108.366 Y109.942 E0.02761
G1 X108.137 Y109.095 E0.02750
G1 X107.950 Y108.228 E0.02781
G1 X107.808 Y107.357 E0.02768
G1 X107.711 Y106.484 E0.02754
G1 X107.658 Y105.607 E0.02753
G1 X107.649 Y104.720 E0.02783
G1 X107.684 Y103.864 E0.02685
G1 X107.762 Y103.007 E0.02699
G1 X107.883 Y102.150 E0.02715
G1 X108.046 Y101.300 E0.02712
G1 X108.252 Y100.458 E0.02717
G1 X108.499 Y99.629 E0.02713
G1 X108.788 Y98.812 E0.02718
G1 X109.114 Y98.018 E0.02689
G1 X109.605 Y96.993 E0.03564
G1 X110.030 Y96.223 E0.02758
G1 X110.505 Y95.459 E0.02821
G1 X111.006 Y94.738 E0.02752
G1 X111.303 Y94.355 E0.01521
G1 X111.601 Y94.585 F10800.000
G1 F1200.000
G1 X111.839 Y94.278 E0.01218
G1 X112.402 Y93.622 E0.02711
G1 X113.004 Y92.989 E0.02739
G1 X113.624 Y92.400 E0.02681
G1 X114.282 Y91.835 E0.02720
G1 X114.964 Y91.309 E0.02700
G1 X115.664 Y90.822 E0.02675
G1 X116.391 Y90.369 E0.02684
G1 X117.142 Y89.952 E0.02696
G1 X117.916 Y89.573 E0.02701
G1 X118.711 Y89.232 E0.02711
G1 X119.508 Y88.937 E0.02667
G1 X120.330 Y88.679 E0.02699
G1 X121.166 Y88.463 E0.02710
G1 X122.007 Y88.290 E0.02691
G1 X122.855 Y88.160 E0.02689
G1 X123.717 Y88.073 E0.02718
G1 X124.573 Y88.029 E0.02686
G1 X125.424 Y88.030 E0.02669
G1 X126.418 Y88.083 E0.03120
G1 X127.271 Y88.177 E0.02691
G1 X128.138 Y88.317 E0.02754
G1 X128.974 Y88.496 E0.02682
G1 X129.811 Y88.720 E0.02715
G1 X130.641 Y88.989 E0.02736
G1 X131.459 Y89.301 E0.02745
G1 X132.239 Y89.645 E0.02675
G1 X133.011 Y90.033 E0.02709
G1 X133.760 Y90.459 E0.02699
G1 X134.489 Y90.924 E0.02713
G1 X135.189 Y91.422 E0.02690
G1 X135.865 Y91.956 E0.02703
G1 X136.509 Y92.521 E0.02687
G1 X137.125 Y93.118 E0.02690
G1 X137.698 Y93.734 E0.02637
G1 X138.245 Y94.381 E0.02656
G1 X138.757 Y95.053 E0.02650
G1 X139.236 Y95.752 E0.02658
G1 X139.677 Y96.470 E0.02642
G1 X140.085 Y97.214 E0.02659
G1 X140.454 Y97.976 E0.02654
G1 X140.781 Y98.744 E0.02618
G1 X141.086 Y99.576 E0.02777
G1 X141.341 Y100.402 E0.02713
G1 X141.554 Y101.237 E0.02701
G1 X141.721 Y102.070 E0.02664
G1 X141.878 Y103.176 E0.03501
G1 X141.948 Y104.026 E0.02675
G1 X141.976 Y104.909 E0.02769
G1 X141.959 Y105.750 E0.02637
G1 X141.898 Y106.621 E0.02738
G1 X141.797 Y107.458 E0.02645
G1 X141.652 Y108.298 E0.02671
G1 X141.465 Y109.133 E0.02681
G1 X141.239 Y109.947 E0.02650
G1 X140.970 Y110.756 E0.02673
G1 X140.661 Y111.551 E0.02673
G1 X140.312 Y112.329 E0.02675
G1 X139.925 Y113.089 E0.02676
G1 X139.501 Y113.826 E0.02664
G1 X139.039 Y114.544 E0.02676
G1 X138.542 Y115.237 E0.02675
G1 X138.010 Y115.905 E0.02677
G1 X137.445 Y116.545 E0.02677
G1 X136.855 Y117.151 E0.02651
G1 X136.214 Y117.744 E0.02738
G1 X135.550 Y118.300 E0.02716
G1 X134.860 Y118.819 E0.02709
G1 X134.148 Y119.300 E0.02692
G1 X133.393 Y119.756 E0.02765
G1 X132.638 Y120.160 E0.02686
G1 X131.635 Y120.625 E0.03466
G1 X130.840 Y120.940 E0.02682
G1 X130.023 Y121.216 E0.02703
G1 X129.191 Y121.450 E0.02710
G1 X128.336 Y121.645 E0.02750
G1 X127.482 Y121.793 E0.02717
G1 X126.626 Y121.898 E0.02704
G1 X125.759 Y121.959 E0.02725
G1 X124.889 Y121.976 E0.02729
G1 X124.049 Y121.949 E0.02634
G1 X123.212 Y121.882 E0.02633
G1 X122.384 Y121.773 E0.02619
G1 X121.557 Y121.623 E0.02635
G1 X120.741 Y121.433 E0.02627
G1 X119.937 Y121.203 E0.02624
G1 X119.142 Y120.933 E0.02630
G1 X118.359 Y120.623 E0.02641
G1 X117.562 Y120.260 E0.02748
G1 X116.793 Y119.860 E0.02716
G1 X116.047 Y119.423 E0.02711
G1 X115.334 Y118.955 E0.02675
G1 X114.627 Y118.438 E0.02749
G1 X113.957 Y117.893 E0.02707
G1 X113.141 Y117.147 E0.03465
G1 X112.543 Y116.533 E0.02688
G1 X111.977 Y115.890 E0.02685
G1 X111.436 Y115.208 E0.02729
G1 X110.931 Y114.499 E0.02731
G1 X110.465 Y113.770 E0.02712
G1 X110.039 Y113.022 E0.02697
G1 X109.653 Y112.257 E0.02689
G1 X109.304 Y111.468 E0.02704
G1 X108.995 Y110.658 E0.02718
G1 X108.728 Y109.839 E0.02701
G1 X108.505 Y109.010 E0.02690
G1 X108.321 Y108.162 E0.02721
G1 X108.182 Y107.310 E0.02708
G1 X108.087 Y106.456 E0.02694
G1 X108.035 Y105.599 E0.02693
G1 X108.026 Y104.730 E0.02723
G1 X108.061 Y103.884 E0.02655
