; generated by PrusaSlicer 2.2.0+win64 on 2020-05-29 at 11:41:41 UTC


;
;

;
;
; 

; external perimeters extrusion width = 0.45mm
; perimeters extrusion width = 0.45mm
; infill extrusion width = 0.45mm
; solid infill extrusion width = 0.45mm
; top infill extrusion width = 0.40mm
; support material extrusion width = 0.35mm
; first layer extrusion width = 0.42mm

M73 P0 R52
M201 X1250 Y1250 Z400 E5000 ; sets maximum accelerations, mm/sec^2
M203 X180 Y180 Z12 E80 ; sets maximum feedrates, mm/sec
M204 P1250 R1250 T1250 ; sets acceleration (P, T) and retract acceleration (R), mm/sec^2
M205 X8.00 Y8.00 Z2.00 E10.00 ; sets the jerk limits, mm/sec
M205 S0 T0 ; sets the minimum extruding and travel feed rate, mm/sec
M107
G90 ; use absolute coordinates
M83 ; extruder relative mode
M104 S170 ; set extruder temp for bed leveling
M140 S70 ; set bed temp
M109 R170 ; wait for bed leveling temp
M190 S70 ; wait for bed temp
G28 ; home all without mesh bed level
G29 ; mesh bed leveling 
M104 S240 ; set extruder temp
G92 E0.0
G1 Y-2.0 X179 F2400
G1 Z3 F720
M109 S240 ; wait for extruder temp

; intro line
G1 X170 F1000
G1 Z0.2 F720
G1 X110.0 E8.0 F900
M73 P0 R52
G1 X40.0 E10.0 F700
G92 E0.0

M221 S95 ; set flow
G21 ; set units to millimeters
G90 ; use absolute coordinates
M83 ; use relative distances for extrusion
M900 K0.2 ; Filament gcode
;BEFORE_LAYER_CHANGE
G92 E0.0
;0.2


G1 Z0.200 F9000.000
;AFTER_LAYER_CHANGE
;0.2
G1 E-3.20000 F4200.00000
G1 Z0.400 F9000.000
G1 X64.978 Y80.533
G1 Z0.200
G1 E3.20000 F2400.00000
M204 S800
G1 F1200.000
G1 X65.735 Y80.045 E0.02825
G1 X66.624 Y79.874 E0.02837
G1 X113.391 Y80.044 E1.46637
G1 X114.027 Y80.134 E0.02012
G1 X114.660 Y80.419 E0.02178
G1 X115.187 Y80.877 E0.02190
G1 X115.557 Y81.469 E0.02190
G1 X115.739 Y82.140 E0.02178
G1 X115.756 Y93.150 E0.34522
G1 X115.665 Y93.785 E0.02012
G1 X115.426 Y94.344 E0.01906
G1 X115.052 Y94.823 E0.01906
G1 X114.569 Y95.192 E0.01906
G1 X114.012 Y95.426 E0.01894
G1 X107.173 Y96.126 E0.21557
G1 X72.850 Y96.127 E1.07615
G1 X65.974 Y95.252 E0.21733
G1 X65.344 Y94.970 E0.02166
G1 X64.824 Y94.521 E0.02154
G1 X64.453 Y93.938 E0.02166
G1 X64.265 Y93.278 E0.02154
G1 X64.246 Y82.152 E0.34883
G1 X64.455 Y81.272 E0.02837
G1 X64.943 Y80.582 E0.02649
M204 S1250
G1 E-2.24000 F4200.00000
G1 F7200.000
G1 X65.735 Y80.045 E-0.53033
G1 X66.412 Y79.915 E-0.38167
G1 E-0.04800 F4200.00000
G1 Z0.400 F9000.000
G1 X102.414 Y100.387
G1 Z0.200
G1 E3.20000 F2400.00000
M204 S800
G1 F1200.000
G1 X100.483 Y100.884 E0.06250
G1 X94.177 Y100.884 E0.19773
G1 X93.683 Y100.864 E0.01550
G1 X93.435 Y100.884 E0.00779
G1 X85.881 Y100.884 E0.23686
G1 X85.387 Y100.864 E0.01550
G1 X85.140 Y100.884 E0.00779
G1 X77.289 Y100.884 E0.24615
G1 X76.727 Y100.771 E0.01798
G1 X75.447 Y101.175 E0.04208
G1 X74.205 Y101.401 E0.03957
G1 X72.842 Y101.480 E0.04280
G1 X71.617 Y101.402 E0.03849
G1 X70.432 Y101.193 E0.03775
G1 X69.443 Y100.876 E0.03254
G1 X65.806 Y100.865 E0.11404
G1 X63.379 Y100.211 E0.07882
G1 X61.651 Y99.136 E0.06380
G1 X60.236 Y97.679 E0.06370
G1 X59.244 Y95.896 E0.06397
G1 X58.768 Y94.093 E0.05847
G1 X58.702 Y81.540 E0.39359
G1 X59.231 Y79.361 E0.07032
G1 X60.144 Y77.719 E0.05892
G1 X61.389 Y76.356 E0.05786
G1 X63.128 Y75.233 E0.06491
G1 X64.701 Y74.678 E0.05230
G1 X66.948 Y74.503 E0.07067
G1 X113.904 Y74.502 E1.47225
G1 X116.295 Y75.036 E0.07683
G1 X118.024 Y75.985 E0.06184
G1 X119.490 Y77.365 E0.06314
G1 X120.579 Y79.079 E0.06368
G1 X121.186 Y80.973 E0.06236
G1 X121.299 Y93.697 E0.39897
G1 X120.806 Y95.948 E0.07223
G1 X119.895 Y97.624 E0.05981
G1 X118.592 Y99.056 E0.06071
G1 X116.264 Y100.409 E0.08442
G1 X114.074 Y100.867 E0.07016
G1 X110.609 Y100.882 E0.10864
G1 X110.393 Y100.963 E0.00725
G1 X109.439 Y101.222 E0.03101
G1 X107.767 Y101.459 E0.05294
G1 X106.260 Y101.448 E0.04724
G1 X104.799 Y101.233 E0.04632
G1 X103.173 Y100.740 E0.05328
G1 X102.468 Y100.412 E0.02435
M204 S1250
G1 X102.628 Y100.071 F9000.000
M204 S800
G1 F1200.000
G1 X102.450 Y99.988 E0.00615
G1 X100.459 Y100.507 E0.06452
G1 X94.181 Y100.507 E0.19685
G1 X93.675 Y100.487 E0.01587
G1 X93.428 Y100.507 E0.00778
G1 X85.885 Y100.507 E0.23649
G1 X85.379 Y100.487 E0.01587
G1 X85.132 Y100.507 E0.00778
G1 X77.309 Y100.507 E0.24527
G1 X76.708 Y100.382 E0.01926
G1 X75.368 Y100.806 E0.04407
G1 X74.149 Y101.028 E0.03883
G1 X72.854 Y101.103 E0.04067
G1 X71.672 Y101.029 E0.03714
G1 X70.510 Y100.824 E0.03700
G1 X69.503 Y100.499 E0.03318
G1 X65.879 Y100.494 E0.11362
G1 X63.553 Y99.875 E0.07547
G1 X61.905 Y98.857 E0.06074
G1 X60.524 Y97.434 E0.06216
G1 X59.585 Y95.735 E0.06087
G1 X59.139 Y94.021 E0.05553
G1 X59.079 Y81.562 E0.39066
G1 X59.591 Y79.476 E0.06734
G1 X60.462 Y77.923 E0.05584
G1 X61.650 Y76.629 E0.05507
G1 X63.275 Y75.580 E0.06065
G1 X64.756 Y75.052 E0.04928
G1 X66.970 Y74.879 E0.06965
G1 X113.883 Y74.879 E1.47092
G1 X116.137 Y75.379 E0.07239
G1 X117.821 Y76.304 E0.06023
G1 X119.214 Y77.622 E0.06013
G1 X120.247 Y79.260 E0.06071
G1 X120.818 Y81.060 E0.05922
G1 X120.921 Y93.679 E0.39568
G1 X120.461 Y95.791 E0.06776
G1 X119.575 Y97.423 E0.05824
G1 X118.334 Y98.779 E0.05764
G1 X116.102 Y100.067 E0.08077
G1 X114.054 Y100.490 E0.06559
G1 X110.539 Y100.505 E0.11021
G1 X110.284 Y100.602 E0.00854
G1 X109.374 Y100.850 E0.02960
G1 X107.728 Y101.084 E0.05212
G1 X106.277 Y101.071 E0.04550
G1 X104.868 Y100.862 E0.04465
G1 X103.296 Y100.383 E0.05154
G1 X102.682 Y100.096 E0.02123
M204 S1250
G1 X102.487 Y99.588 F9000.000
M204 S800
G1 F1200.000
G1 X100.434 Y100.130 E0.06655
G1 X94.185 Y100.130 E0.19596
G1 X93.667 Y100.109 E0.01626
G1 X93.419 Y100.130 E0.00777
G1 X85.889 Y100.130 E0.23612
G1 X85.371 Y100.109 E0.01626
G1 X85.124 Y100.130 E0.00777
G1 X77.330 Y100.130 E0.24437
G1 X76.656 Y99.985 E0.02162
G1 X76.428 Y100.086 E0.00783
G1 X75.290 Y100.437 E0.03734
G1 X74.115 Y100.652 E0.03743
G1 X72.866 Y100.726 E0.03924
G1 X71.727 Y100.656 E0.03577
G1 X70.589 Y100.455 E0.03625
G1 X69.560 Y100.122 E0.03390
G1 X68.564 Y100.130 E0.03124
G1 X68.026 Y100.109 E0.01688
G1 X67.777 Y100.130 E0.00781
G1 X65.952 Y100.124 E0.05725
G1 X63.727 Y99.540 E0.07210
G1 X62.124 Y98.548 E0.05911
G1 X60.813 Y97.191 E0.05916
G1 X59.928 Y95.575 E0.05778
G1 X59.510 Y93.950 E0.05261
G1 X59.456 Y81.584 E0.38774
G1 X59.950 Y79.592 E0.06434
G1 X60.779 Y78.128 E0.05276
G1 X61.910 Y76.903 E0.05228
G1 X63.460 Y75.910 E0.05771
G1 X64.857 Y75.416 E0.04647
G1 X66.977 Y75.256 E0.06665
G1 X113.863 Y75.256 E1.47007
G1 X115.981 Y75.723 E0.06800
G1 X117.580 Y76.594 E0.05710
G1 X118.937 Y77.879 E0.05859
G1 X119.914 Y79.439 E0.05771
G1 X120.450 Y81.146 E0.05610
G1 X120.544 Y93.662 E0.39243
G1 X120.117 Y95.636 E0.06334
G1 X119.281 Y97.186 E0.05522
G1 X118.076 Y98.503 E0.05597
G1 X115.942 Y99.724 E0.07709
G1 X114.040 Y100.112 E0.06086
G1 X113.324 Y100.104 E0.02244
G1 X113.027 Y100.130 E0.00937
G1 X110.469 Y100.128 E0.08019
G1 X110.175 Y100.241 E0.00988
G1 X109.309 Y100.479 E0.02817
G1 X107.689 Y100.708 E0.05129
G1 X106.294 Y100.694 E0.04375
G1 X104.938 Y100.491 E0.04299
G1 X103.419 Y100.026 E0.04980
G1 X102.541 Y99.614 E0.03043
M204 S1250
G1 X102.702 Y99.273 F9000.000
M204 S800
G1 F1200.000
G1 X102.523 Y99.188 E0.00622
G1 X100.410 Y99.752 E0.06858
G1 X94.188 Y99.752 E0.19506
G1 X93.658 Y99.731 E0.01666
G1 X93.411 Y99.752 E0.00776
G1 X85.893 Y99.752 E0.23573
G1 X85.362 Y99.731 E0.01666
G1 X85.115 Y99.752 E0.00776
G1 X77.351 Y99.752 E0.24344
G1 X76.614 Y99.589 E0.02367
G1 X76.304 Y99.730 E0.01069
G1 X75.210 Y100.069 E0.03590
G1 X74.081 Y100.276 E0.03600
G1 X72.877 Y100.348 E0.03780
G1 X71.761 Y100.280 E0.03507
G1 X70.668 Y100.086 E0.03482
G1 X69.619 Y99.744 E0.03460
G1 X68.565 Y99.753 E0.03304
G1 X68.017 Y99.731 E0.01721
G1 X67.770 Y99.752 E0.00777
G1 X65.976 Y99.747 E0.05623
G1 X63.902 Y99.204 E0.06724
G1 X62.343 Y98.240 E0.05747
G1 X61.103 Y96.949 E0.05613
G1 X60.270 Y95.416 E0.05468
G1 X59.881 Y93.880 E0.04969
G1 X59.833 Y81.606 E0.38485
G1 X60.310 Y79.710 E0.06131
G1 X61.095 Y78.334 E0.04967
G1 X62.170 Y77.178 E0.04950
G1 X63.644 Y76.240 E0.05477
G1 X64.958 Y75.781 E0.04365
G1 X66.984 Y75.633 E0.06368
G1 X113.843 Y75.633 E1.46924
G1 X115.825 Y76.067 E0.06363
G1 X117.340 Y76.886 E0.05399
G1 X118.631 Y78.101 E0.05559
G1 X119.562 Y79.576 E0.05467
G1 X120.082 Y81.232 E0.05444
G1 X120.167 Y93.644 E0.38916
G1 X119.772 Y95.481 E0.05892
G1 X118.960 Y96.986 E0.05363
G1 X117.819 Y98.225 E0.05283
G1 X115.782 Y99.381 E0.07342
G1 X114.025 Y99.735 E0.05621
G1 X113.310 Y99.727 E0.02243
G1 X113.018 Y99.752 E0.00917
G1 X110.398 Y99.751 E0.08214
G1 X110.065 Y99.880 E0.01121
G1 X109.244 Y100.107 E0.02672
G1 X107.651 Y100.333 E0.05044
G1 X106.312 Y100.317 E0.04198
G1 X105.008 Y100.121 E0.04133
G1 X103.543 Y99.670 E0.04806
G1 X102.756 Y99.298 E0.02729
M204 S1250
G1 X102.559 Y98.787 F9000.000
M204 S800
G1 F1200.000
G1 X100.384 Y99.375 E0.07062
G1 X94.192 Y99.375 E0.19415
G1 X93.648 Y99.353 E0.01708
G1 X93.402 Y99.375 E0.00774
G1 X85.897 Y99.375 E0.23534
G1 X85.352 Y99.353 E0.01708
G1 X85.107 Y99.375 E0.00774
G1 X77.373 Y99.375 E0.24248
G1 X76.573 Y99.192 E0.02573
G1 X76.180 Y99.374 E0.01359
G1 X75.130 Y99.700 E0.03445
G1 X74.046 Y99.900 E0.03457
G1 X72.889 Y99.971 E0.03636
G1 X71.795 Y99.904 E0.03436
G1 X70.747 Y99.717 E0.03337
G1 X69.678 Y99.366 E0.03530
G1 X68.567 Y99.376 E0.03484
G1 X68.007 Y99.353 E0.01756
G1 X67.761 Y99.375 E0.00775
G1 X66.047 Y99.375 E0.05375
G1 X64.074 Y98.868 E0.06387
G1 X62.598 Y97.962 E0.05431
G1 X61.393 Y96.706 E0.05455
G1 X60.614 Y95.259 E0.05154
G1 X60.253 Y93.811 E0.04678
G1 X60.210 Y81.629 E0.38197
G1 X60.668 Y79.828 E0.05825
G1 X61.411 Y78.542 E0.04657
G1 X62.428 Y77.453 E0.04672
G1 X63.826 Y76.571 E0.05183
G1 X65.057 Y76.145 E0.04084
G1 X66.990 Y76.010 E0.06075
G1 X113.823 Y76.010 E1.46842
G1 X115.669 Y76.412 E0.05925
G1 X117.138 Y77.206 E0.05236
G1 X118.354 Y78.358 E0.05251
G1 X119.229 Y79.754 E0.05167
G1 X119.713 Y81.317 E0.05128
G1 X119.790 Y93.626 E0.38594
G1 X119.427 Y95.327 E0.05454
G1 X118.667 Y96.748 E0.05055
G1 X117.562 Y97.948 E0.05113
G1 X115.624 Y99.038 E0.06971
G1 X114.010 Y99.358 E0.05160
G1 X113.294 Y99.349 E0.02244
G1 X113.010 Y99.375 E0.00896
G1 X110.327 Y99.373 E0.08411
G1 X109.955 Y99.519 E0.01253
G1 X109.155 Y99.740 E0.02602
G1 X107.613 Y99.958 E0.04884
G1 X106.330 Y99.940 E0.04021
G1 X105.079 Y99.750 E0.03968
G1 X103.668 Y99.314 E0.04632
G1 X102.613 Y98.813 E0.03662
M204 S1250
G1 X102.564 Y98.338 F9000.000
M204 S800
G1 F1200.000
G1 X102.329 Y98.462 E0.00830
G1 X100.359 Y98.998 E0.06403
G1 X94.196 Y98.998 E0.19323
G1 X93.638 Y98.975 E0.01752
G1 X93.393 Y98.998 E0.00770
G1 X85.900 Y98.998 E0.23493
G1 X85.342 Y98.975 E0.01752
G1 X85.097 Y98.998 E0.00771
G1 X77.396 Y98.998 E0.24149
G1 X76.532 Y98.794 E0.02781
G1 X76.055 Y99.018 E0.01654
G1 X75.050 Y99.331 E0.03299
G1 X74.011 Y99.525 E0.03313
G1 X72.878 Y99.594 E0.03562
G1 X71.830 Y99.529 E0.03292
G1 X70.827 Y99.349 E0.03193
G1 X69.737 Y98.989 E0.03600
G1 X68.568 Y98.998 E0.03665
G1 X67.997 Y98.975 E0.01793
G1 X67.752 Y98.998 E0.00771
G1 X66.071 Y98.998 E0.05270
G1 X64.197 Y98.510 E0.06071
G1 X62.817 Y97.654 E0.05091
G1 X61.684 Y96.465 E0.05150
G1 X60.958 Y95.103 E0.04840
G1 X60.624 Y93.744 E0.04389
G1 X60.588 Y81.652 E0.37912
G1 X61.027 Y79.948 E0.05517
G1 X61.725 Y78.751 E0.04347
G1 X62.686 Y77.730 E0.04397
G1 X64.007 Y76.902 E0.04888
G1 X65.155 Y76.510 E0.03802
G1 X66.995 Y76.387 E0.05784
G1 X113.803 Y76.388 E1.46761
M73 P2 R51
G1 X115.515 Y76.757 E0.05492
G1 X116.899 Y77.498 E0.04921
G1 X118.048 Y78.580 E0.04951
G1 X118.876 Y79.890 E0.04859
G1 X119.345 Y81.402 E0.04962
G1 X119.413 Y93.608 E0.38271
G1 X119.082 Y95.173 E0.05015
G1 X118.346 Y96.549 E0.04894
G1 X117.306 Y97.669 E0.04792
G1 X115.467 Y98.694 E0.06600
G1 X113.995 Y98.980 E0.04702
G1 X113.278 Y98.972 E0.02248
G1 X113.001 Y98.998 E0.00875
G1 X110.255 Y98.996 E0.08608
G1 X109.844 Y99.158 E0.01385
G1 X109.066 Y99.374 E0.02531
G1 X107.575 Y99.582 E0.04722
G1 X106.349 Y99.564 E0.03844
G1 X105.150 Y99.380 E0.03802
G1 X103.793 Y98.958 E0.04458
G1 X102.819 Y98.495 E0.03380
G1 X102.615 Y98.370 E0.00752
M204 S1250
G1 X102.569 Y97.897 F9000.000
M204 S800
G1 F1200.000
G1 X102.203 Y98.105 E0.01319
G1 X100.333 Y98.621 E0.06082
G1 X94.200 Y98.621 E0.19230
G1 X93.627 Y98.598 E0.01798
G1 X93.384 Y98.621 E0.00767
G1 X85.904 Y98.621 E0.23451
G1 X85.331 Y98.598 E0.01798
G1 X85.088 Y98.621 E0.00767
G1 X77.419 Y98.621 E0.24047
G1 X76.492 Y98.396 E0.02989
G1 X75.929 Y98.662 E0.01952
G1 X74.969 Y98.963 E0.03153
G1 X73.977 Y99.149 E0.03167
G1 X72.866 Y99.217 E0.03487
G1 X71.865 Y99.153 E0.03147
G1 X70.908 Y98.980 E0.03049
G1 X69.796 Y98.611 E0.03671
G1 X68.570 Y98.621 E0.03847
G1 X67.986 Y98.598 E0.01832
G1 X67.742 Y98.621 E0.00767
G1 X66.096 Y98.621 E0.05163
G1 X64.322 Y98.153 E0.05752
G1 X63.039 Y97.348 E0.04749
G1 X61.976 Y96.225 E0.04847
G1 X61.303 Y94.949 E0.04526
G1 X60.996 Y93.677 E0.04101
G1 X60.965 Y81.676 E0.37628
G1 X61.385 Y80.070 E0.05205
G1 X62.039 Y78.962 E0.04035
G1 X62.943 Y78.007 E0.04122
G1 X64.187 Y77.234 E0.04592
G1 X65.249 Y76.876 E0.03516
G1 X66.672 Y76.799 E0.04468
G1 X67.008 Y76.765 E0.01059
G1 X113.783 Y76.765 E1.46659
G1 X115.362 Y77.102 E0.05062
G1 X116.660 Y77.791 E0.04607
G1 X117.743 Y78.802 E0.04645
G1 X118.544 Y80.070 E0.04702
G1 X118.976 Y81.485 E0.04639
G1 X119.035 Y93.590 E0.37954
G1 X118.736 Y95.020 E0.04582
G1 X118.052 Y96.311 E0.04580
G1 X117.050 Y97.390 E0.04618
G1 X115.312 Y98.349 E0.06225
G1 X113.981 Y98.603 E0.04248
G1 X113.262 Y98.595 E0.02256
G1 X112.991 Y98.621 E0.00852
G1 X110.183 Y98.619 E0.08806
G1 X109.734 Y98.798 E0.01515
G1 X108.978 Y99.007 E0.02458
G1 X107.538 Y99.207 E0.04559
G1 X106.393 Y99.189 E0.03590
G1 X105.248 Y99.015 E0.03631
G1 X103.942 Y98.611 E0.04286
G1 X102.991 Y98.159 E0.03302
G1 X102.620 Y97.929 E0.01368
M204 S1250
G1 X102.572 Y97.454 F9000.000
M204 S800
G1 F1200.000
G1 X102.076 Y97.750 E0.01811
G1 X100.307 Y98.244 E0.05758
G1 X94.204 Y98.244 E0.19136
G1 X93.616 Y98.220 E0.01847
G1 X93.374 Y98.244 E0.00762
G1 X85.908 Y98.244 E0.23408
G1 X85.320 Y98.220 E0.01847
G1 X85.078 Y98.244 E0.00762
G1 X77.442 Y98.244 E0.23942
G1 X76.452 Y97.997 E0.03199
G1 X75.803 Y98.306 E0.02256
G1 X74.888 Y98.594 E0.03007
G1 X73.942 Y98.774 E0.03021
G1 X72.855 Y98.840 E0.03412
G1 X71.901 Y98.778 E0.03000
G1 X70.989 Y98.611 E0.02906
G1 X69.856 Y98.234 E0.03743
G1 X68.571 Y98.244 E0.04030
G1 X67.974 Y98.220 E0.01873
G1 X67.732 Y98.244 E0.00762
G1 X66.121 Y98.244 E0.05053
G1 X64.448 Y97.797 E0.05430
G1 X63.262 Y97.043 E0.04407
G1 X62.269 Y95.987 E0.04545
G1 X61.648 Y94.796 E0.04211
G1 X61.368 Y93.612 E0.03815
G1 X61.342 Y81.700 E0.37348
G1 X61.742 Y80.193 E0.04890
G1 X62.351 Y79.174 E0.03723
G1 X63.198 Y78.285 E0.03849
G1 X64.365 Y77.567 E0.04296
G1 X65.343 Y77.242 E0.03231
G1 X66.701 Y77.175 E0.04264
G1 X67.018 Y77.142 E0.00999
G1 X113.764 Y77.142 E1.46567
G1 X115.209 Y77.448 E0.04631
G1 X116.461 Y78.112 E0.04443
G1 X117.466 Y79.060 E0.04332
G1 X118.211 Y80.248 E0.04397
G1 X118.607 Y81.567 E0.04319
G1 X118.658 Y93.572 E0.37640
G1 X118.390 Y94.867 E0.04148
G1 X117.731 Y96.112 E0.04415
G1 X116.796 Y97.110 E0.04287
G1 X115.158 Y98.003 E0.05851
G1 X113.967 Y98.226 E0.03798
G1 X113.244 Y98.217 E0.02267
G1 X112.981 Y98.244 E0.00829
G1 X110.110 Y98.242 E0.09004
G1 X109.623 Y98.437 E0.01645
G1 X108.889 Y98.640 E0.02386
G1 X107.528 Y98.829 E0.04308
G1 X106.436 Y98.814 E0.03426
G1 X105.345 Y98.650 E0.03459
G1 X104.092 Y98.265 E0.04112
G1 X103.163 Y97.823 E0.03224
G1 X102.623 Y97.486 E0.01996
M204 S1250
G1 X102.573 Y97.009 F9000.000
M204 S800
G1 F1200.000
G1 X101.946 Y97.394 E0.02307
G1 X100.281 Y97.867 E0.05428
G1 X94.208 Y97.867 E0.19041
G1 X93.603 Y97.842 E0.01898
G1 X93.364 Y97.867 E0.00755
G1 X85.912 Y97.867 E0.23363
G1 X85.307 Y97.842 E0.01898
G1 X85.068 Y97.867 E0.00755
G1 X77.467 Y97.867 E0.23833
G1 X76.413 Y97.598 E0.03409
G1 X75.676 Y97.951 E0.02563
G1 X74.806 Y98.226 E0.02861
G1 X73.906 Y98.398 E0.02873
G1 X72.845 Y98.463 E0.03335
G1 X71.937 Y98.402 E0.02853
G1 X71.070 Y98.243 E0.02762
G1 X69.917 Y97.856 E0.03816
G1 X68.573 Y97.867 E0.04213
G1 X67.962 Y97.842 E0.01917
G1 X67.722 Y97.867 E0.00756
G1 X66.146 Y97.867 E0.04942
G1 X64.575 Y97.441 E0.05103
G1 X63.486 Y96.739 E0.04062
G1 X62.563 Y95.749 E0.04244
