; generated by PrusaSlicer 2.2.0+win64 on 2020-05-29 at 11:39:07 UTC


;
;

;
;
; 

; external perimeters extrusion width = 0.45mm
; perimeters extrusion width = 0.45mm
; infill extrusion width = 0.45mm
; solid infill extrusion width = 0.45mm
; top infill extrusion width = 0.40mm
; first layer extrusion width = 0.42mm

M73 P0 R58
M201 X1250 Y1250 Z400 E5000 ; sets maximum accelerations, mm/sec^2
M203 X180 Y180 Z12 E80 ; sets maximum feedrates, mm/sec
M204 P1250 R1250 T1250 ; sets acceleration (P, T) and retract acceleration (R), mm/sec^2
M205 X8.00 Y8.00 Z2.00 E10.00 ; sets the jerk limits, mm/sec
M205 S0 T0 ; sets the minimum extruding and travel feed rate, mm/sec
M107
G90 ; use absolute coordinates
M83 ; extruder relative mode
M104 S170 ; set extruder temp for bed leveling
M140 S70 ; set bed temp
M109 R170 ; wait for bed leveling temp
M190 S70 ; wait for bed temp
G28 ; home all without mesh bed level
G29 ; mesh bed leveling 
M104 S240 ; set extruder temp
G92 E0.0
G1 Y-2.0 X179 F2400
G1 Z3 F720
M109 S240 ; wait for extruder temp

; intro line
G1 X170 F1000
G1 Z0.2 F720
G1 X110.0 E8.0 F900
M73 P0 R58
G1 X40.0 E10.0 F700
G92 E0.0

M221 S95 ; set flow
G21 ; set units to millimeters
G90 ; use absolute coordinates
M83 ; use relative distances for extrusion
M900 K0.2 ; Filament gcode
;BEFORE_LAYER_CHANGE
G92 E0.0
;0.2


G1 Z0.200 F9000.000
;AFTER_LAYER_CHANGE
;0.2
G1 E-3.20000 F4200.00000
G1 Z0.400 F9000.000
G1 X68.755 Y68.576
G1 Z0.200
G1 E3.20000 F2400.00000
M204 S800
G1 F1200.000
G1 X69.496 Y67.838 E0.03279
G1 X70.390 Y67.245 E0.03364
G1 X71.370 Y66.845 E0.03317
G1 X72.485 Y66.640 E0.03554
G1 X107.104 Y66.623 E1.08546
G1 X108.137 Y66.724 E0.03255
G1 X109.138 Y67.024 E0.03276
G1 X110.055 Y67.508 E0.03250
G1 X110.821 Y68.120 E0.03074
G1 X111.325 Y68.677 E0.02357
G1 X111.884 Y69.548 E0.03245
G1 X112.252 Y70.462 E0.03091
G1 X112.452 Y71.486 E0.03270
G1 X112.476 Y108.072 E1.14715
G1 X112.376 Y109.033 E0.03029
G1 X112.103 Y109.967 E0.03050
G1 X111.799 Y110.610 E0.02231
G1 X111.245 Y111.424 E0.03088
G1 X110.489 Y112.174 E0.03338
G1 X109.535 Y112.793 E0.03566
G1 X108.258 Y113.249 E0.04253
G1 X107.141 Y113.377 E0.03525
G1 X72.824 Y113.376 E1.07598
G1 X71.867 Y113.276 E0.03017
G1 X70.937 Y113.005 E0.03038
G1 X70.293 Y112.701 E0.02231
G1 X69.490 Y112.157 E0.03042
G1 X68.728 Y111.392 E0.03383
G1 X68.109 Y110.438 E0.03566
G1 X67.651 Y109.158 E0.04265
G1 X67.523 Y108.041 E0.03525
G1 X67.524 Y71.928 E1.13229
G1 X67.624 Y70.967 E0.03029
G1 X67.897 Y70.033 E0.03050
G1 X68.201 Y69.390 E0.02231
G1 X68.721 Y68.625 E0.02900
M204 S1250
G1 E-2.24000 F4200.00000
G1 F7200.000
G1 X69.496 Y67.838 E-0.61216
G1 X69.947 Y67.539 E-0.29984
G1 E-0.04800 F4200.00000
G1 Z0.400 F9000.000
G1 X84.875 Y66.446
G1 Z0.200
G1 E3.20000 F2400.00000
M204 S800
G1 F1200.000
G1 X84.221 Y66.229 E0.02160
G1 X83.133 Y65.780 E0.03691
G1 X82.052 Y65.242 E0.03787
G1 X81.586 Y64.978 E0.01677
G1 X80.581 Y64.336 E0.03740
G1 X78.832 Y63.051 E0.06804
G1 X77.810 Y62.453 E0.03713
G1 X76.893 Y62.036 E0.03162
G1 X75.958 Y61.711 E0.03100
G1 X75.000 Y61.475 E0.03095
G1 X74.040 Y61.329 E0.03045
G1 X73.081 Y61.271 E0.03012
G1 X71.992 Y61.308 E0.03416
G1 X70.908 Y61.456 E0.03429
G1 X69.665 Y61.769 E0.04020
G1 X68.763 Y62.100 E0.03013
G1 X67.812 Y62.553 E0.03304
G1 X66.868 Y63.125 E0.03459
G1 X66.105 Y63.696 E0.02989
G1 X65.398 Y64.328 E0.02971
G1 X64.636 Y65.157 E0.03532
G1 X64.052 Y65.930 E0.03038
G1 X63.535 Y66.761 E0.03069
G1 X62.921 Y68.054 E0.04487
G1 X62.609 Y68.961 E0.03008
G1 X62.378 Y69.896 E0.03018
G1 X62.235 Y70.818 E0.02925
G1 X62.174 Y71.743 E0.02908
G1 X62.172 Y108.177 E1.14235
G1 X62.237 Y109.198 E0.03208
G1 X62.400 Y110.208 E0.03207
G1 X62.695 Y111.314 E0.03590
G1 X63.086 Y112.338 E0.03436
G1 X63.559 Y113.278 E0.03302
G1 X64.120 Y114.168 E0.03297
G1 X64.761 Y114.993 E0.03275
G1 X65.391 Y115.664 E0.02887
G1 X66.073 Y116.278 E0.02877
G1 X67.005 Y116.966 E0.03632
G1 X68.000 Y117.545 E0.03609
G1 X68.768 Y117.902 E0.02656
G1 X69.586 Y118.206 E0.02737
G1 X70.525 Y118.464 E0.03053
G1 X71.624 Y118.654 E0.03496
G1 X72.737 Y118.729 E0.03499
G1 X73.869 Y118.687 E0.03552
G1 X74.918 Y118.541 E0.03319
G1 X75.917 Y118.301 E0.03222
G1 X76.900 Y117.961 E0.03261
G1 X77.884 Y117.509 E0.03394
G1 X78.854 Y116.934 E0.03535
G1 X80.585 Y115.661 E0.06737
G1 X81.561 Y115.038 E0.03632
G1 X82.600 Y114.473 E0.03708
G1 X83.675 Y113.985 E0.03701
G1 X84.815 Y113.565 E0.03810
M204 S1250
G1 X86.145 Y113.188 F9000.000
M204 S800
G1 F1200.000
G1 X86.463 Y113.113 E0.01024
G1 X87.646 Y112.900 E0.03767
G1 X88.825 Y112.774 E0.03719
G1 X89.999 Y112.733 E0.03681
G1 X91.178 Y112.774 E0.03698
G1 X92.351 Y112.900 E0.03700
G1 X93.537 Y113.113 E0.03777
G1 X93.855 Y113.188 E0.01027
M204 S1250
G1 X95.187 Y113.565 F9000.000
M204 S800
G1 F1200.000
G1 X96.329 Y113.986 E0.03817
G1 X97.394 Y114.470 E0.03669
G1 X98.437 Y115.037 E0.03723
G1 X99.419 Y115.664 E0.03652
G1 X101.135 Y116.927 E0.06682
G1 X102.104 Y117.502 E0.03531
G1 X103.012 Y117.926 E0.03144
G1 X103.958 Y118.263 E0.03147
G1 X104.972 Y118.519 E0.03281
G1 X105.991 Y118.674 E0.03231
G1 X107.034 Y118.729 E0.03275
G1 X108.183 Y118.675 E0.03606
G1 X109.426 Y118.476 E0.03948
G1 X110.267 Y118.251 E0.02730
G1 X111.078 Y117.965 E0.02696
G1 X111.967 Y117.563 E0.03058
G1 X112.869 Y117.047 E0.03260
G1 X113.741 Y116.428 E0.03353
G1 X114.611 Y115.663 E0.03631
G1 X115.397 Y114.802 E0.03655
G1 X116.006 Y113.984 E0.03198
G1 X116.538 Y113.105 E0.03224
G1 X116.975 Y112.198 E0.03154
G1 X117.321 Y111.266 E0.03119
G1 X117.662 Y109.899 E0.04415
G1 X117.775 Y109.089 E0.02567
G1 X117.825 Y108.280 E0.02540
G1 X117.829 Y71.854 E1.14210
G1 X117.776 Y70.928 E0.02910
G1 X117.646 Y70.019 E0.02879
G1 X117.401 Y68.997 E0.03295
G1 X116.951 Y67.746 E0.04168
G1 X116.463 Y66.760 E0.03449
G1 X115.905 Y65.867 E0.03301
G1 X115.268 Y65.042 E0.03268
G1 X114.573 Y64.300 E0.03190
G1 X113.809 Y63.626 E0.03193
G1 X113.001 Y63.038 E0.03134
G1 X112.148 Y62.533 E0.03108
G1 X111.176 Y62.074 E0.03371
G1 X110.241 Y61.740 E0.03111
G1 X109.283 Y61.494 E0.03100
G1 X108.284 Y61.336 E0.03172
M204 S1250
M204 S800
G1 X107.273 Y61.271 E0.03178
G1 X106.118 Y61.314 E0.03622
G1 X104.949 Y61.485 E0.03706
G1 X104.069 Y61.703 E0.02841
G1 X103.199 Y61.999 E0.02881
G1 X102.297 Y62.398 E0.03094
G1 X101.103 Y63.095 E0.04335
G1 X99.406 Y64.347 E0.06611
G1 X98.965 Y64.640 E0.01660
G1 X97.899 Y65.269 E0.03879
G1 X97.423 Y65.516 E0.01684
G1 X96.328 Y66.014 E0.03769
G1 X95.168 Y66.440 E0.03877
M204 S1250
G1 X93.801 Y66.818 F9000.000
M204 S800
G1 F1200.000
G1 X92.919 Y67.009 E0.02828
G1 X91.768 Y67.174 E0.03647
G1 X91.073 Y67.232 E0.02186
G1 X90.438 Y67.262 E0.01993
G1 X89.376 Y67.256 E0.03329
G1 X88.843 Y67.228 E0.01675
G1 X87.646 Y67.100 E0.03773
G1 X86.483 Y66.891 E0.03704
G1 X86.213 Y66.822 E0.00875
M204 S1250
G1 X84.814 Y66.823 F9000.000
M204 S800
G1 F1200.000
G1 X85.241 Y66.964 E0.01410
G1 X86.404 Y67.260 E0.03760
G1 X87.593 Y67.473 E0.03788
G1 X88.813 Y67.604 E0.03846
G1 X89.365 Y67.633 E0.01735
G1 X90.446 Y67.639 E0.03387
G1 X91.097 Y67.609 E0.02046
G1 X91.810 Y67.549 E0.02243
G1 X92.986 Y67.380 E0.03724
G1 X94.184 Y67.121 E0.03843
G1 X95.222 Y66.817 E0.03392
M204 S1250
G1 X96.264 Y66.440 F9000.000
M204 S800
G1 F1200.000
G1 X96.472 Y66.363 E0.00697
G1 X97.588 Y65.856 E0.03842
G1 X98.082 Y65.598 E0.01747
G1 X99.165 Y64.959 E0.03942
G1 X99.622 Y64.656 E0.01721
G1 X101.301 Y63.416 E0.06545
G1 X102.478 Y62.729 E0.04270
G1 X103.329 Y62.354 E0.02918
G1 X104.168 Y62.067 E0.02781
G1 X105.013 Y61.857 E0.02730
G1 X106.143 Y61.690 E0.03581
G1 X107.259 Y61.648 E0.03500
M204 S1250
M204 S800
G1 X108.251 Y61.711 E0.03119
G1 X109.215 Y61.865 E0.03060
G1 X110.139 Y62.103 E0.02990
G1 X111.040 Y62.426 E0.03001
G1 X111.964 Y62.862 E0.03203
G1 X112.786 Y63.348 E0.02997
G1 X113.566 Y63.915 E0.03023
G1 X114.304 Y64.564 E0.03081
G1 X114.975 Y65.280 E0.03077
G1 X115.590 Y66.075 E0.03151
G1 X116.138 Y66.952 E0.03242
G1 X116.600 Y67.884 E0.03261
G1 X117.043 Y69.115 E0.04102
G1 X117.274 Y70.081 E0.03116
G1 X117.400 Y70.957 E0.02776
G1 X117.452 Y71.860 E0.02834
G1 X117.448 Y108.262 E1.14138
G1 X117.399 Y109.058 E0.02499
G1 X117.290 Y109.837 E0.02468
G1 X116.964 Y111.144 E0.04223
G1 X116.624 Y112.058 E0.03058
G1 X116.202 Y112.933 E0.03043
G1 X115.698 Y113.767 E0.03057
G1 X115.112 Y114.555 E0.03081
G1 X114.354 Y115.387 E0.03528
G1 X113.500 Y116.138 E0.03567
G1 X112.674 Y116.725 E0.03175
G1 X111.803 Y117.223 E0.03147
G1 X110.930 Y117.618 E0.03004
G1 X110.149 Y117.893 E0.02596
G1 X109.356 Y118.105 E0.02572
G1 X108.154 Y118.299 E0.03818
G1 X107.026 Y118.352 E0.03542
G1 X106.021 Y118.298 E0.03156
G1 X105.055 Y118.151 E0.03062
G1 X104.075 Y117.905 E0.03168
G1 X103.163 Y117.580 E0.03036
G1 X102.288 Y117.173 E0.03028
G1 X101.351 Y116.618 E0.03413
G1 X99.633 Y115.353 E0.06691
G1 X98.629 Y114.712 E0.03733
G1 X97.562 Y114.132 E0.03807
G1 X96.473 Y113.637 E0.03753
G1 X96.277 Y113.565 E0.00652
M204 S1250
G1 X95.241 Y113.188 F9000.000
M204 S800
G1 F1200.000
G1 X94.162 Y112.873 E0.03523
G1 X93.613 Y112.744 E0.01769
G1 X92.404 Y112.526 E0.03851
G1 X91.204 Y112.398 E0.03784
G1 X89.999 Y112.355 E0.03782
G1 X88.799 Y112.398 E0.03765
G1 X87.593 Y112.527 E0.03803
G1 X86.387 Y112.743 E0.03841
G1 X85.841 Y112.872 E0.01758
G1 X84.761 Y113.188 E0.03529
M204 S1250
G1 X83.723 Y113.565 F9000.000
M204 S800
G1 F1200.000
G1 X82.432 Y114.135 E0.04427
G1 X81.369 Y114.713 E0.03792
G1 X80.371 Y115.350 E0.03713
G1 X78.638 Y116.625 E0.06746
G1 X77.717 Y117.170 E0.03356
G1 X76.768 Y117.608 E0.03277
G1 X75.819 Y117.936 E0.03146
G1 X74.856 Y118.169 E0.03108
G1 X73.845 Y118.311 E0.03200
G1 X72.753 Y118.352 E0.03428
G1 X71.659 Y118.278 E0.03436
G1 X70.599 Y118.094 E0.03374
G1 X69.695 Y117.845 E0.02941
G1 X68.920 Y117.557 E0.02591
G1 X68.181 Y117.215 E0.02552
G1 X67.220 Y116.656 E0.03486
G1 X66.318 Y115.991 E0.03513
G1 X65.649 Y115.390 E0.02822
G1 X65.042 Y114.741 E0.02784
G1 X64.434 Y113.959 E0.03108
G1 X63.891 Y113.100 E0.03183
G1 X63.435 Y112.194 E0.03184
G1 X63.056 Y111.207 E0.03313
G1 X62.770 Y110.138 E0.03469
G1 X62.613 Y109.165 E0.03091
G1 X62.549 Y108.159 E0.03160
G1 X62.551 Y71.762 E1.14121
G1 X62.609 Y70.867 E0.02810
G1 X62.750 Y69.962 E0.02873
G1 X62.969 Y69.076 E0.02863
G1 X63.267 Y68.206 E0.02882
G1 X63.871 Y66.932 E0.04420
G1 X64.358 Y66.150 E0.02890
G1 X64.920 Y65.405 E0.02926
G1 X65.657 Y64.603 E0.03416
G1 X66.350 Y63.983 E0.02916
G1 X67.087 Y63.433 E0.02882
G1 X67.982 Y62.890 E0.03285
G1 X68.917 Y62.444 E0.03246
G1 X69.785 Y62.127 E0.02898
G1 X70.990 Y61.825 E0.03894
G1 X72.033 Y61.683 E0.03301
G1 X73.067 Y61.648 E0.03244
G1 X73.992 Y61.704 E0.02904
G1 X74.918 Y61.843 E0.02938
G1 X75.843 Y62.071 E0.02987
G1 X76.745 Y62.383 E0.02991
G1 X77.628 Y62.784 E0.03043
G1 X78.634 Y63.372 E0.03651
G1 X80.367 Y64.647 E0.06749
G1 X81.392 Y65.301 E0.03810
G1 X81.874 Y65.575 E0.01740
G1 X82.977 Y66.124 E0.03861
G1 X83.759 Y66.446 E0.02652
M204 S1250
G1 X83.684 Y66.823 F9000.000
M204 S800
G1 F1200.000
G1 X83.959 Y66.936 E0.00930
G1 X85.135 Y67.326 E0.03887
G1 X86.324 Y67.628 E0.03844
G1 X87.539 Y67.847 E0.03872
G1 X88.782 Y67.980 E0.03920
G1 X89.354 Y68.010 E0.01796
G1 X90.453 Y68.016 E0.03446
G1 X91.122 Y67.985 E0.02098
G1 X91.853 Y67.923 E0.02300
G1 X93.053 Y67.752 E0.03800
G1 X94.277 Y67.487 E0.03927
G1 X95.457 Y67.142 E0.03856
G1 X96.332 Y66.817 E0.02926
M204 S1250
G1 X97.215 Y66.439 F9000.000
M204 S800
G1 F1200.000
G1 X97.753 Y66.195 E0.01854
G1 X98.265 Y65.928 E0.01810
G1 X99.365 Y65.279 E0.04006
G1 X99.839 Y64.964 E0.01782
G1 X101.501 Y63.736 E0.06480
G1 X102.640 Y63.070 E0.04137
G1 X103.474 Y62.702 E0.02858
G1 X104.267 Y62.431 E0.02630
G1 X105.078 Y62.229 E0.02619
G1 X106.168 Y62.067 E0.03455
G1 X107.263 Y62.025 E0.03437
G1 X108.201 Y62.085 E0.02946
G1 X109.130 Y62.233 E0.02949
G1 X110.020 Y62.461 E0.02881
G1 X110.888 Y62.771 E0.02888
G1 X111.780 Y63.191 E0.03091
G1 X112.572 Y63.659 E0.02886
G1 X113.324 Y64.204 E0.02912
G1 X114.035 Y64.829 E0.02968
G1 X114.694 Y65.531 E0.03019
G1 X115.286 Y66.298 E0.03037
G1 X115.804 Y67.128 E0.03068
G1 X116.257 Y68.041 E0.03197
G1 X116.684 Y69.232 E0.03966
G1 X116.902 Y70.144 E0.02938
G1 X117.026 Y71.003 E0.02723
G1 X117.075 Y71.875 E0.02740
G1 X117.072 Y108.245 E1.14034
G1 X117.024 Y109.013 E0.02412
G1 X116.918 Y109.775 E0.02413
G1 X116.601 Y111.042 E0.04096
G1 X116.274 Y111.918 E0.02931
G1 X115.867 Y112.760 E0.02933
G1 X115.380 Y113.564 E0.02945
G1 X114.827 Y114.309 E0.02910
G1 X114.097 Y115.111 E0.03401
G1 X113.273 Y115.837 E0.03443
G1 X112.478 Y116.402 E0.03057
G1 X111.623 Y116.891 E0.03089
G1 X110.782 Y117.271 E0.02893
G1 X110.044 Y117.531 E0.02453
G1 X109.286 Y117.734 E0.02461
G1 X108.126 Y117.923 E0.03687
G1 X107.018 Y117.975 E0.03478
G1 X106.068 Y117.924 E0.02982
G1 X105.138 Y117.783 E0.02948
G1 X104.176 Y117.541 E0.03110
G1 X103.298 Y117.228 E0.02923
G1 X102.455 Y116.835 E0.02916
G1 X101.567 Y116.309 E0.03237
G1 X99.846 Y115.042 E0.06701
G1 X98.821 Y114.387 E0.03814
G1 X97.731 Y113.795 E0.03891
G1 X97.225 Y113.565 E0.01741
M204 S1250
G1 X96.345 Y113.188 F9000.000
M204 S800
G1 F1200.000
G1 X95.456 Y112.858 E0.02972
G1 X94.259 Y112.508 E0.03913
G1 X93.690 Y112.374 E0.01832
G1 X92.458 Y112.153 E0.03925
G1 X91.231 Y112.022 E0.03868
G1 X89.999 Y111.978 E0.03866
G1 X88.772 Y112.021 E0.03849
G1 X87.539 Y112.153 E0.03887
G1 X86.310 Y112.374 E0.03914
G1 X85.745 Y112.507 E0.01821
G1 X84.540 Y112.859 E0.03934
G1 X83.656 Y113.188 E0.02959
M204 S1250
G1 X82.777 Y113.565 F9000.000
M204 S800
G1 F1200.000
G1 X82.264 Y113.798 E0.01767
G1 X81.177 Y114.388 E0.03876
G1 X80.158 Y115.039 E0.03794
G1 X78.437 Y116.306 E0.06698
G1 X77.550 Y116.832 E0.03236
G1 X76.635 Y117.255 E0.03159
G1 X75.722 Y117.572 E0.03032
G1 X74.794 Y117.797 E0.02993
G1 X73.821 Y117.934 E0.03081
G1 X72.768 Y117.975 E0.03306
G1 X71.713 Y117.905 E0.03313
G1 X70.690 Y117.728 E0.03256
G1 X69.818 Y117.488 E0.02836
G1 X69.071 Y117.212 E0.02496
G1 X68.363 Y116.884 E0.02447
G1 X67.435 Y116.346 E0.03363
G1 X66.563 Y115.705 E0.03395
G1 X65.919 Y115.126 E0.02716
G1 X65.323 Y114.490 E0.02731
G1 X64.737 Y113.735 E0.02997
G1 X64.215 Y112.907 E0.03068
G1 X63.776 Y112.033 E0.03069
G1 X63.412 Y111.081 E0.03194
G1 X63.141 Y110.068 E0.03288
G1 X62.986 Y109.114 E0.03032
G1 X62.925 Y108.141 E0.03055
G1 X62.928 Y71.768 E1.14046
G1 X62.985 Y70.900 E0.02725
G1 X63.121 Y70.028 E0.02767
G1 X63.333 Y69.174 E0.02758
G1 X63.620 Y68.339 E0.02771
G1 X64.197 Y67.122 E0.04220
G1 X64.665 Y66.370 E0.02778
G1 X65.204 Y65.653 E0.02812
G1 X65.928 Y64.865 E0.03358
G1 X66.582 Y64.280 E0.02751
G1 X67.290 Y63.751 E0.02770
G1 X68.170 Y63.217 E0.03227
G1 X69.071 Y62.788 E0.03128
G1 X69.905 Y62.484 E0.02784
G1 X71.051 Y62.197 E0.03704
G1 X72.074 Y62.058 E0.03239
G1 X73.054 Y62.025 E0.03073
G1 X73.945 Y62.078 E0.02797
M204 S1250
M204 S800
G1 X74.837 Y62.212 E0.02830
G1 X75.729 Y62.430 E0.02878
G1 X76.598 Y62.730 E0.02881
G1 X77.447 Y63.114 E0.02923
G1 X78.435 Y63.692 E0.03588
G1 X80.154 Y64.958 E0.06695
G1 X81.197 Y65.625 E0.03881
G1 X81.697 Y65.908 E0.01803
G1 X82.779 Y66.447 E0.03790
M204 S1250
G1 X82.696 Y66.824 F9000.000
M204 S800
G1 F1200.000
G1 X83.827 Y67.290 E0.03836
G1 X85.030 Y67.688 E0.03971
G1 X86.244 Y67.997 E0.03928
G1 X87.486 Y68.220 E0.03956
G1 X88.752 Y68.356 E0.03994
G1 X89.343 Y68.387 E0.01856
G1 X90.461 Y68.393 E0.03504
G1 X91.146 Y68.362 E0.02151
G1 X91.895 Y68.298 E0.02357
G1 X93.119 Y68.123 E0.03876
G1 X94.370 Y67.852 E0.04011
G1 X95.576 Y67.500 E0.03940
G1 X96.760 Y67.060 E0.03961
G1 X97.296 Y66.816 E0.01848
M204 S1250
G1 X98.101 Y66.439 F9000.000
M204 S800
G1 F1200.000
G1 X98.448 Y66.258 E0.01228
G1 X99.565 Y65.599 E0.04069
G1 X100.055 Y65.273 E0.01844
G1 X101.700 Y64.056 E0.06414
G1 X102.821 Y63.401 E0.04071
G1 X103.603 Y63.056 E0.02681
G1 X104.367 Y62.795 E0.02531
G1 X105.143 Y62.600 E0.02507
G1 X106.213 Y62.441 E0.03393
G1 X107.249 Y62.402 E0.03250
M204 S1250
M204 S800
G1 X108.168 Y62.461 E0.02888
G1 X109.062 Y62.604 E0.02837
G1 X109.918 Y62.824 E0.02771
G1 X110.752 Y63.123 E0.02778
G1 X111.596 Y63.520 E0.02925
G1 X112.358 Y63.970 E0.02776
G1 X113.082 Y64.494 E0.02802
G1 X113.767 Y65.094 E0.02855
G1 X114.401 Y65.769 E0.02904
G1 X114.981 Y66.521 E0.02978
G1 X115.479 Y67.320 E0.02951
