; generated by PrusaSlicer 2.2.0+win64 on 2020-05-29 at 15:47:37 UTC

; 

; external perimeters extrusion width = 0.45mm
; perimeters extrusion width = 0.45mm
; infill extrusion width = 0.45mm
; solid infill extrusion width = 0.45mm
; top infill extrusion width = 0.40mm
; support material extrusion width = 0.35mm
; first layer extrusion width = 0.42mm

M73 P0 R59
M73 Q0 S59
M201 X1000 Y1000 Z1000 E5000 ; sets maximum accelerations, mm/sec^2
M203 X200 Y200 Z12 E120 ; sets maximum feedrates, mm/sec
M204 P1250 R1250 T1250 ; sets acceleration (P, T) and retract acceleration (R), mm/sec^2
M205 X8.00 Y8.00 Z0.40 E4.50 ; sets the jerk limits, mm/sec
M205 S0 T0 ; sets the minimum extruding and travel feed rate, mm/sec
M107
M862.3 P "MK3S" ; printer model check
M862.1 P0.4 ; nozzle diameter check
M115 U3.8.1 ; tell printer latest fw version
G90 ; use absolute coordinates
M83 ; extruder relative mode
M104 S250 ; set extruder temp
M140 S90 ; set bed temp
M190 S90 ; wait for bed temp
M109 S250 ; wait for extruder temp
G28 W ; home all without mesh bed level
G80 ; mesh bed leveling
G1 Y-3.0 F1000.0 ; go outside print area
G92 E0.0
G1 X60.0 E9.0 F1000.0 ; intro line
M73 Q0 S59
M73 P0 R59
G1 X100.0 E12.5 F1000.0 ; intro line
G92 E0.0
M221 S95
G21 ; set units to millimeters
G90 ; use absolute coordinates
M83 ; use relative distances for extrusion
M900 K30 ; Filament gcode
;BEFORE_LAYER_CHANGE
G92 E0.0
;0.2


G1 E-0.80000 F2100.00000
G1 Z0.600 F10800.000
;AFTER_LAYER_CHANGE
;0.2
G1 X118.082 Y87.625
G1 Z0.200
G1 E0.80000 F2100.00000
M204 S1000
G1 F720.000
G1 X132.348 Y87.618 E0.44729
G1 X133.309 Y86.816 E0.03924
G1 X135.127 Y85.916 E0.06361
G1 X137.528 Y85.346 E0.07737
G1 X139.773 Y85.310 E0.07040
G1 X149.081 Y85.310 E0.29186
G1 X152.556 Y86.215 E0.11260
G1 X154.567 Y87.485 E0.07456
G1 X156.242 Y89.231 E0.07586
G1 X157.432 Y91.306 E0.07500
G1 X158.084 Y93.584 E0.07430
G1 X158.184 Y108.876 E0.47947
G1 X157.336 Y112.182 E0.10703
G1 X156.227 Y113.991 E0.06651
G1 X154.765 Y115.525 E0.06644
G1 X152.535 Y116.931 E0.08266
G1 X150.076 Y117.647 E0.08031
G1 X149.469 Y117.698 E0.01911
G1 X148.533 Y118.352 E0.03580
G1 X146.714 Y119.242 E0.06349
G1 X144.864 Y119.809 E0.06067
G1 X142.926 Y120.089 E0.06138
G1 X141.477 Y120.100 E0.04544
G1 X140.050 Y119.949 E0.04499
G1 X138.319 Y119.539 E0.05578
G1 X138.092 Y119.455 E0.00759
G1 X135.599 Y120.076 E0.08056
G1 X126.568 Y120.069 E0.28316
G1 X125.302 Y119.852 E0.04027
G1 X123.985 Y120.073 E0.04188
G1 X120.868 Y120.076 E0.09773
G1 X120.422 Y120.059 E0.01400
G1 X120.176 Y120.076 E0.00773
G1 X115.491 Y120.076 E0.14689
G1 X115.146 Y120.050 E0.01086
G1 X114.338 Y120.058 E0.02531
G1 X112.080 Y119.634 E0.07206
G1 X111.748 Y119.504 E0.01117
G1 X110.550 Y119.836 E0.03897
G1 X109.020 Y120.066 E0.04854
G1 X107.342 Y120.101 E0.05260
G1 X105.588 Y119.901 E0.05536
G1 X103.894 Y119.463 E0.05486
G1 X102.483 Y118.892 E0.04774
G1 X101.393 Y118.308 E0.03875
G1 X100.457 Y117.674 E0.03545
G1 X99.748 Y117.604 E0.02233
G1 X97.204 Y116.741 E0.08423
G1 X95.247 Y115.432 E0.07385
G1 X93.638 Y113.687 E0.07440
G1 X92.516 Y111.652 E0.07286
G1 X91.909 Y109.409 E0.07287
G1 X91.816 Y94.170 E0.47782
G1 X92.327 Y91.743 E0.07777
G1 X93.562 Y89.383 E0.08351
G1 X95.373 Y87.438 E0.08333
G1 X98.258 Y85.832 E0.10353
G1 X100.627 Y85.340 E0.07585
G1 X101.531 Y85.339 E0.02835
G1 X101.918 Y85.310 E0.01217
G1 X112.460 Y85.314 E0.33055
G1 X114.480 Y85.647 E0.06418
G1 X117.330 Y86.993 E0.09883
G1 X118.036 Y87.587 E0.02893
G1 X117.792 Y87.874 F10800.000
G1 F720.000
G1 X117.943 Y88.003 E0.00622
G1 X132.486 Y87.995 E0.45600
G1 X133.497 Y87.144 E0.04143
G1 X135.275 Y86.263 E0.06221
G1 X137.554 Y85.723 E0.07345
G1 X139.774 Y85.687 E0.06961
G1 X149.057 Y85.687 E0.29106
G1 X152.380 Y86.549 E0.10765
G1 X154.311 Y87.764 E0.07152
G1 X155.927 Y89.440 E0.07299
G1 X157.075 Y91.432 E0.07212
G1 X157.714 Y93.663 E0.07276
G1 X157.807 Y108.854 E0.47630
G1 X156.999 Y112.010 E0.10215
G1 X155.940 Y113.745 E0.06374
G1 X154.509 Y115.248 E0.06506
G1 X152.357 Y116.597 E0.07962
G1 X149.991 Y117.279 E0.07723
G1 X149.337 Y117.330 E0.02056
G1 X148.353 Y118.020 E0.03769
G1 X146.589 Y118.885 E0.06162
G1 X144.767 Y119.444 E0.05973
G1 X142.886 Y119.714 E0.05960
G1 X141.486 Y119.722 E0.04390
G1 X140.102 Y119.576 E0.04362
G1 X138.419 Y119.175 E0.05424
G1 X138.116 Y119.060 E0.01017
G1 X135.576 Y119.699 E0.08212
G1 X126.585 Y119.692 E0.28191
G1 X125.303 Y119.469 E0.04079
G1 X123.968 Y119.696 E0.04244
G1 X120.871 Y119.699 E0.09711
G1 X120.415 Y119.682 E0.01430
G1 X120.169 Y119.699 E0.00775
G1 X115.498 Y119.699 E0.14645
G1 X115.158 Y119.673 E0.01069
G1 X114.354 Y119.681 E0.02523
G1 X112.170 Y119.267 E0.06969
G1 X111.772 Y119.106 E0.01346
G1 X110.483 Y119.465 E0.04195
G1 X108.975 Y119.691 E0.04780
G1 X107.372 Y119.725 E0.05029
G1 X105.669 Y119.533 E0.05373
G1 X104.024 Y119.108 E0.05328
G1 X102.652 Y118.554 E0.04639
G1 X101.580 Y117.980 E0.03812
G1 X100.588 Y117.307 E0.03760
G1 X99.847 Y117.239 E0.02333
G1 X97.392 Y116.413 E0.08120
G1 X95.508 Y115.159 E0.07098
G1 X93.957 Y113.485 E0.07155
G1 X92.857 Y111.490 E0.07141
G1 X92.280 Y109.335 E0.06998
G1 X92.193 Y94.188 E0.47492
G1 X92.690 Y91.847 E0.07504
G1 X93.884 Y89.581 E0.08028
G1 X95.627 Y87.717 E0.08004
G1 X98.415 Y86.176 E0.09987
G1 X100.646 Y85.717 E0.07141
G1 X101.546 Y85.716 E0.02822
G1 X101.925 Y85.687 E0.01193
G1 X112.445 Y85.691 E0.32983
G1 X114.392 Y86.014 E0.06189
G1 X117.145 Y87.323 E0.09558
G1 X117.746 Y87.835 E0.02476
G1 X117.802 Y88.380 F10800.000
G1 F720.000
G1 X132.625 Y88.372 E0.46478
G1 X133.685 Y87.471 E0.04362
G1 X135.423 Y86.611 E0.06080
G1 X137.581 Y86.100 E0.06953
G1 X139.776 Y86.064 E0.06883
G1 X149.033 Y86.064 E0.29027
G1 X152.204 Y86.884 E0.10270
G1 X154.091 Y88.071 E0.06987
G1 X155.638 Y89.684 E0.07009
G1 X156.737 Y91.600 E0.06924
G1 X157.344 Y93.741 E0.06981
G1 X157.430 Y108.832 E0.47317
G1 X156.663 Y111.838 E0.09726
G1 X155.629 Y113.532 E0.06221
G1 X154.253 Y114.970 E0.06241
G1 X152.181 Y116.263 E0.07659
G1 X149.907 Y116.911 E0.07413
G1 X149.206 Y116.960 E0.02203
G1 X148.173 Y117.688 E0.03962
G1 X146.464 Y118.529 E0.05974
G1 X144.671 Y119.079 E0.05879
G1 X142.845 Y119.339 E0.05781
G1 X141.494 Y119.345 E0.04236
G1 X140.154 Y119.202 E0.04226
G1 X138.520 Y118.812 E0.05269
G1 X138.140 Y118.665 E0.01276
G1 X135.552 Y119.322 E0.08371
G1 X126.601 Y119.315 E0.28065
G1 X125.304 Y119.086 E0.04132
G1 X123.952 Y119.319 E0.04300
G1 X120.875 Y119.322 E0.09648
G1 X120.409 Y119.304 E0.01461
G1 X120.162 Y119.322 E0.00777
G1 X115.506 Y119.322 E0.14599
G1 X115.171 Y119.296 E0.01052
G1 X114.369 Y119.304 E0.02516
G1 X112.261 Y118.901 E0.06729
G1 X111.798 Y118.707 E0.01575
G1 X110.415 Y119.093 E0.04500
G1 X108.931 Y119.316 E0.04705
G1 X107.401 Y119.349 E0.04799
G1 X105.750 Y119.164 E0.05210
G1 X104.153 Y118.754 E0.05170
G1 X102.821 Y118.217 E0.04504
G1 X101.767 Y117.653 E0.03748
G1 X100.717 Y116.939 E0.03979
G1 X99.944 Y116.874 E0.02434
G1 X97.580 Y116.085 E0.07814
G1 X95.736 Y114.858 E0.06947
G1 X94.250 Y113.247 E0.06871
G1 X93.199 Y111.330 E0.06854
G1 X92.650 Y109.261 E0.06709
G1 X92.570 Y94.207 E0.47204
G1 X93.054 Y91.952 E0.07230
G1 X94.205 Y89.781 E0.07705
G1 X95.881 Y87.997 E0.07675
G1 X98.571 Y86.520 E0.09621
G1 X100.665 Y86.094 E0.06699
G1 X101.561 Y86.093 E0.02810
G1 X101.933 Y86.064 E0.01169
G1 X112.429 Y86.068 E0.32910
G1 X114.303 Y86.382 E0.05959
G1 X116.959 Y87.651 E0.09230
G1 X117.756 Y88.341 E0.03304
G1 X117.659 Y88.757 F10800.000
G1 F720.000
G1 X132.765 Y88.749 E0.47364
G1 X133.874 Y87.799 E0.04579
G1 X135.571 Y86.958 E0.05938
G1 X137.607 Y86.476 E0.06561
G1 X139.777 Y86.441 E0.06805
G1 X149.010 Y86.441 E0.28948
G1 X152.029 Y87.219 E0.09778
G1 X153.836 Y88.349 E0.06680
G1 X155.323 Y89.892 E0.06718
G1 X156.398 Y91.767 E0.06776
G1 X156.974 Y93.819 E0.06683
G1 X157.052 Y108.810 E0.47005
G1 X156.326 Y111.666 E0.09238
G1 X155.318 Y113.317 E0.06067
G1 X153.998 Y114.691 E0.05974
G1 X152.005 Y115.929 E0.07355
G1 X149.825 Y116.543 E0.07101
G1 X149.076 Y116.590 E0.02353
G1 X147.993 Y117.357 E0.04160
G1 X146.338 Y118.174 E0.05786
G1 X144.603 Y118.708 E0.05694
G1 X142.830 Y118.962 E0.05614
G1 X141.524 Y118.969 E0.04096
G1 X140.207 Y118.828 E0.04154
G1 X138.621 Y118.448 E0.05113
G1 X138.165 Y118.269 E0.01536
G1 X135.528 Y118.945 E0.08533
G1 X129.170 Y118.945 E0.19937
G1 X128.693 Y118.926 E0.01496
G1 X128.428 Y118.946 E0.00834
G1 X126.620 Y118.938 E0.05668
G1 X125.304 Y118.703 E0.04190
G1 X123.935 Y118.942 E0.04358
G1 X120.878 Y118.945 E0.09585
G1 X120.402 Y118.927 E0.01493
G1 X120.155 Y118.945 E0.00778
G1 X115.513 Y118.945 E0.14553
G1 X115.184 Y118.919 E0.01035
G1 X114.384 Y118.927 E0.02509
G1 X112.353 Y118.535 E0.06485
G1 X111.796 Y118.295 E0.01903
G1 X111.537 Y118.396 E0.00871
G1 X110.327 Y118.727 E0.03932
G1 X108.888 Y118.942 E0.04564
G1 X107.430 Y118.973 E0.04570
G1 X105.830 Y118.796 E0.05047
G1 X104.282 Y118.399 E0.05011
G1 X102.989 Y117.880 E0.04368
G1 X101.969 Y117.334 E0.03629
G1 X101.049 Y116.718 E0.03470
G1 X100.876 Y116.573 E0.00709
G1 X100.040 Y116.509 E0.02629
G1 X97.767 Y115.757 E0.07506
G1 X95.996 Y114.584 E0.06658
G1 X94.569 Y113.044 E0.06585
G1 X93.558 Y111.210 E0.06565
G1 X93.021 Y109.188 E0.06561
G1 X92.948 Y94.226 E0.46914
M73 Q1 S58
M73 P1 R58
G1 X93.416 Y92.058 E0.06955
G1 X94.525 Y89.981 E0.07381
G1 X96.135 Y88.278 E0.07346
G1 X98.726 Y86.865 E0.09255
G1 X100.684 Y86.471 E0.06260
G1 X101.577 Y86.470 E0.02800
G1 X101.940 Y86.441 E0.01144
G1 X112.413 Y86.445 E0.32836
G1 X114.214 Y86.749 E0.05727
G1 X116.772 Y87.980 E0.08900
G1 X117.614 Y88.717 E0.03511
G1 X117.516 Y89.134 F10800.000
G1 F720.000
G1 X132.906 Y89.126 E0.48256
G1 X134.063 Y88.126 E0.04796
G1 X135.719 Y87.306 E0.05794
G1 X137.634 Y86.853 E0.06169
G1 X139.779 Y86.818 E0.06726
G1 X148.986 Y86.818 E0.28869
G1 X151.854 Y87.555 E0.09285
G1 X153.616 Y88.656 E0.06515
G1 X155.034 Y90.135 E0.06426
G1 X156.058 Y91.933 E0.06485
G1 X156.604 Y93.895 E0.06387
G1 X156.675 Y108.788 E0.46696
G1 X155.989 Y111.494 E0.08753
G1 X155.032 Y113.071 E0.05785
G1 X153.742 Y114.413 E0.05833
G1 X151.830 Y115.593 E0.07048
G1 X149.744 Y116.174 E0.06788
G1 X148.946 Y116.220 E0.02506
G1 X147.812 Y117.026 E0.04363
G1 X146.212 Y117.818 E0.05598
G1 X144.534 Y118.337 E0.05508
G1 X142.815 Y118.585 E0.05445
G1 X141.533 Y118.592 E0.04021
G1 X140.259 Y118.455 E0.04016
G1 X138.723 Y118.085 E0.04956
G1 X138.190 Y117.873 E0.01798
G1 X135.504 Y118.568 E0.08697
G1 X129.173 Y118.568 E0.19850
G1 X128.686 Y118.549 E0.01529
G1 X128.422 Y118.568 E0.00832
G1 X126.638 Y118.561 E0.05592
G1 X125.305 Y118.320 E0.04247
G1 X123.918 Y118.565 E0.04415
G1 X120.881 Y118.568 E0.09521
G1 X120.395 Y118.549 E0.01526
G1 X120.147 Y118.568 E0.00779
G1 X115.521 Y118.568 E0.14505
G1 X115.198 Y118.542 E0.01017
G1 X114.400 Y118.549 E0.02503
G1 X112.447 Y118.169 E0.06238
G1 X111.804 Y117.886 E0.02204
G1 X111.427 Y118.035 E0.01271
G1 X110.260 Y118.355 E0.03794
G1 X108.867 Y118.565 E0.04417
G1 X107.459 Y118.596 E0.04416
G1 X105.910 Y118.427 E0.04884
G1 X104.411 Y118.045 E0.04853
G1 X103.158 Y117.542 E0.04233
G1 X102.171 Y117.015 E0.03508
G1 X101.269 Y116.411 E0.03405
G1 X101.025 Y116.205 E0.01000
G1 X100.134 Y116.143 E0.02800
G1 X97.953 Y115.428 E0.07197
G1 X96.257 Y114.311 E0.06366
G1 X94.861 Y112.805 E0.06439
G1 X93.900 Y111.050 E0.06275
G1 X93.392 Y109.116 E0.06271
G1 X93.325 Y94.245 E0.46627
G1 X93.779 Y92.164 E0.06678
G1 X94.845 Y90.182 E0.07056
G1 X96.387 Y88.560 E0.07018
G1 X98.880 Y87.210 E0.08889
G1 X100.702 Y86.848 E0.05824
G1 X101.593 Y86.847 E0.02792
G1 X101.948 Y86.818 E0.01118
G1 X112.397 Y86.822 E0.32761
G1 X114.124 Y87.116 E0.05494
G1 X116.583 Y88.307 E0.08568
G1 X117.471 Y89.094 E0.03719
G1 X117.371 Y89.511 F10800.000
G1 F720.000
G1 X133.048 Y89.503 E0.49156
G1 X134.253 Y88.453 E0.05011
G1 X135.867 Y87.653 E0.05649
G1 X137.660 Y87.230 E0.05776
G1 X139.780 Y87.195 E0.06648
G1 X148.962 Y87.195 E0.28790
G1 X151.680 Y87.890 E0.08795
G1 X153.361 Y88.935 E0.06207
G1 X154.719 Y90.344 E0.06135
G1 X155.702 Y92.057 E0.06191
G1 X156.234 Y93.972 E0.06233
G1 X156.298 Y108.766 E0.46386
G1 X155.652 Y111.323 E0.08268
G1 X154.720 Y112.857 E0.05630
G1 X153.488 Y114.133 E0.05561
G1 X151.656 Y115.258 E0.06741
G1 X149.665 Y115.805 E0.06474
G1 X148.817 Y115.849 E0.02661
G1 X147.630 Y116.695 E0.04570
G1 X146.085 Y117.462 E0.05409
G1 X144.465 Y117.966 E0.05321
G1 X142.799 Y118.208 E0.05276
G1 X141.562 Y118.216 E0.03879
G1 X140.312 Y118.081 E0.03943
G1 X138.825 Y117.722 E0.04797
G1 X138.155 Y117.453 E0.02263
G1 X137.939 Y117.558 E0.00754
G1 X135.481 Y118.191 E0.07959
G1 X129.177 Y118.191 E0.19764
G1 X128.679 Y118.171 E0.01563
G1 X128.415 Y118.191 E0.00829
G1 X126.657 Y118.184 E0.05515
G1 X125.306 Y117.937 E0.04305
G1 X123.901 Y118.188 E0.04474
G1 X120.885 Y118.191 E0.09457
G1 X120.387 Y118.171 E0.01561
G1 X120.140 Y118.191 E0.00779
G1 X115.529 Y118.191 E0.14456
G1 X115.212 Y118.164 E0.00998
G1 X114.415 Y118.172 E0.02498
G1 X112.542 Y117.803 E0.05987
G1 X111.812 Y117.476 E0.02506
G1 X111.316 Y117.675 E0.01676
G1 X110.192 Y117.984 E0.03655
G1 X108.846 Y118.188 E0.04269
G1 X107.487 Y118.220 E0.04263
G1 X105.990 Y118.058 E0.04721
G1 X104.539 Y117.690 E0.04693
G1 X103.308 Y117.196 E0.04160
G1 X102.357 Y116.687 E0.03381
G1 X101.488 Y116.104 E0.03282
G1 X101.174 Y115.836 E0.01295
G1 X100.227 Y115.777 E0.02974
G1 X98.138 Y115.098 E0.06887
G1 X96.517 Y114.037 E0.06074
G1 X95.180 Y112.602 E0.06151
G1 X94.258 Y110.931 E0.05983
G1 X93.763 Y109.043 E0.06122
G1 X93.702 Y94.264 E0.46337
G1 X94.141 Y92.272 E0.06398
G1 X95.164 Y90.384 E0.06730
G1 X96.638 Y88.842 E0.06689
G1 X99.033 Y87.556 E0.08523
G1 X100.720 Y87.225 E0.05391
G1 X101.609 Y87.224 E0.02786
G1 X101.956 Y87.195 E0.01092
G1 X112.381 Y87.200 E0.32686
G1 X114.034 Y87.483 E0.05258
G1 X116.394 Y88.634 E0.08234
G1 X117.326 Y89.471 E0.03928
G1 X117.224 Y89.888 F10800.000
G1 F720.000
G1 X133.191 Y89.880 E0.50062
G1 X134.442 Y88.780 E0.05226
G1 X136.015 Y88.001 E0.05503
G1 X137.687 Y87.606 E0.05384
G1 X139.782 Y87.572 E0.06570
G1 X148.939 Y87.572 E0.28712
G1 X151.506 Y88.226 E0.08307
G1 X153.106 Y89.214 E0.05895
G1 X154.431 Y90.588 E0.05985
G1 X155.362 Y92.222 E0.05896
G1 X155.864 Y94.048 E0.05935
G1 X155.921 Y108.744 E0.46079
G1 X155.315 Y111.152 E0.07787
G1 X154.434 Y112.611 E0.05343
G1 X153.234 Y113.854 E0.05417
G1 X151.483 Y114.922 E0.06431
G1 X149.587 Y115.435 E0.06159
G1 X148.689 Y115.477 E0.02820
G1 X147.449 Y116.364 E0.04781
G1 X145.958 Y117.107 E0.05221
G1 X144.395 Y117.595 E0.05135
G1 X142.784 Y117.831 E0.05106
G1 X141.571 Y117.839 E0.03804
G1 X140.365 Y117.708 E0.03803
G1 X138.928 Y117.359 E0.04637
G1 X138.133 Y117.036 E0.02690
G1 X137.821 Y117.199 E0.01103
G1 X135.456 Y117.814 E0.07659
G1 X129.181 Y117.814 E0.19677
G1 X128.671 Y117.793 E0.01599
G1 X128.409 Y117.814 E0.00825
G1 X126.675 Y117.807 E0.05436
G1 X125.307 Y117.554 E0.04364
G1 X123.884 Y117.811 E0.04533
G1 X120.888 Y117.814 E0.09391
G1 X120.379 Y117.794 E0.01597
G1 X120.132 Y117.814 E0.00779
G1 X115.537 Y117.814 E0.14406
G1 X115.226 Y117.787 E0.00979
G1 X114.431 Y117.795 E0.02493
G1 X112.638 Y117.438 E0.05734
G1 X111.822 Y117.065 E0.02811
G1 X111.205 Y117.314 E0.02087
G1 X110.124 Y117.613 E0.03516
G1 X108.825 Y117.812 E0.04121
G1 X107.515 Y117.844 E0.04109
G1 X106.069 Y117.689 E0.04557
G1 X104.668 Y117.335 E0.04532
G1 X103.458 Y116.850 E0.04087
G1 X102.544 Y116.360 E0.03253
G1 X101.708 Y115.797 E0.03158
G1 X101.322 Y115.466 E0.01595
G1 X100.319 Y115.410 E0.03152
G1 X98.322 Y114.768 E0.06575
G1 X96.777 Y113.762 E0.05783
G1 X95.499 Y112.399 E0.05859
G1 X94.600 Y110.770 E0.05833
G1 X94.134 Y108.971 E0.05826
G1 X94.079 Y94.284 E0.46051
G1 X94.504 Y92.380 E0.06117
G1 X95.483 Y90.588 E0.06403
G1 X96.889 Y89.126 E0.06361
G1 X99.185 Y87.902 E0.08157
G1 X100.738 Y87.602 E0.04960
G1 X101.626 Y87.601 E0.02782
G1 X101.964 Y87.572 E0.01066
G1 X112.364 Y87.577 E0.32609
G1 X113.942 Y87.850 E0.05021
G1 X116.203 Y88.961 E0.07898
G1 X117.180 Y89.848 E0.04138
G1 X117.077 Y90.266 F10800.000
G1 F720.000
G1 X133.335 Y90.258 E0.50975
G1 X134.634 Y89.106 E0.05444
G1 X136.124 Y88.362 E0.05222
G1 X137.714 Y87.983 E0.05123
G1 X139.783 Y87.949 E0.06491
G1 X148.916 Y87.949 E0.28634
G1 X151.334 Y88.563 E0.07823
