; generated by PrusaSlicer 2.2.0+win64 on 2020-05-29 at 15:48:02 UTC


;
;

;
;
; 

; external perimeters extrusion width = 0.45mm
; perimeters extrusion width = 0.45mm
; infill extrusion width = 0.45mm
; solid infill extrusion width = 0.45mm
; top infill extrusion width = 0.40mm
; first layer extrusion width = 0.42mm

M73 P0 R44
M201 X1250 Y1250 Z400 E5000 ; sets maximum accelerations, mm/sec^2
M203 X180 Y180 Z12 E80 ; sets maximum feedrates, mm/sec
M204 P1250 R1250 T1250 ; sets acceleration (P, T) and retract acceleration (R), mm/sec^2
M205 X8.00 Y8.00 Z2.00 E10.00 ; sets the jerk limits, mm/sec
M205 S0 T0 ; sets the minimum extruding and travel feed rate, mm/sec
M107
G90 ; use absolute coordinates
M83 ; extruder relative mode
M104 S170 ; set extruder temp for bed leveling
M140 S90 ; set bed temp
M109 R170 ; wait for bed leveling temp
M190 S90 ; wait for bed temp
G28 ; home all without mesh bed level
G29 ; mesh bed leveling 
M104 S250 ; set extruder temp
G92 E0.0
G1 Y-2.0 X179 F2400
G1 Z3 F720
M109 S250 ; wait for extruder temp

; intro line
G1 X170 F1000
G1 Z0.2 F720
G1 X110.0 E8.0 F900
M73 P0 R44
G1 X40.0 E10.0 F700
G92 E0.0

M221 S95 ; set flow
G21 ; set units to millimeters
G90 ; use absolute coordinates
M83 ; use relative distances for extrusion
M900 K0.2 ; Filament gcode
;BEFORE_LAYER_CHANGE
G92 E0.0
;0.2


G1 Z0.200 F9000.000
;AFTER_LAYER_CHANGE
;0.2
G1 E-3.20000 F4200.00000
G1 Z0.400 F9000.000
G1 X102.295 Y103.606
G1 Z0.200
G1 E3.20000 F2400.00000
M204 S800
G1 F1200.000
G1 X102.629 Y102.942 E0.02333
G1 X103.132 Y102.388 E0.02345
G1 X103.766 Y101.990 E0.02345
G1 X104.479 Y101.778 E0.02333
G1 X145.104 Y101.746 E1.27378
G1 X145.912 Y101.868 E0.02562
G1 X146.648 Y102.222 E0.02562
G1 X147.248 Y102.777 E0.02562
G1 X147.659 Y103.483 E0.02562
G1 X147.853 Y104.438 E0.03056
G1 X147.854 Y107.557 E0.09781
G1 X147.772 Y108.466 E0.02859
G1 X147.568 Y109.292 E0.02669
G1 X147.219 Y110.127 E0.02836
G1 X146.752 Y110.887 E0.02798
G1 X146.157 Y111.580 E0.02862
G1 X145.477 Y112.159 E0.02801
G1 X144.707 Y112.630 E0.02830
G1 X143.873 Y112.974 E0.02831
G1 X142.990 Y113.185 E0.02844
G1 X142.115 Y113.254 E0.02752
G1 X107.335 Y113.225 E1.09052
G1 X106.234 Y113.007 E0.03518
G1 X105.385 Y112.674 E0.02860
G1 X104.562 Y112.187 E0.02998
G1 X103.892 Y111.628 E0.02735
G1 X103.263 Y110.907 E0.03001
G1 X102.783 Y110.132 E0.02858
G1 X102.429 Y109.282 E0.02887
G1 X102.215 Y108.391 E0.02874
G1 X102.146 Y107.547 E0.02654
G1 X102.146 Y104.455 E0.09695
G1 X102.285 Y103.665 E0.02513
M204 S1250
G1 X102.636 Y103.777 F9000.000
M204 S800
G1 F1200.000
G1 X102.924 Y103.178 E0.02083
G1 X103.364 Y102.685 E0.02071
G1 X103.923 Y102.333 E0.02071
G1 X104.557 Y102.148 E0.02071
G1 X145.104 Y102.123 E1.27131
G1 X145.831 Y102.238 E0.02308
G1 X146.485 Y102.568 E0.02296
G1 X147.009 Y103.084 E0.02308
G1 X147.350 Y103.732 E0.02296
G1 X147.476 Y104.419 E0.02190
G1 X147.477 Y107.500 E0.09660
G1 X147.346 Y108.676 E0.03709
G1 X147.085 Y109.515 E0.02756
G1 X146.742 Y110.212 E0.02435
G1 X145.847 Y111.356 E0.04554
G1 X145.247 Y111.860 E0.02458
G1 X144.525 Y112.299 E0.02650
G1 X143.749 Y112.618 E0.02628
G1 X142.910 Y112.816 E0.02703
G1 X142.115 Y112.877 E0.02499
G1 X107.398 Y112.853 E1.08856
G1 X106.559 Y112.706 E0.02670
G1 X105.550 Y112.335 E0.03369
G1 X104.778 Y111.878 E0.02813
G1 X104.153 Y111.355 E0.02556
G1 X103.565 Y110.681 E0.02804
G1 X103.115 Y109.953 E0.02683
G1 X102.786 Y109.162 E0.02685
G1 X102.585 Y108.314 E0.02734
G1 X102.523 Y104.473 E0.12044
G1 X102.626 Y103.836 E0.02025
M204 S1250
G1 E-2.24000 F4200.00000
G1 F7200.000
G1 X102.924 Y103.178 E-0.40017
G1 X103.364 Y102.685 E-0.36610
G1 X103.587 Y102.545 E-0.14574
G1 E-0.04800 F4200.00000
G1 Z0.400 F9000.000
G1 X109.017 Y105.287
G1 Z0.200
G1 E3.20000 F2400.00000
M204 S800
G1 F1200.000
G1 X116.272 Y105.287 E0.22747
G1 X115.574 Y105.548 E0.02337
G1 X114.362 Y106.076 E0.04145
G1 X113.173 Y106.671 E0.04168
G1 X112.017 Y107.328 E0.04168
G1 X110.904 Y108.041 E0.04145
G1 X110.116 Y108.605 E0.03038
G1 X110.245 Y108.340 E0.00924
G1 X110.369 Y107.826 E0.01660
G1 X110.382 Y107.296 E0.01660
G1 X110.283 Y106.777 E0.01657
G1 X110.091 Y106.319 E0.01557
G1 X109.926 Y106.054 E0.00980
G1 X109.586 Y105.667 E0.01616
G1 X109.160 Y105.352 E0.01660
G1 X109.072 Y105.312 E0.00304
M204 S1250
G1 X108.968 Y105.679 F9000.000
M204 S800
G1 F1200.000
G1 X109.329 Y105.946 E0.01407
G1 X109.622 Y106.279 E0.01391
G1 X109.755 Y106.493 E0.00789
G1 X109.920 Y106.887 E0.01339
G1 X110.004 Y107.327 E0.01406
G1 X109.993 Y107.776 E0.01407
G1 X109.888 Y108.212 E0.01407
G1 X109.694 Y108.612 E0.01392
G1 X109.549 Y108.817 E0.00789
G1 X109.251 Y109.123 E0.01339
G1 X108.877 Y109.372 E0.01406
G1 X108.460 Y109.536 E0.01407
G1 X108.017 Y109.608 E0.01407
G1 X107.568 Y109.585 E0.01407
G1 X107.135 Y109.468 E0.01407
G1 X106.741 Y109.264 E0.01392
G1 X106.539 Y109.113 E0.00789
G1 X106.242 Y108.807 E0.01339
G1 X106.003 Y108.427 E0.01406
G1 X105.850 Y108.005 E0.01407
G1 X105.790 Y107.561 E0.01407
G1 X105.824 Y107.118 E0.01392
G1 X105.885 Y106.874 E0.00789
G1 X106.051 Y106.480 E0.01339
G1 X106.308 Y106.113 E0.01406
G1 X106.637 Y105.808 E0.01407
G1 X107.024 Y105.579 E0.01407
G1 X107.445 Y105.439 E0.01392
G1 X107.693 Y105.400 E0.00789
G1 X108.120 Y105.400 E0.01339
G1 X108.559 Y105.494 E0.01406
G1 X108.913 Y105.654 E0.01219
M204 S1250
G1 X109.316 Y105.481 F9000.000
G1 E-2.24000 F4200.00000
G1 F7200.000
G1 X109.329 Y105.946 E-0.28132
G1 X109.622 Y106.279 E-0.24594
G1 X109.755 Y106.493 E-0.13947
G1 X109.920 Y106.887 E-0.23669
G1 X109.923 Y106.902 E-0.00858
G1 E-0.04800 F4200.00000
G1 Z0.400 F9000.000
G1 X106.777 Y105.287
G1 Z0.200
G1 E3.20000 F2400.00000
M204 S800
G1 F1200.000
G1 X106.411 Y105.504 E0.01334
G1 X106.022 Y105.864 E0.01660
G1 X105.719 Y106.297 E0.01657
G1 X105.687 Y106.373 E0.00260
G1 X105.687 Y105.287 E0.03406
G1 X106.717 Y105.287 E0.03229
M204 S1250
G1 X105.310 Y104.910 F9000.000
M204 S800
G1 F1200.000
G1 X117.433 Y104.910 E0.38010
G1 X117.434 Y105.277 E0.01151
G1 X116.942 Y105.439 E0.01624
G1 X115.715 Y105.898 E0.04105
G1 X114.522 Y106.418 E0.04083
G1 X113.351 Y107.004 E0.04106
G1 X112.212 Y107.651 E0.04106
G1 X111.115 Y108.353 E0.04083
G1 X110.051 Y109.116 E0.04105
G1 X109.373 Y109.638 E0.02683
G1 X109.214 Y109.739 E0.00591
G1 X108.861 Y109.909 E0.01230
G1 X108.490 Y110.024 E0.01217
G1 X108.103 Y110.082 E0.01226
G1 X107.913 Y110.090 E0.00596
G1 X107.491 Y110.057 E0.01330
G1 X107.300 Y110.019 E0.00611
G1 X106.909 Y109.892 E0.01287
G1 X106.547 Y109.708 E0.01274
G1 X106.218 Y109.469 E0.01274
G1 X105.929 Y109.179 E0.01284
G1 X105.808 Y109.026 E0.00612
G1 X105.593 Y108.675 E0.01289
G1 X105.436 Y108.297 E0.01286
G1 X105.383 Y108.109 E0.00612
G1 X105.318 Y107.699 E0.01301
G1 X105.310 Y104.970 E0.08557
M204 S1250
G1 X105.658 Y105.107 F9000.000
G1 E-2.24000 F4200.00000
G1 F7200.000
G1 X106.956 Y104.962 E-0.91200
G1 E-0.04800 F4200.00000
G1 Z0.400 F9000.000
G1 X105.641 Y106.556
G1 Z0.200
G1 E3.20000 F2400.00000
M204 S800
G1 F1200.000
G1 X105.586 Y106.930 E0.00675
M204 S1250
M204 S800
G1 X105.569 Y107.071 E0.00207
M204 S1250
M204 S800
G1 X105.552 Y107.487 E0.00488
M204 S1250
M204 S800
G1 X105.551 Y107.562 E0.00067
M204 S1250
M204 S800
G1 X105.616 Y108.058 E0.00410
G1 X105.667 Y108.217 E0.00137
G1 X105.807 Y108.566 E0.00309
G1 X106.051 Y108.950 E0.00373
G1 X106.385 Y109.295 E0.00394
G1 X106.674 Y109.501 E0.00291
G1 X107.054 Y109.691 E0.00349
G1 X107.523 Y109.820 E0.00399
G1 X107.918 Y109.846 E0.00325
G1 X108.081 Y109.842 E0.00133
G1 X108.518 Y109.767 E0.00364
G1 X108.770 Y109.679 E0.00219
G1 X109.094 Y109.523 E0.00295
G1 X109.401 Y109.312 E0.00305
G1 X109.765 Y108.988 E0.00400
M204 S1250
M204 S800
G1 X109.997 Y108.752 E0.00606
M204 S1250
G1 X110.823 Y107.960 F9000.000
M204 S800
G1 F1200.000
G1 X110.653 Y107.790 E0.00793
G1 X110.658 Y107.233 E0.01841
G1 X111.042 Y107.617 E0.01793
G1 X111.384 Y107.397 E0.01345
G1 X110.463 Y106.476 E0.04303
G1 X110.343 Y106.189 E0.01030
G1 X110.154 Y105.885 E0.01184
G1 X109.877 Y105.570 E0.01385
G1 X110.119 Y105.570 E0.00800
G1 X111.727 Y107.178 E0.07515
G1 X112.079 Y106.967 E0.01354
G1 X110.681 Y105.570 E0.06532
G1 X111.243 Y105.570 E0.01858
G1 X112.437 Y106.764 E0.05580
G1 X112.796 Y106.560 E0.01362
G1 X111.805 Y105.570 E0.04628
G1 X112.367 Y105.570 E0.01858
G1 X113.159 Y106.362 E0.03701
G1 X113.534 Y106.174 E0.01384
G1 X112.929 Y105.570 E0.02825
G1 X113.492 Y105.570 E0.01858
G1 X113.909 Y105.987 E0.01949
G1 X114.285 Y105.801 E0.01387
G1 X114.054 Y105.570 E0.01082
G1 X114.616 Y105.570 E0.01858
G1 X114.806 Y105.760 E0.00887
M204 S1250
G1 E-2.24000 F4200.00000
G1 F7200.000
G1 X114.616 Y105.570 E-0.14881
G1 X114.054 Y105.570 E-0.31148
G1 X114.285 Y105.801 E-0.18146
G1 X113.909 Y105.987 E-0.23262
G1 X113.861 Y105.939 E-0.03763
G1 E-0.04800 F4200.00000
G1 Z0.400 F9000.000
G1 X116.457 Y105.253
G1 Z0.200
G1 E3.20000 F2400.00000
M204 S800
G1 F1200.000
G1 X116.850 Y105.182 E0.00714
M204 S1250
M204 S800
G1 X117.241 Y105.120 E0.00294
M204 S1250
G1 E-2.24000 F4200.00000
G1 F7200.000
G1 X116.850 Y105.182 E-0.21965
G1 E-0.74035 F4200.00000
G1 Z0.400 F9000.000
G1 X108.833 Y105.247
G1 Z0.200
G1 E3.20000 F2400.00000
M204 S800
G1 F1200.000
G1 X108.665 Y105.211 E0.00351
M204 S1250
M204 S800
G1 X108.641 Y105.207 E0.00045
M204 S1250
M204 S800
G1 X108.478 Y105.190 E0.00297
M204 S1250
M204 S800
G1 X108.315 Y105.173 E0.00250
M204 S1250
M204 S800
G1 X108.153 Y105.156 E0.00203
M204 S1250
M204 S800
G1 X107.670 Y105.155 E0.00459
G1 X107.168 Y105.212 E0.00481
M204 S1250
M204 S800
G1 X106.961 Y105.246 E0.00442
M204 S1250
G1 E-2.24000 F4200.00000
G1 F7200.000
G1 X107.168 Y105.212 E-0.11609
G1 E-0.84391 F4200.00000
G1 Z0.400 F9000.000
G1 X133.728 Y105.287
G1 Z0.200
G1 E3.20000 F2400.00000
M204 S800
G1 F1200.000
G1 X140.970 Y105.287 E0.22706
G1 X140.570 Y105.535 E0.01475
G1 X140.189 Y105.903 E0.01660
G1 X139.903 Y106.331 E0.01614
G1 X139.773 Y106.617 E0.00985
G1 X139.640 Y107.114 E0.01614
G1 X139.614 Y107.641 E0.01656
G1 X139.695 Y108.147 E0.01604
G1 X139.868 Y108.594 E0.01505
G1 X139.097 Y108.041 E0.02976
G1 X137.980 Y107.326 E0.04158
G1 X136.818 Y106.666 E0.04191
G1 X135.631 Y106.073 E0.04158
G1 X134.410 Y105.542 E0.04175
G1 X133.784 Y105.308 E0.02096
M204 S1250
G1 E-2.24000 F4200.00000
G1 F7200.000
G1 X135.430 Y105.303 E-0.91200
G1 E-0.04800 F4200.00000
G1 Z0.400 F9000.000
G1 X140.014 Y107.173
G1 Z0.200
G1 E3.20000 F2400.00000
M204 S800
G1 F1200.000
G1 X140.129 Y106.744 E0.01391
G1 X140.234 Y106.515 E0.00791
G1 X140.480 Y106.146 E0.01391
G1 X140.803 Y105.834 E0.01407
G1 X141.184 Y105.598 E0.01406
G1 X141.591 Y105.451 E0.01356
G1 X142.035 Y105.390 E0.01406
G1 X142.483 Y105.424 E0.01407
G1 X142.913 Y105.552 E0.01407
G1 X143.302 Y105.765 E0.01391
G1 X143.500 Y105.921 E0.00791
G1 X143.800 Y106.248 E0.01391
G1 X144.026 Y106.635 E0.01406
G1 X144.162 Y107.046 E0.01356
G1 X144.211 Y107.486 E0.01389
G1 X144.197 Y107.738 E0.00791
G1 X144.102 Y108.171 E0.01390
G1 X143.923 Y108.565 E0.01356
G1 X143.660 Y108.921 E0.01389
G1 X143.479 Y109.097 E0.00791
G1 X143.115 Y109.351 E0.01391
G1 X142.701 Y109.524 E0.01407
G1 X142.260 Y109.605 E0.01406
G1 X141.828 Y109.593 E0.01356
G1 X141.392 Y109.489 E0.01406
G1 X140.992 Y109.297 E0.01391
G1 X140.786 Y109.152 E0.00791
G1 X140.469 Y108.841 E0.01391
G1 X140.223 Y108.466 E0.01407
G1 X140.061 Y108.048 E0.01406
G1 X139.992 Y107.621 E0.01356
G1 X140.011 Y107.233 E0.01218
M204 S1250
G1 X139.703 Y106.921 F9000.000
G1 E-2.24000 F4200.00000
G1 F7200.000
G1 X140.129 Y106.744 E-0.27842
G1 X140.234 Y106.515 E-0.13978
G1 X140.480 Y106.146 E-0.24582
G1 X140.802 Y105.835 E-0.24798
G1 E-0.04800 F4200.00000
G1 Z0.400 F9000.000
G1 X143.215 Y105.287
G1 Z0.200
G1 E3.20000 F2400.00000
M204 S800
G1 F1200.000
G1 X144.313 Y105.287 E0.03444
G1 X144.313 Y106.379 E0.03424
G1 X144.105 Y106.023 E0.01292
G1 X143.757 Y105.643 E0.01614
G1 X143.510 Y105.449 E0.00985
G1 X143.267 Y105.316 E0.00869
M204 S1250
G1 X144.690 Y104.910 F9000.000
M204 S800
G1 F1200.000
G1 X144.690 Y107.488 E0.08083
G1 X144.657 Y107.909 E0.01325
G1 X144.619 Y108.101 E0.00612
G1 X144.491 Y108.495 E0.01301
G1 X144.409 Y108.672 E0.00610
G1 X144.194 Y109.023 E0.01290
G1 X143.928 Y109.334 E0.01284
G1 X143.784 Y109.467 E0.00616
G1 X143.450 Y109.710 E0.01296
G1 X143.279 Y109.805 E0.00612
G1 X142.896 Y109.964 E0.01300
G1 X142.709 Y110.017 E0.00612
G1 X142.299 Y110.082 E0.01300
G1 X142.096 Y110.090 E0.00637
G1 X141.897 Y110.082 E0.00625
G1 X141.510 Y110.024 E0.01226
G1 X141.139 Y109.909 E0.01217
G1 X140.786 Y109.739 E0.01230
G1 X140.627 Y109.638 E0.00591
G1 X139.949 Y109.116 E0.02681
G1 X138.885 Y108.353 E0.04106
G1 X137.785 Y107.649 E0.04095
G1 X136.640 Y106.999 E0.04129
G1 X135.472 Y106.415 E0.04095
G1 X134.269 Y105.892 E0.04112
G1 X133.043 Y105.434 E0.04105
G1 X132.554 Y105.273 E0.01612
G1 X132.556 Y104.910 E0.01139
G1 X144.630 Y104.910 E0.37859
M204 S1250
G1 X144.493 Y105.258 F9000.000
G1 E-2.24000 F4200.00000
G1 F7200.000
G1 X144.668 Y106.555 E-0.91200
G1 E-0.04800 F4200.00000
G1 Z0.400 F9000.000
G1 X143.032 Y105.241
G1 Z0.200
G1 E3.20000 F2400.00000
M204 S800
G1 F1200.000
G1 X142.867 Y105.217 E0.00345
M204 S1250
M204 S800
G1 X142.702 Y105.193 E0.00296
M204 S1250
M204 S800
G1 X142.537 Y105.169 E0.00246
M204 S1250
M204 S800
G1 X142.033 Y105.150 E0.00595
M204 S1250
M204 S800
G1 X141.516 Y105.185 E0.00441
M204 S1250
M204 S800
G1 X141.155 Y105.249 E0.00655
M204 S1250
G1 X140.299 Y105.476 F9000.000
M204 S800
G1 F1200.000
G1 X140.180 Y105.619 E0.00115
M204 S1250
G1 X139.972 Y106.024 F9000.000
M204 S800
G1 F1200.000
G1 X139.517 Y105.570 E0.02142
G1 X138.950 Y105.570 E0.01888
G1 X139.629 Y106.249 E0.03200
G1 X139.506 Y106.521 E0.00995
G1 X139.470 Y106.656 E0.00466
G1 X138.384 Y105.570 E0.05118
G1 X137.817 Y105.570 E0.01888
G1 X139.357 Y107.110 E0.07256
G1 X139.330 Y107.650 E0.01802
G1 X137.250 Y105.570 E0.09802
G1 X136.683 Y105.570 E0.01888
G1 X138.324 Y107.211 E0.07731
G1 X136.980 Y106.433 E0.05175
G1 X136.117 Y105.570 E0.04067
G1 X135.550 Y105.570 E0.01888
G1 X136.222 Y106.242 E0.03168
M204 S1250
G1 E-2.24000 F4200.00000
G1 F7200.000
G1 X135.550 Y105.570 E-0.52684
G1 X136.117 Y105.570 E-0.31406
G1 X136.207 Y105.661 E-0.07109
G1 E-0.04800 F4200.00000
G1 Z0.400 F9000.000
G1 X133.543 Y105.254
G1 Z0.200
G1 E3.20000 F2400.00000
M204 S800
G1 F1200.000
G1 X133.406 Y105.229 E0.00303
M204 S1250
M204 S800
G1 X133.270 Y105.204 E0.00265
M204 S1250
M204 S800
G1 X133.133 Y105.180 E0.00226
M204 S1250
M204 S800
G1 X133.006 Y105.159 E0.00173
M204 S1250
M204 S800
G1 X132.883 Y105.140 E0.00129
M204 S1250
M204 S800
G1 X132.759 Y105.120 E0.00091
M204 S1250
G1 E-2.24000 F4200.00000
G1 F7200.000
G1 X132.883 Y105.140 E-0.06942
G1 E-0.89058 F4200.00000
G1 Z0.400 F9000.000
G1 X139.995 Y108.734
G1 Z0.200
G1 E3.20000 F2400.00000
M204 S800
G1 F1200.000
G1 X140.253 Y109.007 E0.00614
M204 S1250
M204 S800
G1 X140.628 Y109.334 E0.00393
G1 X140.866 Y109.503 E0.00230
G1 X141.317 Y109.715 E0.00393
G1 X141.792 Y109.828 E0.00385
G1 X142.096 Y109.845 E0.00240
G1 X142.284 Y109.843 E0.00149
G1 X142.774 Y109.751 E0.00393
G1 X143.174 Y109.588 E0.00340
G1 X143.318 Y109.505 E0.00131
G1 X143.632 Y109.282 E0.00304
G1 X143.841 Y109.074 E0.00233
G1 X144.124 Y108.688 E0.00377
G1 X144.263 Y108.406 E0.00248
G1 X144.382 Y108.039 E0.00304
G1 X144.432 Y107.766 E0.00219
M204 S1250
M204 S800
G1 X144.450 Y107.475 E0.00248
M204 S1250
M204 S800
G1 X144.437 Y107.236 E0.00256
M204 S1250
M204 S800
G1 X144.422 Y106.980 E0.00338
M204 S1250
M204 S800
G1 X144.389 Y106.772 E0.00362
M204 S1250
M204 S800
G1 X144.355 Y106.563 E0.00444
M204 S1250
M106 S255
;BEFORE_LAYER_CHANGE
G92 E0.0
;0.4


G1 Z0.400 F9000.000
;AFTER_LAYER_CHANGE
;0.4
G1 E-3.20000 F4200.00000
G1 Z0.600 F9000.000
G1 X147.659 Y103.483
G1 Z0.400
G1 E3.20000 F2400.00000
G1 F1490
G1 X147.853 Y104.438 E0.03056
G1 X147.854 Y107.557 E0.09781
G1 X147.772 Y108.466 E0.02859
G1 X147.568 Y109.292 E0.02669
G1 X147.219 Y110.127 E0.02836
G1 X146.752 Y110.887 E0.02798
G1 X146.157 Y111.580 E0.02862
G1 X145.477 Y112.159 E0.02801
G1 X144.707 Y112.630 E0.02830
G1 X143.873 Y112.974 E0.02831
G1 X142.990 Y113.185 E0.02844
G1 X142.115 Y113.254 E0.02752
G1 X107.335 Y113.225 E1.09052
G1 X106.234 Y113.007 E0.03518
