; generated by PrusaSlicer 2.2.0+win64 on 2020-05-29 at 09:29:27 UTC


;
;

;
;
; 

; external perimeters extrusion width = 0.45mm
; perimeters extrusion width = 0.45mm
; infill extrusion width = 0.45mm
; solid infill extrusion width = 0.45mm
; top infill extrusion width = 0.40mm
; first layer extrusion width = 0.42mm

M73 P0 R68
M201 X1250 Y1250 Z400 E5000 ; sets maximum accelerations, mm/sec^2
M203 X180 Y180 Z12 E80 ; sets maximum feedrates, mm/sec
M204 P1250 R1250 T1250 ; sets acceleration (P, T) and retract acceleration (R), mm/sec^2
M205 X8.00 Y8.00 Z2.00 E10.00 ; sets the jerk limits, mm/sec
M205 S0 T0 ; sets the minimum extruding and travel feed rate, mm/sec
M107
G90 ; use absolute coordinates
M83 ; extruder relative mode
M104 S170 ; set extruder temp for bed leveling
M140 S70 ; set bed temp
M109 R170 ; wait for bed leveling temp
M190 S70 ; wait for bed temp
G28 ; home all without mesh bed level
G29 ; mesh bed leveling 
M104 S240 ; set extruder temp
G92 E0.0
G1 Y-2.0 X179 F2400
G1 Z3 F720
M109 S240 ; wait for extruder temp

; intro line
G1 X170 F1000
G1 Z0.2 F720
G1 X110.0 E8.0 F900
M73 P0 R67
G1 X40.0 E10.0 F700
G92 E0.0

M221 S95 ; set flow
G21 ; set units to millimeters
G90 ; use absolute coordinates
M83 ; use relative distances for extrusion
M900 K0.2 ; Filament gcode
;BEFORE_LAYER_CHANGE
G92 E0.0
;0.2


G1 Z0.200 F9000.000
;AFTER_LAYER_CHANGE
;0.2
G1 E-3.20000 F4200.00000
G1 Z0.400 F9000.000
G1 X80.977 Y80.987
G1 Z0.200
G1 E3.20000 F2400.00000
M204 S800
G1 F1200.000
G1 X81.889 Y80.157 E0.03867
G1 X82.936 Y79.381 E0.04086
G1 X84.045 Y78.722 E0.04046
G1 X85.231 Y78.171 E0.04100
G1 X86.462 Y77.746 E0.04085
G1 X87.727 Y77.450 E0.04073
G1 X89.008 Y77.284 E0.04049
G1 X90.235 Y77.249 E0.03849
G1 X92.340 Y77.463 E0.06634
G1 X93.549 Y77.750 E0.03897
G1 X94.833 Y78.198 E0.04264
G1 X95.949 Y78.718 E0.03861
G1 X97.072 Y79.386 E0.04095
G1 X98.112 Y80.158 E0.04062
G1 X99.081 Y81.045 E0.04119
G1 X99.942 Y82.011 E0.04057
G1 X100.700 Y83.059 E0.04055
G1 X101.347 Y84.177 E0.04053
G1 X101.861 Y85.312 E0.03903
G1 X102.291 Y86.594 E0.04242
G1 X102.555 Y87.764 E0.03761
G1 X102.753 Y89.939 E0.06847
G1 X102.700 Y91.168 E0.03856
G1 X102.516 Y92.452 E0.04068
G1 X102.206 Y93.698 E0.04026
G1 X101.767 Y94.919 E0.04068
G1 X101.207 Y96.089 E0.04069
G1 X100.528 Y97.199 E0.04078
G1 X99.743 Y98.230 E0.04064
G1 X98.887 Y99.147 E0.03932
G1 X97.884 Y100.026 E0.04182
G1 X96.867 Y100.747 E0.03907
G1 X94.977 Y101.742 E0.06698
G1 X93.832 Y102.165 E0.03829
G1 X92.564 Y102.494 E0.04105
G1 X91.295 Y102.688 E0.04027
G1 X89.961 Y102.754 E0.04186
G1 X88.696 Y102.687 E0.03974
G1 X87.416 Y102.490 E0.04060
G1 X86.160 Y102.162 E0.04071
G1 X84.941 Y101.708 E0.04077
G1 X83.767 Y101.127 E0.04109
G1 X82.668 Y100.436 E0.04070
G1 X81.647 Y99.638 E0.04064
G1 X80.755 Y98.786 E0.03866
G1 X79.873 Y97.753 E0.04261
G1 X79.174 Y96.741 E0.03855
G1 X78.198 Y94.834 E0.06717
G1 X77.785 Y93.669 E0.03876
G1 X77.479 Y92.427 E0.04011
G1 X77.298 Y91.148 E0.04051
G1 X77.247 Y89.839 E0.04107
G1 X77.329 Y88.546 E0.04062
G1 X77.542 Y87.269 E0.04059
G1 X77.885 Y86.014 E0.04080
G1 X78.323 Y84.872 E0.03834
G1 X79.341 Y82.997 E0.06691
G1 X80.078 Y81.986 E0.03920
G1 X80.936 Y81.032 E0.04025
M204 S1250
G1 X81.216 Y81.283 F9000.000
M204 S800
G1 F1200.000
G1 X82.127 Y80.450 E0.03872
G1 X83.144 Y79.695 E0.03968
G1 X84.218 Y79.057 E0.03919
G1 X85.370 Y78.521 E0.03983
G1 X86.566 Y78.109 E0.03967
G1 X87.791 Y77.822 E0.03944
G1 X89.038 Y77.660 E0.03940
G1 X90.234 Y77.626 E0.03753
G1 X92.272 Y77.834 E0.06424
G1 X93.440 Y78.111 E0.03763
G1 X94.684 Y78.544 E0.04128
G1 X95.770 Y79.050 E0.03758
G1 X96.862 Y79.700 E0.03985
G1 X97.879 Y80.455 E0.03970
G1 X98.807 Y81.303 E0.03943
G1 X99.648 Y82.247 E0.03963
G1 X100.382 Y83.262 E0.03929
G1 X101.014 Y84.353 E0.03951
G1 X101.511 Y85.453 E0.03784
G1 X101.927 Y86.695 E0.04107
G1 X102.185 Y87.836 E0.03669
G1 X102.376 Y89.939 E0.06621
G1 X102.326 Y91.122 E0.03710
G1 X102.148 Y92.371 E0.03958
G1 X101.847 Y93.583 E0.03915
G1 X101.415 Y94.784 E0.04001
G1 X100.875 Y95.911 E0.03918
G1 X100.216 Y96.987 E0.03955
G1 X99.452 Y97.991 E0.03957
G1 X98.623 Y98.879 E0.03809
G1 X97.647 Y99.732 E0.04065
G1 X96.659 Y100.433 E0.03797
G1 X94.834 Y101.393 E0.06464
G1 X93.722 Y101.804 E0.03717
G1 X92.489 Y102.124 E0.03994
G1 X91.255 Y102.313 E0.03915
G1 X89.968 Y102.377 E0.04041
G1 X88.736 Y102.312 E0.03866
G1 X87.493 Y102.120 E0.03945
G1 X86.273 Y101.802 E0.03953
G1 X85.090 Y101.361 E0.03960
G1 X83.950 Y100.797 E0.03988
G1 X82.883 Y100.126 E0.03952
G1 X81.892 Y99.351 E0.03943
G1 X81.024 Y98.521 E0.03767
G1 X80.172 Y97.523 E0.04116
G1 X79.490 Y96.536 E0.03759
G1 X78.549 Y94.695 E0.06483
G1 X78.148 Y93.566 E0.03756
G1 X77.850 Y92.357 E0.03906
G1 X77.673 Y91.114 E0.03937
G1 X77.624 Y89.849 E0.03969
G1 X77.704 Y88.587 E0.03964
G1 X77.911 Y87.347 E0.03941
G1 X78.248 Y86.116 E0.04003
G1 X78.671 Y85.018 E0.03690
G1 X79.653 Y83.210 E0.06452
G1 X80.367 Y82.229 E0.03804
G1 X81.176 Y81.328 E0.03798
M204 S1250
G1 E-2.24000 F4200.00000
G1 F7200.000
G1 X82.127 Y80.450 E-0.71741
G1 X82.409 Y80.240 E-0.19459
G1 E-0.04800 F4200.00000
G1 Z0.400 F9000.000
G1 X77.299 Y77.636
G1 Z0.200
G1 E3.20000 F2400.00000
M204 S800
G1 F1200.000
G1 X78.126 Y76.834 E0.03613
G1 X78.814 Y76.244 E0.02840
G1 X79.525 Y75.695 E0.02820
G1 X80.257 Y75.187 E0.02794
G1 X81.016 Y74.714 E0.02803
G1 X81.802 Y74.279 E0.02815
G1 X82.610 Y73.884 E0.02821
G1 X83.431 Y73.532 E0.02801
G1 X84.273 Y73.220 E0.02816
G1 X85.131 Y72.952 E0.02819
G1 X85.996 Y72.728 E0.02800
G1 X86.874 Y72.548 E0.02810
G1 X87.760 Y72.412 E0.02809
G1 X88.660 Y72.321 E0.02839
G1 X89.554 Y72.276 E0.02805
G1 X90.444 Y72.276 E0.02792
G1 X91.489 Y72.333 E0.03281
G1 X92.381 Y72.431 E0.02814
G1 X93.286 Y72.577 E0.02874
G1 X94.160 Y72.765 E0.02802
G1 X95.034 Y73.000 E0.02836
G1 X95.901 Y73.281 E0.02857
G1 X96.754 Y73.607 E0.02866
G1 X97.570 Y73.967 E0.02795
G1 X98.376 Y74.373 E0.02829
G1 X99.157 Y74.818 E0.02819
G1 X99.911 Y75.299 E0.02803
G1 X100.641 Y75.818 E0.02810
G1 X101.347 Y76.377 E0.02823
G1 X102.020 Y76.967 E0.02806
G1 X102.663 Y77.590 E0.02809
G1 X103.263 Y78.233 E0.02755
G1 X103.833 Y78.909 E0.02774
G1 X104.368 Y79.611 E0.02768
G1 X104.863 Y80.334 E0.02746
G1 X105.325 Y81.083 E0.02760
G1 X105.751 Y81.860 E0.02777
G1 X106.137 Y82.655 E0.02772
G1 X106.479 Y83.458 E0.02736
G1 X106.797 Y84.325 E0.02898
G1 X107.065 Y85.189 E0.02834
G1 X107.287 Y86.061 E0.02821
G1 X107.463 Y86.932 E0.02788
G1 X107.628 Y88.103 E0.03707
G1 X107.701 Y88.993 E0.02800
G1 X107.730 Y89.914 E0.02890
G1 X107.712 Y90.793 E0.02756
G1 X107.649 Y91.693 E0.02828
G1 X107.543 Y92.568 E0.02764
G1 X107.392 Y93.444 E0.02790
G1 X107.197 Y94.316 E0.02800
G1 X106.961 Y95.167 E0.02768
G1 X106.680 Y96.012 E0.02792
G1 X106.357 Y96.842 E0.02792
G1 X105.993 Y97.655 E0.02793
G1 X105.592 Y98.440 E0.02766
G1 X105.150 Y99.210 E0.02783
G1 X104.668 Y99.960 E0.02795
G1 X104.149 Y100.684 E0.02794
G1 X103.594 Y101.382 E0.02796
G1 X103.005 Y102.051 E0.02796
G1 X102.388 Y102.684 E0.02770
G1 X101.720 Y103.304 E0.02858
G1 X101.026 Y103.885 E0.02837
G1 X100.305 Y104.428 E0.02829
G1 X99.563 Y104.930 E0.02812
G1 X98.775 Y105.406 E0.02886
G1 X97.985 Y105.830 E0.02811
G1 X96.923 Y106.323 E0.03671
G1 X96.090 Y106.651 E0.02806
G1 X95.237 Y106.939 E0.02823
G1 X94.368 Y107.184 E0.02831
G1 X93.475 Y107.386 E0.02872
G1 X92.583 Y107.541 E0.02837
G1 X91.689 Y107.649 E0.02824
G1 X90.783 Y107.713 E0.02846
G1 X89.875 Y107.730 E0.02849
G1 X88.998 Y107.702 E0.02752
G1 X88.133 Y107.632 E0.02720
G1 X87.268 Y107.518 E0.02736
G1 X86.405 Y107.362 E0.02751
G1 X85.552 Y107.163 E0.02744
G1 X84.712 Y106.923 E0.02740
G1 X83.882 Y106.641 E0.02747
G1 X83.073 Y106.321 E0.02730
G1 X82.240 Y105.942 E0.02868
G1 X81.437 Y105.525 E0.02837
G1 X80.658 Y105.069 E0.02831
G1 X79.912 Y104.581 E0.02794
G1 X79.174 Y104.041 E0.02869
G1 X78.472 Y103.471 E0.02833
G1 X77.609 Y102.681 E0.03671
G1 X76.983 Y102.038 E0.02812
G1 X76.393 Y101.366 E0.02805
G1 X75.828 Y100.654 E0.02850
G1 X75.300 Y99.913 E0.02852
G1 X74.814 Y99.151 E0.02833
G1 X74.370 Y98.370 E0.02817
G1 X73.967 Y97.570 E0.02809
G1 X73.604 Y96.746 E0.02825
G1 X73.281 Y95.900 E0.02839
G1 X73.003 Y95.045 E0.02820
G1 X72.770 Y94.179 E0.02810
G1 X72.579 Y93.293 E0.02842
G1 X72.434 Y92.403 E0.02828
G1 X72.334 Y91.511 E0.02814
G1 X72.281 Y90.616 E0.02813
G1 X72.272 Y89.709 E0.02842
G1 X72.308 Y88.835 E0.02743
G1 X72.388 Y87.959 E0.02758
G1 X72.512 Y87.083 E0.02774
G1 X72.679 Y86.215 E0.02771
G1 X72.889 Y85.355 E0.02776
G1 X73.139 Y84.517 E0.02742
G1 X73.434 Y83.682 E0.02777
G1 X73.767 Y82.870 E0.02750
G1 X74.272 Y81.815 E0.03667
G1 X74.708 Y81.028 E0.02821
G1 X75.193 Y80.248 E0.02882
G1 X75.705 Y79.512 E0.02812
G1 X76.260 Y78.794 E0.02844
G1 X76.849 Y78.109 E0.02832
G1 X77.257 Y77.680 E0.01858
M204 S1250
G1 X77.530 Y77.940 F9000.000
M204 S800
G1 F1200.000
G1 X78.375 Y77.117 E0.03696
G1 X79.048 Y76.540 E0.02780
G1 X79.745 Y76.002 E0.02760
G1 X80.461 Y75.504 E0.02734
G1 X81.203 Y75.042 E0.02743
G1 X81.972 Y74.616 E0.02755
G1 X82.763 Y74.228 E0.02761
G1 X83.566 Y73.884 E0.02741
G1 X84.391 Y73.579 E0.02756
G1 X85.230 Y73.315 E0.02759
G1 X86.077 Y73.096 E0.02741
G1 X86.936 Y72.920 E0.02751
G1 X87.803 Y72.787 E0.02749
G1 X88.684 Y72.697 E0.02779
G1 X89.559 Y72.653 E0.02746
G1 X90.429 Y72.653 E0.02729
G1 X91.453 Y72.708 E0.03216
G1 X92.326 Y72.804 E0.02752
G1 X93.212 Y72.947 E0.02814
G1 X94.067 Y73.130 E0.02742
G1 X94.922 Y73.360 E0.02776
G1 X95.771 Y73.635 E0.02796
G1 X96.607 Y73.954 E0.02806
G1 X97.405 Y74.306 E0.02735
G1 X98.193 Y74.703 E0.02769
G1 X98.959 Y75.138 E0.02760
G1 X99.696 Y75.609 E0.02743
G1 X100.411 Y76.117 E0.02751
G1 X101.102 Y76.663 E0.02763
G1 X101.761 Y77.241 E0.02747
G1 X102.391 Y77.851 E0.02749
G1 X102.977 Y78.480 E0.02696
G1 X103.536 Y79.142 E0.02715
G1 X104.060 Y79.829 E0.02709
G1 X104.550 Y80.543 E0.02717
G1 X105.001 Y81.277 E0.02701
G1 X105.418 Y82.037 E0.02718
G1 X105.796 Y82.815 E0.02713
G1 X106.130 Y83.601 E0.02677
G1 X106.442 Y84.450 E0.02838
G1 X106.703 Y85.295 E0.02774
G1 X106.920 Y86.149 E0.02761
G1 X107.092 Y87.001 E0.02726
G1 X107.253 Y88.139 E0.03604
G1 X107.325 Y89.009 E0.02737
G1 X107.353 Y89.911 E0.02830
G1 X107.336 Y90.771 E0.02697
G1 X107.274 Y91.652 E0.02768
G1 X107.171 Y92.509 E0.02705
G1 X107.023 Y93.367 E0.02730
G1 X106.832 Y94.220 E0.02741
G1 X106.601 Y95.052 E0.02709
G1 X106.327 Y95.879 E0.02733
G1 X106.011 Y96.692 E0.02733
G1 X105.654 Y97.488 E0.02734
G1 X105.258 Y98.265 E0.02736
G1 X104.826 Y99.018 E0.02723
G1 X104.354 Y99.752 E0.02735
G1 X103.846 Y100.461 E0.02735
G1 X103.302 Y101.144 E0.02736
G1 X102.725 Y101.798 E0.02737
G1 X102.122 Y102.418 E0.02711
G1 X101.467 Y103.024 E0.02798
G1 X100.788 Y103.592 E0.02776
G1 X100.082 Y104.123 E0.02769
G1 X99.355 Y104.615 E0.02752
G1 X98.584 Y105.081 E0.02825
G1 X97.812 Y105.495 E0.02749
G1 X96.779 Y105.974 E0.03569
G1 X95.965 Y106.296 E0.02744
G1 X95.130 Y106.577 E0.02763
G1 X94.280 Y106.817 E0.02770
G1 X93.405 Y107.016 E0.02811
G1 X92.533 Y107.167 E0.02777
G1 X91.658 Y107.274 E0.02764
G1 X90.771 Y107.336 E0.02786
G1 X89.882 Y107.353 E0.02789
G1 X89.024 Y107.325 E0.02693
G1 X88.177 Y107.257 E0.02662
G1 X87.331 Y107.146 E0.02677
G1 X86.485 Y106.993 E0.02693
G1 X85.651 Y106.799 E0.02686
G1 X84.829 Y106.564 E0.02682
G1 X84.017 Y106.289 E0.02689
G1 X83.216 Y105.972 E0.02700
G1 X82.401 Y105.601 E0.02808
G1 X81.615 Y105.193 E0.02776
G1 X80.853 Y104.746 E0.02771
G1 X80.123 Y104.268 E0.02734
G1 X79.400 Y103.739 E0.02809
G1 X78.715 Y103.182 E0.02770
G1 X77.875 Y102.414 E0.03568
G1 X77.263 Y101.786 E0.02750
G1 X76.685 Y101.128 E0.02745
G1 X76.132 Y100.431 E0.02789
G1 X75.615 Y99.706 E0.02791
G1 X75.140 Y98.961 E0.02773
G1 X74.705 Y98.197 E0.02757
G1 X74.310 Y97.413 E0.02749
G1 X73.954 Y96.607 E0.02765
G1 X73.638 Y95.779 E0.02779
G1 X73.366 Y94.942 E0.02761
G1 X73.137 Y94.095 E0.02750
G1 X72.950 Y93.228 E0.02781
G1 X72.808 Y92.357 E0.02768
G1 X72.711 Y91.484 E0.02754
G1 X72.658 Y90.607 E0.02753
G1 X72.649 Y89.720 E0.02783
G1 X72.684 Y88.864 E0.02685
G1 X72.762 Y88.007 E0.02699
G1 X72.883 Y87.150 E0.02715
G1 X73.046 Y86.300 E0.02712
G1 X73.252 Y85.458 E0.02717
G1 X73.499 Y84.629 E0.02713
G1 X73.788 Y83.812 E0.02718
G1 X74.114 Y83.018 E0.02689
G1 X74.605 Y81.993 E0.03564
G1 X75.030 Y81.223 E0.02758
G1 X75.505 Y80.459 E0.02821
G1 X76.006 Y79.738 E0.02752
G1 X76.550 Y79.036 E0.02784
G1 X77.125 Y78.365 E0.02771
G1 X77.489 Y77.983 E0.01655
M204 S1250
G1 X77.762 Y78.243 F9000.000
M204 S800
G1 F1200.000
G1 X78.004 Y77.989 E0.01099
G1 X78.624 Y77.400 E0.02681
G1 X79.282 Y76.835 E0.02720
G1 X79.964 Y76.309 E0.02700
G1 X80.664 Y75.822 E0.02675
G1 X81.391 Y75.369 E0.02684
G1 X82.142 Y74.952 E0.02696
G1 X82.916 Y74.573 E0.02701
G1 X83.711 Y74.232 E0.02711
G1 X84.508 Y73.937 E0.02667
G1 X85.330 Y73.679 E0.02699
G1 X86.166 Y73.463 E0.02710
G1 X87.007 Y73.290 E0.02691
G1 X87.855 Y73.160 E0.02689
G1 X88.717 Y73.073 E0.02718
G1 X89.573 Y73.029 E0.02686
G1 X90.424 Y73.030 E0.02669
G1 X91.418 Y73.083 E0.03120
G1 X92.271 Y73.177 E0.02691
G1 X93.138 Y73.317 E0.02754
G1 X93.974 Y73.496 E0.02682
G1 X94.811 Y73.720 E0.02715
G1 X95.641 Y73.989 E0.02736
G1 X96.459 Y74.301 E0.02745
G1 X97.239 Y74.645 E0.02675
G1 X98.011 Y75.033 E0.02709
G1 X98.760 Y75.459 E0.02699
G1 X99.489 Y75.924 E0.02713
G1 X100.189 Y76.422 E0.02690
G1 X100.865 Y76.956 E0.02703
G1 X101.509 Y77.521 E0.02687
G1 X102.125 Y78.118 E0.02690
G1 X102.698 Y78.734 E0.02637
G1 X103.245 Y79.381 E0.02656
G1 X103.757 Y80.053 E0.02650
G1 X104.236 Y80.752 E0.02658
G1 X104.677 Y81.470 E0.02642
G1 X105.085 Y82.214 E0.02659
G1 X105.454 Y82.976 E0.02654
G1 X105.781 Y83.744 E0.02618
G1 X106.086 Y84.576 E0.02777
G1 X106.341 Y85.402 E0.02713
G1 X106.554 Y86.237 E0.02701
G1 X106.721 Y87.070 E0.02664
G1 X106.878 Y88.176 E0.03501
G1 X106.948 Y89.026 E0.02675
G1 X106.976 Y89.909 E0.02769
G1 X106.959 Y90.750 E0.02637
G1 X106.898 Y91.621 E0.02738
G1 X106.797 Y92.458 E0.02645
G1 X106.652 Y93.298 E0.02671
G1 X106.465 Y94.133 E0.02681
G1 X106.239 Y94.947 E0.02650
G1 X105.970 Y95.756 E0.02673
G1 X105.661 Y96.551 E0.02673
G1 X105.312 Y97.329 E0.02675
G1 X104.925 Y98.089 E0.02676
G1 X104.501 Y98.826 E0.02664
G1 X104.039 Y99.544 E0.02676
G1 X103.542 Y100.237 E0.02675
G1 X103.010 Y100.905 E0.02677
G1 X102.445 Y101.545 E0.02677
G1 X101.855 Y102.151 E0.02651
G1 X101.214 Y102.744 E0.02738
G1 X100.550 Y103.300 E0.02716
G1 X99.860 Y103.819 E0.02709
G1 X99.148 Y104.300 E0.02692
G1 X98.393 Y104.756 E0.02765
G1 X97.638 Y105.160 E0.02686
G1 X96.635 Y105.625 E0.03466
G1 X95.840 Y105.940 E0.02682
G1 X95.023 Y106.216 E0.02703
G1 X94.191 Y106.450 E0.02710
G1 X93.336 Y106.645 E0.02750
G1 X92.482 Y106.793 E0.02717
G1 X91.626 Y106.898 E0.02704
G1 X90.759 Y106.959 E0.02725
G1 X89.889 Y106.976 E0.02729
G1 X89.049 Y106.949 E0.02634
G1 X88.212 Y106.882 E0.02633
G1 X87.384 Y106.773 E0.02619
G1 X86.557 Y106.623 E0.02635
G1 X85.741 Y106.433 E0.02627
G1 X84.937 Y106.203 E0.02624
G1 X84.142 Y105.933 E0.02630
G1 X83.359 Y105.623 E0.02641
G1 X82.562 Y105.260 E0.02748
G1 X81.793 Y104.860 E0.02716
G1 X81.047 Y104.423 E0.02711
G1 X80.334 Y103.955 E0.02675
G1 X79.627 Y103.438 E0.02749
G1 X78.957 Y102.893 E0.02707
G1 X78.141 Y102.147 E0.03465
G1 X77.543 Y101.533 E0.02688
G1 X76.977 Y100.890 E0.02685
G1 X76.436 Y100.208 E0.02729
G1 X75.931 Y99.499 E0.02731
G1 X75.465 Y98.770 E0.02712
G1 X75.039 Y98.022 E0.02697
G1 X74.653 Y97.257 E0.02689
G1 X74.304 Y96.468 E0.02704
G1 X73.995 Y95.658 E0.02718
G1 X73.728 Y94.839 E0.02701
G1 X73.505 Y94.010 E0.02690
G1 X73.321 Y93.162 E0.02721
G1 X73.182 Y92.310 E0.02708
G1 X73.087 Y91.456 E0.02694
G1 X73.035 Y90.599 E0.02693
G1 X73.026 Y89.730 E0.02723
G1 X73.061 Y88.884 E0.02655
G1 X73.137 Y88.046 E0.02640
G1 X73.255 Y87.207 E0.02656
G1 X73.415 Y86.376 E0.02653
G1 X73.617 Y85.553 E0.02658
G1 X73.859 Y84.742 E0.02654
G1 X74.142 Y83.942 E0.02659
G1 X74.460 Y83.166 E0.02628
G1 X74.937 Y82.171 E0.03462
G1 X75.353 Y81.418 E0.02696
G1 X75.818 Y80.670 E0.02761
G1 X76.308 Y79.965 E0.02691
G1 X76.839 Y79.278 E0.02724
G1 X77.402 Y78.622 E0.02711
G1 X77.721 Y78.286 E0.01451
M204 S1250
G1 X77.994 Y78.546 F9000.000
M204 S800
G1 F1200.000
G1 X78.267 Y78.259 E0.01242
G1 X78.873 Y77.683 E0.02621
